<?xml version="1.0" encoding="UTF-8"?>
<map version="1.10" tiledversion="1.12.2" orientation="orthogonal" renderorder="right-down" compressionlevel="0" width="28" height="15" tilewidth="16" tileheight="16" infinite="0" nextlayerid="21" nextobjectid="4">
 <tileset firstgid="1" name="z_coopTiles" tilewidth="16" tileheight="16" tilecount="84" columns="4">
  <image source="coopTiles.png" width="64" height="336"/>
  <tile id="12">
   <properties>
    <property name="Type" value="Wood"/>
   </properties>
  </tile>
  <tile id="25">
   <properties>
    <property name="Type" value="Wood"/>
   </properties>
  </tile>
  <tile id="33">
   <properties>
    <property name="Passable" type="int" value="0"/>
    <property name="Trough" value="T"/>
   </properties>
  </tile>
  <tile id="53">
   <properties>
    <property name="Type" value="Wood"/>
   </properties>
  </tile>
  <tile id="54">
   <properties>
    <property name="Type" value="Wood"/>
   </properties>
  </tile>
 </tileset>
 <tileset firstgid="85" name="townInterior" tilewidth="16" tileheight="16" tilecount="2176" columns="32">
  <image source="townInterior.png" width="512" height="1088"/>
 </tileset>
 <tileset firstgid="2261" name="z_walls_and_floors" tilewidth="16" tileheight="16" tilecount="688" columns="16">
  <image source="walls_and_floors.png" width="256" height="688"/>
 </tileset>
 <tileset firstgid="2949" name="z_furniture_2" tilewidth="16" tileheight="16" tilecount="512" columns="16">
  <image source="z_furniture_2_Hogwarts.png" width="256" height="512"/>
 </tileset>
 <tileset firstgid="3461" name="z_townInterior_2" tilewidth="16" tileheight="16" tilecount="1312" columns="32">
  <image source="townInterior_2.png" width="512" height="656"/>
 </tileset>
 <tileset firstgid="4773" name="z_spring_outdoorsTileSheet" tilewidth="16" tileheight="16" tilecount="1975" columns="25">
  <image source="spring_outdoorsTileSheet.png" width="400" height="1264"/>
 </tileset>
 <tileset firstgid="6748" name="z_hptiles_Hogwarts" tilewidth="16" tileheight="16" tilecount="2048" columns="32">
  <image source="z_hptiles_Hogwarts.png" width="512" height="1024"/>
 </tileset>
 <tileset firstgid="8796" name="z_furniture_Hogwarts" tilewidth="16" tileheight="16" tilecount="2976" columns="32">
  <image source="z_furniture_Hogwarts.png" width="512" height="1488"/>
 </tileset>
 <tileset firstgid="11772" name="z_Craftables_Hogwarts" tilewidth="16" tileheight="16" tilecount="576" columns="8">
  <image source="z_Craftables_Hogwarts.png" width="128" height="1152"/>
 </tileset>
 <tileset firstgid="12348" name="z_springobjects" tilewidth="16" tileheight="16" tilecount="936" columns="24">
  <image source="springobjects.png" width="384" height="624"/>
 </tileset>
 <tileset firstgid="13284" name="z_AstronomyKitchen_SC_Hogwarts" tilewidth="16" tileheight="16" tilecount="660" columns="22">
  <image source="z_AstronomyKitchen_SC_Hogwarts.png" width="352" height="480"/>
 </tileset>
 <layer id="1" name="Back" width="28" height="15">
  <data encoding="csv">
13,13,13,13,13,13,13,13,13,13,13,54,54,54,13,13,13,13,0,0,0,0,0,0,0,0,0,0,
28,28,28,28,28,28,28,28,2280,28,28,28,28,28,2280,28,28,17,0,28,28,28,28,28,28,28,28,0,
13,13,13,13,13,13,13,13,13,13,13,13,13,13,13,13,13,21,0,32,32,32,32,32,32,32,32,0,
54,1390,1389,1390,1389,1390,1422,1390,1390,1389,1390,1422,692,691,692,691,692,55,0,2635,2636,2636,2636,2636,2636,2636,2636,0,
13,1422,1421,1422,1421,1422,1421,1384,1385,1386,1387,1421,724,723,724,723,724,0,0,2635,2636,2636,2652,2652,2652,2652,2652,0,
13,1390,1389,1390,1389,1390,1389,1416,1417,1418,1419,1389,692,691,692,691,692,0,0,2635,2635,2635,2635,2635,2635,2635,2636,0,
13,1390,1389,1390,1389,1390,1422,1448,1449,1450,1451,1422,724,723,724,723,724,0,0,2635,2636,2636,2636,2636,2636,2636,2636,0,
13,1128,1128,1128,1128,1128,1128,1128,1128,1128,1128,1128,692,691,692,691,692,691,692,2635,2635,2635,2635,2635,2635,2635,2636,0,
13,723,724,723,724,723,724,724,723,724,723,724,724,723,724,723,724,55,0,2635,2636,2636,2636,2636,2636,2636,2636,2636,
13,691,692,691,692,691,692,692,691,692,691,692,692,691,692,691,692,55,0,2651,2652,2652,2652,2652,2652,2652,2652,2652,
13,723,724,723,724,723,724,724,723,724,723,724,724,723,724,723,724,55,0,0,0,0,0,0,0,0,0,0,
13,691,692,691,692,691,692,692,691,692,691,692,692,691,692,691,692,55,0,0,0,0,0,0,0,0,0,0,
13,723,724,723,724,723,724,724,723,724,723,724,724,723,724,723,724,55,0,0,0,0,0,0,0,0,0,0,
13,691,692,691,692,691,692,692,691,692,691,692,692,691,692,691,692,55,0,0,0,0,0,0,0,0,0,0,
13,13,13,13,724,13,13,13,13,13,13,13,13,13,13,13,13,13,0,0,0,0,0,0,0,0,0,0
</data>
 </layer>
 <layer id="13" name="Back1" width="28" height="15">
  <data encoding="csv">
0,0,0,0,0,0,0,0,0,0,0,0,0,0,0,0,0,0,0,0,0,0,0,0,0,0,0,0,
0,0,0,0,0,0,0,0,0,0,0,0,0,0,0,0,0,0,0,0,0,0,0,0,0,0,0,0,
0,0,0,0,0,0,0,0,0,0,0,0,0,0,0,0,0,0,0,0,0,0,0,0,0,0,0,0,
0,1511,1511,1511,1511,1511,1511,1511,1511,1511,1511,1511,1610614247,1511,0,0,1511,0,0,1511,1511,1511,1511,1511,0,0,1511,0,
0,0,0,0,0,0,0,0,0,0,0,0,1610614247,0,0,12355,0,0,0,0,0,0,0,0,0,0,0,0,
0,0,0,0,0,0,0,0,0,0,0,0,1610614247,0,0,0,0,0,0,0,11590,11591,11591,11592,11593,0,0,0,
0,0,1511,1511,1511,1511,1511,0,0,0,0,0,1610614247,0,0,0,0,0,0,0,11622,11623,11623,11624,11625,0,0,0,
0,0,0,0,0,0,0,0,0,0,0,0,1610614247,0,0,0,0,1511,1511,0,11654,11655,11655,11656,11657,0,0,0,
0,0,0,0,0,0,0,0,0,0,0,0,0,0,0,0,0,0,0,0,0,0,0,0,3606,3607,0,0,
0,0,0,0,0,0,0,0,0,0,0,0,0,0,0,0,0,0,0,0,0,0,0,3916,3638,3639,0,0,
0,0,0,0,0,0,0,0,0,0,0,0,0,0,0,0,0,0,0,0,0,0,0,0,0,0,0,0,
0,0,0,0,0,0,0,0,0,0,0,0,0,0,0,0,0,0,0,0,0,0,0,0,0,0,0,0,
0,12510,0,0,0,0,0,0,0,0,0,0,0,0,0,0,0,0,0,0,0,0,0,0,0,0,0,0,
0,0,0,0,0,0,0,0,0,0,0,0,1511,1511,1511,1511,0,0,0,0,0,0,0,0,0,0,0,0,
0,0,0,0,0,0,0,0,0,0,0,0,0,0,0,0,0,0,0,0,0,0,0,0,0,0,0,0
</data>
 </layer>
 <layer id="18" name="Back2" width="28" height="15">
  <data encoding="csv">
0,0,0,0,0,0,0,0,0,0,0,0,0,0,0,0,0,0,0,0,0,0,0,0,0,0,0,0,
0,0,0,0,0,0,0,0,0,0,0,0,0,0,0,0,0,0,0,0,0,0,0,0,0,0,0,0,
0,0,0,0,0,0,0,0,0,0,0,0,0,0,0,0,0,0,0,0,0,0,0,0,0,0,0,0,
0,0,0,0,0,0,0,0,0,0,0,0,1511,0,0,0,0,0,0,0,0,0,0,0,0,0,0,0,
0,0,0,0,0,0,0,0,0,0,0,0,0,0,0,0,0,0,0,0,0,0,0,0,0,0,0,0,
0,0,0,0,0,0,0,0,0,0,0,0,0,0,0,0,0,0,0,0,0,0,0,0,0,0,0,0,
0,0,0,0,0,0,0,0,0,0,0,0,0,0,0,0,0,0,0,0,0,0,0,0,0,0,0,0,
0,0,0,0,0,0,0,0,0,0,0,0,0,0,0,0,0,0,0,0,0,0,0,0,0,0,0,0,
0,0,0,0,0,0,0,0,0,0,0,0,0,0,0,0,0,0,0,0,0,0,0,0,0,3926,0,0,
0,0,0,0,0,0,0,0,0,0,0,0,0,0,0,0,0,0,0,0,0,0,0,0,2147487227,0,0,0,
0,0,0,0,0,0,0,0,0,0,0,0,0,0,0,0,0,0,0,0,0,0,0,0,0,0,0,0,
0,0,0,0,0,0,0,0,0,0,0,0,0,0,0,0,0,0,0,0,0,0,0,0,0,0,0,0,
0,0,0,0,0,0,0,0,0,0,0,0,0,0,0,0,0,0,0,0,0,0,0,0,0,0,0,0,
0,0,0,0,0,0,0,0,0,0,0,0,0,0,0,0,0,0,0,0,0,0,0,0,0,0,0,0,
0,0,0,0,0,0,0,0,0,0,0,0,0,0,0,0,0,0,0,0,0,0,0,0,0,0,0,0
</data>
 </layer>
 <layer id="3" name="Buildings" width="28" height="15">
  <data encoding="csv">
1,49,49,49,49,49,49,49,49,49,49,49,49,49,49,49,49,3,1,49,49,49,49,49,49,49,49,49,
5,0,0,25,25,0,0,0,25,25,0,0,0,0,25,25,0,7,5,0,2147484524,2147484523,2147484522,25,25,0,0,49,
5,21,21,21,21,21,21,21,21,21,0,21,21,21,21,21,21,7,5,0,2147484556,2147484555,2147484554,0,21,21,21,49,
5,1444,1445,1244,0,3047,76,2003,0,0,605,0,0,0,2147490143,3130,76,6,12,1881,1882,441,442,3079,0,11912,10157,49,
5,0,1002,0,0,0,0,0,0,0,0,0,6910,3013,0,0,1038,28,28,0,0,0,0,0,0,0,0,49,
5,6916,1034,1035,1036,1035,1035,0,0,0,0,0,6910,0,0,0,1070,28,28,0,0,405,406,0,0,0,2232,49,
5,0,0,0,0,0,0,0,0,0,0,0,0,0,0,0,1102,21,21,0,0,0,0,0,0,0,0,49,
5,0,0,0,0,0,0,0,0,0,0,0,0,0,0,0,0,0,0,0,0,1264,9962,9963,0,0,885,49,
5,0,0,0,0,0,0,0,0,0,0,0,0,0,0,0,0,49,49,0,0,0,9994,9995,2147484567,0,917,49,
5,0,0,0,0,0,0,0,0,0,0,0,0,0,0,0,6295,49,49,2232,2232,0,0,0,0,0,949,49,
5,1557,1558,0,0,0,885,0,885,0,885,0,0,0,0,11803,12022,49,49,49,49,49,49,49,49,49,49,49,
5,13371,1571,0,0,0,917,0,917,0,917,0,3180,3181,3182,3183,11803,49,49,49,49,49,49,49,49,49,49,49,
5,0,0,0,0,0,949,0,949,0,949,0,3196,3197,3198,3199,2147490532,49,49,49,49,49,49,49,49,49,49,49,
9,975,976,0,0,0,2258,0,2258,2258,0,0,0,0,0,0,2147490560,49,49,49,49,49,49,49,49,49,49,49,
49,49,49,49,0,49,49,49,49,49,49,49,49,49,49,49,49,49,49,49,49,49,49,49,49,49,49,49
</data>
 </layer>
 <layer id="12" name="Buildings1" width="28" height="15">
  <data encoding="csv">
0,0,0,0,0,0,0,0,0,0,0,0,0,0,0,0,0,0,0,0,0,0,0,0,0,0,0,0,
0,1903,1904,0,0,0,3221227343,3221227342,0,0,0,0,0,1073743694,1073743695,0,0,0,0,3221227342,3221227343,0,0,0,0,0,0,0,
0,0,0,0,0,0,0,0,0,0,21,7221,7222,0,0,0,0,0,0,0,0,0,0,0,0,0,0,0,
0,0,970,0,0,0,0,0,0,0,0,0,0,0,0,0,0,0,0,0,0,0,0,0,0,0,0,0,
0,0,0,0,0,0,0,0,0,0,0,0,0,0,0,0,0,1610614247,2684356071,0,0,0,0,0,0,0,0,0,
0,0,0,0,0,0,0,0,0,0,0,0,0,0,0,0,0,1610614247,2684356071,0,0,0,0,0,0,0,0,0,
0,0,0,0,0,0,0,0,0,0,0,0,0,0,0,0,0,1610614247,2684356071,0,0,0,0,0,0,0,0,0,
0,0,0,0,0,0,0,0,0,0,0,0,0,0,0,0,0,0,0,0,0,0,0,0,0,0,0,0,
0,0,0,0,0,0,0,0,0,0,0,0,0,0,0,0,0,0,0,0,0,0,0,0,0,0,0,0,
0,0,0,0,0,0,0,0,0,0,0,0,0,0,0,0,0,0,0,0,0,0,0,0,0,0,0,0,
0,0,0,0,0,0,0,0,0,0,0,0,0,0,0,0,11795,0,0,0,0,0,0,0,0,0,0,0,
0,0,0,0,0,0,0,0,0,0,0,0,0,0,0,0,0,0,0,0,0,0,0,0,0,0,0,0,
0,0,0,0,0,0,0,0,0,0,0,0,0,0,0,0,0,0,0,0,0,0,0,0,0,0,0,0,
0,0,0,0,0,0,0,0,0,0,0,0,0,0,0,0,0,0,0,0,0,0,0,0,0,0,0,0,
0,0,0,0,0,0,0,0,0,0,0,0,0,0,0,0,0,0,0,0,0,0,0,0,0,0,0,0
</data>
 </layer>
 <layer id="15" name="Buildings2" width="28" height="15">
  <data encoding="csv">
0,0,0,0,0,0,0,0,0,0,0,0,0,0,0,0,0,0,0,0,0,0,0,0,0,0,0,0,
0,0,0,0,0,0,0,0,0,0,0,0,0,0,0,0,0,0,0,0,0,0,0,0,0,0,0,0,
0,0,0,0,0,0,0,0,0,0,0,0,0,0,0,0,0,0,0,0,0,0,0,0,0,0,0,0,
0,0,0,0,0,0,0,0,0,0,0,0,0,0,0,0,0,0,0,0,0,0,0,0,0,0,0,0,
0,0,0,0,0,0,0,0,0,0,0,0,0,0,0,0,0,4135,4136,0,0,0,0,0,0,0,0,0,
0,0,0,0,0,0,0,0,0,0,0,0,0,0,0,0,0,4167,4168,0,0,0,0,0,0,0,0,0,
0,0,0,0,0,0,0,0,0,0,0,0,0,0,0,0,0,0,0,0,0,0,0,0,0,0,0,0,
0,0,0,0,0,0,0,0,0,0,0,0,0,0,0,0,0,0,0,0,0,0,0,0,0,0,0,0,
0,0,0,0,0,0,0,0,0,0,0,0,0,0,0,0,0,0,0,0,0,0,0,0,0,0,0,0,
0,0,0,0,0,0,0,0,0,0,0,0,0,0,0,0,0,0,0,0,0,0,0,0,0,0,0,0,
0,0,0,0,0,0,0,0,0,0,0,0,0,0,0,0,0,0,0,0,0,0,0,0,0,0,0,0,
0,0,0,0,0,0,0,0,0,0,0,0,0,0,0,0,0,0,0,0,0,0,0,0,0,0,0,0,
0,0,0,0,0,0,0,0,0,0,0,0,0,0,0,0,0,0,0,0,0,0,0,0,0,0,0,0,
0,0,0,0,0,0,0,0,0,0,0,0,0,0,0,0,0,0,0,0,0,0,0,0,0,0,0,0,
0,0,0,0,0,0,0,0,0,0,0,0,0,0,0,0,0,0,0,0,0,0,0,0,0,0,0,0
</data>
 </layer>
 <layer id="7" name="Paths" width="28" height="15">
  <data encoding="csv">
0,0,0,0,0,0,0,0,0,0,0,0,0,0,0,0,0,0,0,0,0,0,0,0,0,0,0,0,
0,0,0,0,0,0,0,0,0,0,0,0,0,0,0,0,0,0,0,0,0,0,0,0,0,0,0,0,
0,0,0,0,0,0,0,0,0,0,0,0,0,0,0,0,0,0,0,0,0,0,0,0,0,0,0,0,
0,0,0,0,0,0,0,0,0,0,0,0,0,0,0,0,0,0,0,0,0,0,0,0,0,0,0,0,
0,0,0,0,0,0,0,0,0,0,0,0,0,0,0,0,0,0,0,0,0,0,0,0,0,0,0,0,
0,0,0,0,0,0,0,0,0,0,0,0,0,0,0,0,0,0,0,0,0,0,0,0,0,0,0,0,
0,0,0,0,0,0,0,0,0,0,0,0,0,0,0,0,0,0,0,0,0,0,0,0,0,0,0,0,
0,0,0,0,0,0,0,0,0,0,0,0,0,0,0,0,0,0,0,0,0,0,0,0,0,0,0,0,
0,0,0,0,0,0,0,0,0,0,0,0,0,0,0,0,0,0,0,0,0,0,0,0,0,0,0,0,
0,0,0,0,0,0,0,0,0,0,0,0,0,0,0,0,0,0,0,0,0,0,0,0,0,0,0,0,
0,0,0,0,0,0,0,0,0,0,0,0,0,0,0,0,0,0,0,0,0,0,0,0,0,0,0,0,
0,0,0,0,0,0,0,0,0,0,0,0,0,0,0,0,0,0,0,0,0,0,0,0,0,0,0,0,
0,0,0,0,0,0,0,0,0,0,0,0,0,0,0,0,0,0,0,0,0,0,0,0,0,0,0,0,
0,0,0,0,0,0,0,0,0,0,0,0,0,0,0,0,0,0,0,0,0,0,0,0,0,0,0,0,
0,0,0,0,0,0,0,0,0,0,0,0,0,0,0,0,0,0,0,0,0,0,0,0,0,0,0,0
</data>
 </layer>
 <layer id="5" name="Front" width="28" height="15">
  <data encoding="csv">
0,2,2,2,2,2,2,2,2,2,2,2,2,2,2,2,2,0,0,2,2,2,2,2,2,2,2,3,
0,0,0,0,0,0,0,0,0,10458,6882,7189,7190,0,0,0,1730,0,0,0,0,0,0,0,2147494106,2147485378,0,7,
0,1412,1413,0,0,3031,72,1971,0,0,573,0,0,2981,0,3114,72,0,0,0,0,409,410,3063,0,11904,10180,7,
0,0,6880,0,0,0,0,0,0,0,0,0,6878,2997,0,0,942,0,0,0,0,503,504,0,0,0,0,7,
0,6884,6912,1003,1004,1003,1003,0,0,0,0,0,6878,0,0,0,0,0,0,0,0,535,536,0,0,0,2200,7,
0,0,0,0,0,0,0,0,0,0,0,0,0,0,0,0,0,0,0,0,0,0,0,0,0,0,0,7,
0,0,0,0,0,0,0,0,0,0,0,0,0,0,0,0,0,0,0,0,0,0,9930,9931,0,0,821,7,
0,1461,1462,0,0,0,0,0,0,0,0,0,0,0,0,0,0,8,4,0,0,0,0,0,0,0,0,7,
0,1493,1494,0,0,0,0,0,0,0,0,0,0,0,0,0,6270,7,5,2200,2200,0,0,0,0,0,0,7,
0,1525,1526,0,0,0,821,0,821,0,821,0,0,0,0,72,12014,7,9,10,10,10,10,10,10,10,10,11,
0,13349,0,0,0,0,1049,0,0,0,983,0,3164,3165,3166,3167,12929,7,0,0,0,0,0,0,0,0,0,0,
0,0,0,0,0,0,1081,0,0,0,0,0,0,0,0,0,0,7,0,0,0,0,0,0,0,0,0,0,
0,943,944,0,0,0,2147485874,0,2226,2147485874,0,0,0,0,0,0,2147490528,7,0,0,0,0,0,0,0,0,0,0,
0,10,10,4,0,8,10,10,10,10,10,10,10,10,10,10,10,11,0,0,0,0,0,0,0,0,0,0,
0,0,0,9,10,11,0,0,0,0,0,0,0,0,0,0,0,0,0,0,0,0,0,0,0,0,0,0
</data>
 </layer>
 <layer id="9" name="Front1" width="28" height="15">
  <data encoding="csv">
0,0,0,0,0,0,0,0,0,0,0,0,0,0,0,0,0,0,0,0,0,0,0,0,0,0,0,0,
0,0,0,0,0,0,0,0,0,0,0,0,0,0,0,0,0,0,0,0,0,0,0,0,0,0,0,0,
0,0,0,0,0,0,0,0,0,0,6914,0,0,0,0,0,0,0,0,0,0,0,0,0,0,0,0,0,
0,0,0,0,0,0,0,0,0,0,0,0,0,0,0,0,0,0,0,0,0,0,0,0,0,0,0,0,
0,0,0,0,0,0,13462,0,0,0,0,0,0,0,0,0,0,0,0,0,0,0,0,0,0,0,0,0,
0,0,0,0,0,0,0,0,0,0,0,0,0,0,0,0,0,0,0,0,0,0,0,0,0,0,0,0,
0,0,0,0,0,0,0,0,0,0,0,0,0,0,0,0,0,0,0,0,0,0,0,0,0,0,919,0,
0,0,0,0,0,0,0,0,0,0,0,0,0,0,0,0,0,0,0,0,0,0,13507,0,0,0,0,0,
0,0,0,0,0,0,0,0,0,0,0,0,0,0,0,0,0,0,0,0,0,0,0,0,0,0,0,0,
0,0,0,0,0,0,13174,0,6920,0,3548,0,0,0,0,0,0,0,0,0,0,0,0,0,0,0,0,0,
0,2147496578,0,0,0,0,0,0,0,0,0,0,0,0,0,0,0,0,0,0,0,0,0,0,0,0,0,0,
0,0,0,0,0,0,0,0,0,0,0,0,0,0,0,0,0,0,0,0,0,0,0,0,0,0,0,0,
0,0,0,0,0,0,0,0,0,0,0,0,0,0,0,0,0,0,0,0,0,0,0,0,0,0,0,0,
0,0,0,0,0,0,0,0,0,0,0,0,0,0,0,0,0,0,0,0,0,0,0,0,0,0,0,0,
0,0,0,0,0,0,0,0,0,0,0,0,0,0,0,0,0,0,0,0,0,0,0,0,0,0,0,0
</data>
 </layer>
 <objectgroup id="2" name="Back"/>
 <objectgroup id="19" name="Back1"/>
 <objectgroup id="20" name="Back2"/>
 <objectgroup id="4" name="Buildings"/>
 <objectgroup id="17" name="Buildings1"/>
 <objectgroup id="16" name="Buildings2"/>
 <objectgroup id="8" name="Paths"/>
 <objectgroup id="6" name="Front"/>
 <objectgroup id="10" name="Front1"/>
</map>
