<?xml version="1.0" encoding="UTF-8"?>
<map version="1.10" tiledversion="1.11.2" orientation="orthogonal" renderorder="right-down" compressionlevel="0" width="30" height="22" tilewidth="16" tileheight="16" infinite="0" nextlayerid="21" nextobjectid="6">
 <tileset firstgid="1" name="z_ArithmancyCharmsDADA_ICEC_Hogwarts" tilewidth="16" tileheight="16" tilecount="814" columns="22">
  <image source="z_ArithmancyCharmsDADA_ICEC_Hogwarts.png" width="352" height="592"/>
 </tileset>
 <tileset firstgid="815" name="townInterior" tilewidth="16" tileheight="16" tilecount="2176" columns="32">
  <image source="townInterior.png" width="512" height="1088"/>
 </tileset>
 <tileset firstgid="2991" name="townInterior_2" tilewidth="16" tileheight="16" tilecount="1312" columns="32">
  <image source="townInterior_2.png" width="512" height="656"/>
 </tileset>
 <tileset firstgid="4303" name="z_AstronomyKitchen_SC_Hogwarts" tilewidth="16" tileheight="16" tilecount="660" columns="22">
  <image source="z_AstronomyKitchen_SC_Hogwarts.png" width="352" height="480"/>
 </tileset>
 <tileset firstgid="4963" name="z_furniture_Hogwarts" tilewidth="16" tileheight="16" tilecount="2976" columns="32">
  <image source="z_furniture_Hogwarts.png" width="512" height="1488"/>
 </tileset>
 <tileset firstgid="7939" name="z_GrandStaircase_Hxoni_Hogwarts" tilewidth="16" tileheight="16" tilecount="240" columns="12">
  <image source="z_GrandStaircase_Hxoni_Hogwarts.png" width="192" height="320"/>
 </tileset>
 <tileset firstgid="8179" name="z_FacultyTower_Hxoni_Hogwarts" tilewidth="16" tileheight="16" tilecount="437" columns="19">
  <image source="z_FacultyTower_Hxoni_Hogwarts.png" width="304" height="368"/>
  <tile id="399">
   <animation>
    <frame tileid="399" duration="250"/>
    <frame tileid="400" duration="250"/>
    <frame tileid="401" duration="250"/>
    <frame tileid="402" duration="250"/>
    <frame tileid="403" duration="250"/>
    <frame tileid="404" duration="250"/>
    <frame tileid="405" duration="250"/>
    <frame tileid="406" duration="250"/>
    <frame tileid="399" duration="250"/>
    <frame tileid="399" duration="250"/>
    <frame tileid="399" duration="250"/>
    <frame tileid="399" duration="250"/>
    <frame tileid="400" duration="250"/>
    <frame tileid="401" duration="250"/>
    <frame tileid="402" duration="250"/>
    <frame tileid="403" duration="250"/>
    <frame tileid="404" duration="250"/>
    <frame tileid="405" duration="250"/>
    <frame tileid="406" duration="250"/>
    <frame tileid="399" duration="250"/>
    <frame tileid="399" duration="250"/>
    <frame tileid="399" duration="250"/>
    <frame tileid="399" duration="250"/>
   </animation>
  </tile>
 </tileset>
 <tileset firstgid="8616" name="z_Library_HitMe_Hogwarts" tilewidth="16" tileheight="16" tilecount="924" columns="21">
  <image source="z_Library_HitMe_Hogwarts.png" width="336" height="704"/>
 </tileset>
 <tileset firstgid="9540" name="z_HogsmeadeInterior_Hxoni_Hogwarts" tilewidth="16" tileheight="16" tilecount="874" columns="23">
  <image source="z_HogsmeadeInterior_Hxoni_Hogwarts.png" width="368" height="608"/>
 </tileset>
 <tileset firstgid="10414" name="z_GrandStaircase_HitMe_Hogwarts" tilewidth="16" tileheight="16" tilecount="420" columns="21">
  <image source="z_GrandStaircase_HitMe_Hogwarts.png" width="336" height="320"/>
 </tileset>
 <tileset firstgid="10834" name="paths" tilewidth="16" tileheight="16" tilecount="64" columns="4">
  <image source="paths.png" width="64" height="256"/>
 </tileset>
 <layer id="1" name="Back" width="30" height="22">
  <data encoding="csv">
0,0,0,0,0,0,0,0,0,0,0,0,0,0,0,0,0,0,0,0,0,0,0,0,0,0,0,0,0,0,
0,0,0,779,778,779,0,0,0,0,0,0,0,0,0,0,0,0,0,0,0,0,0,0,0,0,0,0,0,0,
800,801,800,801,800,801,800,801,0,0,0,0,0,0,0,0,0,0,0,0,0,0,0,0,0,0,0,0,0,801,
778,779,778,779,778,779,778,779,778,779,778,779,778,779,778,779,778,779,778,779,778,779,778,779,778,779,778,779,778,779,
800,801,800,801,800,801,800,801,800,801,800,801,800,801,800,801,800,801,800,801,800,801,800,801,800,801,800,801,800,801,
778,779,778,779,778,779,778,779,778,779,778,779,778,779,778,779,778,779,778,779,778,779,778,779,778,779,778,779,778,779,
800,801,800,801,800,801,800,801,800,801,800,801,800,801,800,801,0,0,800,801,800,801,800,801,800,801,800,801,800,801,
778,779,778,779,778,779,778,779,778,779,778,779,778,779,778,779,778,779,778,779,778,779,778,779,778,779,778,779,778,779,
800,801,800,801,800,801,800,801,800,801,800,801,800,801,800,801,800,801,800,801,800,801,800,801,800,801,800,801,800,801,
778,779,778,779,778,779,778,779,778,779,778,779,778,779,778,779,778,779,778,779,778,779,778,779,778,779,778,779,778,779,
800,801,800,801,800,801,800,801,800,801,800,801,800,801,800,801,800,801,800,801,800,801,800,801,800,801,800,801,800,801,
778,779,778,779,778,779,778,779,778,779,778,779,778,779,778,779,778,779,778,779,778,779,778,779,778,779,778,779,778,779,
800,801,800,801,800,801,800,801,800,801,800,801,800,801,800,801,800,801,800,801,800,801,800,801,800,801,800,801,800,801,
778,779,778,779,778,779,778,779,778,779,778,779,778,779,778,779,778,779,779,778,779,778,779,778,779,0,0,0,0,0,
800,801,800,801,800,801,800,801,800,801,800,801,800,801,800,801,800,801,801,800,801,800,801,800,801,0,0,0,0,0,
778,779,778,779,778,779,778,779,778,779,778,779,778,779,778,779,778,779,779,778,779,778,779,778,779,0,0,0,0,0,
800,801,800,801,800,801,800,801,800,801,800,801,800,801,800,801,800,801,801,800,801,800,801,800,801,0,0,0,0,0,
778,779,778,779,778,779,778,779,778,779,778,779,778,779,778,779,778,779,779,778,779,778,779,778,779,0,0,0,0,0,
800,801,800,801,800,801,800,801,800,801,800,801,800,801,800,801,800,801,801,800,801,800,801,800,801,0,0,0,0,0,
778,779,778,779,778,779,778,779,778,779,778,779,778,779,778,779,778,779,779,778,779,778,779,778,779,0,0,0,0,0,
800,801,800,801,800,801,800,801,800,801,800,801,800,801,800,801,800,801,801,800,801,800,801,800,801,0,0,0,0,0,
778,0,0,0,778,779,778,779,778,779,778,779,0,0,0,0,0,0,779,778,779,778,779,778,779,0,0,0,0,0
</data>
 </layer>
 <layer id="11" name="Back1" width="30" height="22">
  <data encoding="csv">
0,0,0,0,0,0,0,0,0,0,0,0,0,0,0,0,0,0,0,0,0,0,0,0,0,0,0,0,0,0,
0,0,0,0,0,0,0,0,0,0,0,0,0,0,0,0,0,0,0,0,0,0,0,0,0,0,0,0,0,0,
0,0,0,0,0,0,0,0,0,0,0,0,0,0,0,0,0,0,0,0,0,0,0,0,0,0,0,0,0,0,
0,0,0,0,0,0,0,0,0,0,0,0,0,0,0,0,0,0,0,0,0,0,0,0,0,0,0,0,0,0,
0,0,0,0,0,0,0,0,0,0,0,0,0,0,0,0,0,0,0,0,0,0,0,0,0,0,0,0,0,0,
0,0,0,0,0,0,0,0,0,0,0,0,0,0,0,0,0,0,0,0,0,0,0,0,0,0,0,0,0,0,
0,0,0,0,0,0,0,0,0,0,0,0,0,0,0,0,0,0,0,0,0,9212,9213,9213,9214,9214,9215,0,0,0,
0,0,0,0,0,0,0,0,0,0,0,0,0,0,0,0,0,0,0,0,0,9233,9234,9234,9235,9235,9236,0,0,0,
0,3082,0,0,0,0,0,0,0,0,0,0,0,0,0,0,0,0,0,0,0,9233,9234,9234,9235,9235,9236,0,0,0,
0,0,0,0,0,0,0,0,0,0,0,0,0,0,0,0,0,0,0,0,0,9233,9234,9234,9235,9235,9236,0,0,0,
0,0,0,0,0,0,0,0,0,0,0,0,0,0,0,0,0,0,0,0,0,9254,9255,9255,9256,9256,9257,0,0,0,
0,0,0,0,0,0,0,0,0,0,0,0,0,0,0,0,0,0,0,0,0,0,0,0,0,0,0,0,0,0,
0,0,0,0,10128,10129,0,0,0,0,0,0,0,0,0,0,0,0,0,0,0,0,0,0,0,0,0,0,0,0,
0,0,0,0,10151,10152,0,0,0,0,0,0,0,0,0,0,0,0,0,0,0,0,0,0,0,0,0,0,0,0,
0,0,0,0,0,0,0,0,0,0,0,0,0,0,0,0,0,0,0,0,0,0,0,0,0,0,0,0,0,0,
0,0,0,0,0,0,0,0,0,0,0,0,0,0,0,0,0,0,0,0,0,0,0,0,0,0,0,0,0,0,
0,0,0,0,0,0,0,0,0,0,0,0,0,0,0,0,0,0,0,0,0,0,0,0,0,0,0,0,0,0,
0,0,0,0,0,0,0,0,0,0,0,0,0,0,0,0,0,0,0,0,0,0,0,0,0,0,0,0,0,0,
0,0,0,0,0,0,0,0,0,0,0,0,0,0,0,0,0,0,0,0,0,0,0,0,0,0,0,0,0,0,
0,0,0,0,0,0,0,0,0,0,0,0,0,0,0,0,0,0,0,0,0,0,0,0,0,0,0,0,0,0,
0,0,0,0,0,0,0,0,0,0,0,0,0,0,0,0,0,0,0,0,0,0,0,0,0,0,0,0,0,0,
0,0,0,0,0,0,0,0,0,0,0,0,0,0,0,0,0,0,0,0,0,0,0,0,0,0,0,0,0,0
</data>
 </layer>
 <layer id="5" name="Buildings" width="30" height="22">
  <data encoding="csv">
815,815,815,815,815,3110,3111,3111,3111,3111,3111,3111,3112,815,815,815,815,815,815,3110,3111,3111,3111,3111,3111,3111,3111,3111,3112,815,
815,815,815,815,815,3142,10425,10425,10425,10425,10425,10425,3144,815,815,815,815,815,3110,3239,10425,10425,10425,10425,10425,10425,10425,10425,3238,3112,
815,815,3110,3111,3111,3239,10446,10446,10446,10446,10446,10446,3238,3111,3111,3112,815,815,3142,10425,10446,10446,10446,10446,10446,10446,10446,10446,10425,3144,
815,815,3142,10425,10425,10425,10740,10740,10740,10740,10740,10740,10425,10425,10425,3144,815,815,3142,10446,10446,10446,10446,10446,10446,10446,10446,10446,10446,3144,
3110,3111,3239,10446,10446,10446,10821,751,752,0,0,10821,10446,10446,10446,3238,3111,3112,3142,10740,10740,10740,10740,10740,10740,10740,10740,10740,10740,3144,
3142,10425,10425,10740,10740,10740,0,0,0,0,0,0,10740,10740,10740,10425,10425,3144,3142,8302,8304,8303,0,0,0,8439,8440,501,503,3144,
3142,10446,10446,10821,569,0,0,501,502,502,503,763,764,765,10821,10446,10446,3144,3142,8508,0,0,0,0,0,0,0,0,0,3144,
3142,10740,10740,0,0,0,0,0,0,0,0,0,0,0,0,10740,10740,3144,3142,0,0,0,9404,9405,9405,9406,0,0,0,3144,
3142,2147492013,10253,0,0,0,0,0,0,0,0,0,0,0,0,10106,8365,3144,3142,460,0,0,9425,9426,9426,9427,0,0,2147484108,3144,
3142,2147492032,0,0,2147484453,805,2147484453,805,0,0,2147484453,805,2147484453,805,0,0,8384,3144,3142,482,0,0,0,0,0,0,0,0,2147484130,3144,
3142,2147492051,0,0,0,0,0,0,0,0,0,0,0,0,0,0,8403,3144,3142,504,0,0,0,0,0,0,0,0,2147484152,3144,
3142,0,0,0,0,0,0,0,0,0,0,0,0,0,0,0,0,3144,3142,0,0,0,0,0,0,0,0,0,0,3144,
3142,2147492067,0,0,2147484453,805,2147484453,805,0,0,2147484453,805,2147484453,805,0,0,8419,3144,3174,0,0,0,0,0,0,0,8570,8571,0,3176,
3142,2147492013,0,0,0,0,0,0,0,0,0,0,0,0,0,0,8365,3238,3111,3111,3239,0,3238,3111,3112,815,815,815,815,815,
3142,2147492032,0,0,0,0,0,0,0,0,0,0,0,0,0,0,8384,10425,10425,10425,10425,0,10425,10425,3144,0,0,0,0,0,
3142,2147492051,0,10154,2147484453,805,2147484453,805,0,0,2147484453,805,2147484453,805,0,0,8403,10446,10446,10446,10446,0,10446,10446,3144,0,0,0,0,0,
3142,10131,0,0,0,0,0,0,0,0,0,0,0,0,0,0,10253,10740,10740,10740,10740,935,10740,10740,3144,0,0,0,0,0,
3142,0,0,0,0,0,0,0,0,0,0,0,0,0,0,0,0,0,0,0,0,0,0,504,3144,0,0,0,0,0,
3142,0,0,0,2147484453,805,2147484453,805,0,0,2147484453,805,2147484453,805,0,0,0,3144,3142,0,0,0,0,0,3144,0,0,0,0,0,
3142,0,0,0,0,0,0,0,0,0,0,0,0,0,0,0,0,3144,3142,0,0,0,0,0,3144,0,0,0,0,0,
3174,0,0,0,0,0,0,0,0,0,0,0,0,0,0,0,0,3176,3174,0,5512,5513,5514,0,3176,0,0,0,0,0,
815,815,815,815,815,815,815,3142,0,0,3144,815,815,815,815,815,815,815,815,815,815,815,815,815,815,0,0,0,0,0
</data>
 </layer>
 <layer id="13" name="Buildings1" width="30" height="22">
  <data encoding="csv">
0,0,0,0,0,0,0,0,0,0,0,0,0,0,0,0,0,0,0,0,0,0,0,0,0,0,0,0,0,0,
0,0,0,0,0,0,10758,0,0,0,10380,10758,0,0,0,0,0,0,0,0,0,0,0,0,0,0,0,0,0,0,
0,0,0,0,0,0,10765,0,0,10765,10403,10765,0,0,0,0,0,0,0,8264,8266,8265,0,0,0,0,0,0,0,0,
0,0,0,10758,8047,2147494393,10800,0,0,0,0,10800,10745,8047,10758,0,0,0,0,8283,8267,8284,10765,10765,10765,10765,10765,10765,10765,0,
0,0,0,10765,10765,2147494414,0,0,0,0,0,0,10766,10765,10765,0,0,0,0,8283,8285,8284,0,0,0,0,0,479,481,0,
0,10758,2147494393,10800,0,0,0,0,0,0,0,0,0,0,10800,10745,10758,0,0,8489,0,0,0,0,0,0,0,0,0,0,
0,2147491994,2147494414,568,0,0,0,0,0,0,0,0,0,0,0,10766,8346,0,0,0,0,0,0,0,0,0,0,0,0,0,
0,2147492067,10230,0,0,0,0,0,0,0,0,0,0,0,0,10105,8419,0,0,0,0,0,0,0,0,0,0,0,0,0,
0,0,0,0,0,0,0,0,0,0,0,0,0,0,0,0,0,0,0,597,0,0,0,0,0,0,0,0,0,0,
0,0,0,0,0,0,0,0,0,0,0,0,0,0,0,0,0,0,0,788,0,0,0,0,0,0,0,0,0,0,
0,0,0,0,0,0,0,0,0,0,0,0,0,0,0,0,0,0,0,0,0,0,0,0,0,0,0,0,0,0,
0,0,0,0,0,0,0,0,0,0,0,0,0,0,0,0,0,0,0,0,0,0,0,0,0,0,0,0,0,0,
0,0,0,0,0,0,0,0,0,0,0,0,0,0,0,0,0,0,0,0,0,0,0,0,0,0,0,0,0,0,
0,0,0,0,0,0,0,0,0,0,0,0,0,0,0,0,0,0,0,0,0,0,0,0,0,0,0,0,0,0,
0,0,0,0,0,0,0,0,0,0,0,0,0,0,0,0,0,2147494394,0,0,10746,0,2147494394,0,0,0,0,0,0,0,
0,10108,0,0,0,0,0,0,0,0,0,0,0,0,0,0,10230,2147494415,10765,10765,10767,0,2147494415,10765,0,0,0,0,0,0,
0,0,0,0,0,0,0,0,0,0,0,0,0,0,0,0,0,0,0,0,0,0,0,460,0,0,0,0,0,0,
0,0,0,0,0,0,0,0,0,0,0,0,0,0,0,0,0,0,0,0,0,0,0,0,0,0,0,0,0,0,
0,0,0,0,0,0,0,0,0,0,0,0,0,0,0,0,0,0,0,0,0,0,0,0,0,0,0,0,0,0,
0,0,0,0,0,0,0,0,0,0,0,0,0,0,0,0,0,0,0,0,0,0,0,0,0,0,0,0,0,0,
0,0,0,0,0,0,0,0,0,0,0,0,0,0,0,0,0,0,0,0,0,0,0,0,0,0,0,0,0,0,
0,0,0,0,0,0,0,0,0,0,0,0,0,0,0,0,0,0,0,0,0,0,0,0,0,0,0,0,0,0
</data>
 </layer>
 <layer id="15" name="Buildings2" width="30" height="22">
  <data encoding="csv">
0,0,0,0,0,0,0,0,0,0,0,0,0,0,0,0,0,0,0,0,0,0,0,0,0,0,0,0,0,0,
0,0,0,0,0,0,3203,722,723,714,0,3204,0,0,0,0,0,0,0,0,3203,0,10210,13,14,8363,8364,3204,0,0,
0,0,0,0,0,0,10779,744,745,736,10765,10779,0,0,0,0,0,0,0,0,0,0,10233,35,36,8382,8383,57,58,0,
0,0,0,3203,0,0,0,744,745,0,0,0,0,0,3204,0,0,0,0,0,0,0,0,0,0,8401,8402,79,80,0,
0,0,0,10779,0,0,0,0,0,0,0,0,0,0,10779,0,0,0,0,0,0,0,0,0,0,8420,8421,0,4349,0,
0,3203,715,546,547,0,0,0,0,0,0,0,0,0,0,0,3204,0,0,0,0,0,0,0,0,0,0,0,0,0,
0,0,0,0,0,0,0,0,0,0,0,0,0,0,0,0,0,0,0,0,0,0,0,0,0,0,0,0,0,0,
0,0,0,0,0,0,0,0,0,0,0,0,0,0,0,0,0,0,0,0,0,0,0,0,0,0,0,0,0,0,
0,0,0,0,0,0,0,0,0,0,0,0,0,0,0,0,0,0,0,0,0,0,0,0,0,0,0,0,0,0,
0,0,0,0,0,0,0,0,0,0,0,0,0,0,0,0,0,0,0,0,0,0,0,0,0,0,0,0,0,0,
0,0,0,0,0,0,0,0,0,0,0,0,0,0,0,0,0,0,0,0,0,0,0,0,0,0,0,0,0,0,
0,0,0,0,0,0,0,0,0,0,0,0,0,0,0,0,0,0,0,0,0,0,0,0,0,0,0,0,0,0,
0,0,0,0,0,0,0,0,0,0,0,0,0,0,0,0,0,0,0,0,0,0,0,0,0,0,0,0,0,0,
0,0,0,0,0,0,0,0,0,0,0,0,0,0,0,0,0,0,0,0,0,0,0,0,0,0,0,0,0,0,
0,0,0,0,0,0,0,0,0,0,0,0,0,0,0,0,0,4684,10164,10165,0,0,10288,0,0,0,0,0,0,0,
0,0,0,0,0,0,0,0,0,0,0,0,0,0,0,0,0,4706,10187,10188,0,0,10311,0,0,0,0,0,0,0,
0,0,0,0,0,0,0,0,0,0,0,0,0,0,0,0,0,0,0,0,0,0,0,4863,0,0,0,0,0,0,
0,0,0,0,0,0,0,0,0,0,0,0,0,0,0,0,0,0,0,0,0,0,0,0,0,0,0,0,0,0,
0,0,0,0,0,0,0,0,0,0,0,0,0,0,0,0,0,0,0,0,0,0,0,0,0,0,0,0,0,0,
0,0,0,0,0,0,0,0,0,0,0,0,0,0,0,0,0,0,0,0,0,0,0,0,0,0,0,0,0,0,
0,0,0,0,0,0,0,0,0,0,0,0,0,0,0,0,0,0,0,0,0,0,0,0,0,0,0,0,0,0,
0,0,0,0,0,0,0,0,0,0,0,0,0,0,0,0,0,0,0,0,0,0,0,0,0,0,0,0,0,0
</data>
 </layer>
 <layer id="9" name="Front" width="30" height="22">
  <data encoding="csv">
0,0,0,0,0,0,0,0,0,0,0,0,0,0,0,0,0,0,0,0,0,0,0,0,0,0,0,0,0,0,
0,0,0,0,0,0,0,0,0,0,0,0,0,0,0,0,0,0,0,0,0,0,0,0,0,0,0,0,0,0,
0,0,0,0,0,0,0,0,0,0,0,0,0,0,0,0,0,0,0,0,0,0,0,0,0,0,0,0,0,0,
0,0,0,0,0,0,0,0,0,0,0,0,0,0,0,0,0,0,0,0,0,0,0,0,0,0,0,0,0,0,
0,0,0,524,525,0,0,0,0,0,0,719,720,721,0,0,0,0,0,0,0,0,0,0,0,0,0,0,0,0,
0,0,0,0,0,0,0,479,480,480,481,741,742,743,0,0,0,0,0,0,0,0,0,0,0,0,0,0,0,0,
0,0,0,0,0,0,0,0,0,0,0,0,0,0,0,0,0,0,0,0,0,0,9383,9384,9384,9385,0,0,0,0,
0,0,2147491635,0,0,0,787,2147484433,0,0,0,0,786,2147484433,0,7987,0,0,0,575,0,0,0,0,0,0,0,0,0,0,
0,0,0,0,2147484431,783,2147484431,783,0,0,2147484431,783,2147484431,783,0,0,0,0,0,0,0,0,0,0,0,0,0,0,0,0,
0,0,0,0,0,0,0,0,0,0,0,0,0,0,0,0,0,0,0,0,0,0,0,0,0,0,0,0,0,0,
0,0,0,0,0,0,809,2147484433,0,0,0,0,787,2147484433,0,0,0,0,0,0,0,0,0,0,0,0,0,0,0,0,
0,2147491994,0,0,2147484431,783,2147484431,783,0,0,2147484431,783,2147484431,783,0,0,8346,0,0,0,0,0,0,0,0,0,8551,8552,0,0,
0,0,2147491635,0,0,0,0,0,0,0,0,0,0,0,0,7987,0,0,3174,3175,3207,0,3206,3175,3175,3175,3175,3175,3175,3176,
0,0,0,0,0,0,786,2147484433,0,0,0,0,809,2147484433,0,0,0,0,0,0,0,0,0,0,0,0,0,0,0,0,
0,0,0,0,2147484431,783,2147484431,783,0,0,2147484431,783,2147484431,783,0,0,0,0,0,0,0,871,0,0,0,0,0,0,0,0,
0,0,0,0,0,0,0,0,0,0,0,0,0,0,0,0,0,0,0,0,0,903,0,0,0,0,0,0,0,0,
0,0,0,0,0,0,786,2147484433,0,0,0,0,809,2147484433,0,0,0,0,0,0,0,0,0,0,0,0,0,0,0,0,
0,0,0,0,2147484431,783,2147484431,783,0,0,2147484431,783,2147484431,783,0,0,0,3206,3207,0,0,0,0,0,0,0,0,0,0,0,
0,2147491635,0,0,0,0,0,0,0,0,0,0,0,0,0,0,7987,0,0,0,0,0,0,0,0,0,0,0,0,0,
0,0,0,0,0,0,0,0,0,0,0,0,0,0,0,0,0,0,0,0,5480,5481,5482,0,0,0,0,0,0,0,
3174,3175,3175,3175,3175,3175,3175,3207,0,0,3206,3175,3175,3175,3175,3175,3175,3176,3174,3175,3175,3175,3175,3175,3176,0,0,0,0,0,
0,0,0,0,0,0,0,3174,3175,3175,3176,0,0,0,0,0,0,0,0,0,0,0,0,0,0,0,0,0,0,0
</data>
 </layer>
 <layer id="17" name="Front1" width="30" height="22">
  <data encoding="csv">
0,0,0,0,0,0,0,0,0,0,0,0,0,0,0,0,0,0,0,0,0,0,0,0,0,0,0,0,0,0,
0,0,0,0,0,0,0,0,0,0,0,0,0,0,0,0,0,0,0,0,0,0,0,0,0,0,0,0,0,0,
0,0,0,0,0,0,0,0,0,0,0,0,0,0,0,0,0,0,0,0,0,0,0,0,0,0,0,0,0,0,
0,0,0,0,0,0,0,0,0,0,0,0,0,0,0,0,0,0,0,0,0,0,0,0,0,0,0,0,0,0,
0,0,0,0,0,0,0,0,0,0,0,0,0,0,0,0,0,0,0,0,0,0,0,0,0,0,0,0,0,0,
0,0,0,0,0,0,0,0,10154,8578,0,0,0,0,0,0,0,0,0,0,0,0,0,0,0,0,0,0,0,0,
0,0,0,0,0,0,0,0,0,0,0,0,0,0,0,0,0,0,0,0,0,0,0,0,0,0,0,0,0,0,
0,0,0,0,0,0,0,0,0,0,0,0,0,0,0,0,0,0,0,0,0,0,0,0,0,0,0,0,0,0,
0,0,0,0,2147484454,784,808,2147484455,0,0,806,0,808,2147484455,0,0,0,0,0,0,0,0,0,0,0,0,0,0,0,0,
0,0,0,0,0,0,0,0,0,0,0,0,0,0,0,0,0,0,0,0,0,0,0,0,0,0,0,0,0,0,
0,0,0,0,0,0,0,0,0,0,0,0,0,0,0,0,0,0,0,0,0,0,0,0,0,0,0,0,0,0,
0,0,0,0,2147484454,0,808,2147484455,0,0,2147484454,10104,808,2147484455,0,0,0,0,0,0,0,0,0,0,0,0,0,0,0,0,
0,0,0,0,0,0,0,0,0,0,0,0,0,0,0,0,0,0,0,0,0,0,0,0,0,0,0,0,0,0,
0,0,0,0,0,0,0,0,0,0,0,0,0,0,0,0,0,0,0,0,0,0,0,0,0,0,0,0,0,0,
0,0,0,0,806,0,808,2147484455,0,0,2147484454,2147493755,808,2147484455,0,0,0,0,0,0,0,0,0,0,0,0,0,0,0,0,
0,0,0,0,0,0,0,0,0,0,0,0,0,0,0,0,0,0,0,0,0,0,0,0,0,0,0,0,0,0,
0,0,0,0,0,0,0,0,0,0,0,0,0,0,0,0,0,0,0,0,0,0,0,0,0,0,0,0,0,0,
0,0,0,0,2147484454,0,808,2147484455,0,0,2147484454,0,808,2147484455,0,0,0,0,0,0,0,0,0,0,0,0,0,0,0,0,
0,0,0,0,0,0,0,0,0,0,0,0,0,0,0,0,0,0,0,0,0,0,0,0,0,0,0,0,0,0,
0,0,0,0,0,0,0,0,0,0,0,0,0,0,0,0,0,0,0,0,0,0,0,0,0,0,0,0,0,0,
0,0,0,0,0,0,0,0,0,0,0,0,0,0,0,0,0,0,0,0,0,0,0,0,0,0,0,0,0,0,
0,0,0,0,0,0,0,0,0,0,0,0,0,0,0,0,0,0,0,0,0,0,0,0,0,0,0,0,0,0
</data>
 </layer>
 <layer id="18" name="Paths" width="30" height="22" visible="0">
  <data encoding="csv">
0,0,0,0,0,0,0,0,0,0,0,0,0,0,0,0,0,0,0,0,0,0,0,0,0,0,0,0,0,0,
0,0,0,0,0,0,0,0,0,0,0,0,0,0,0,0,0,0,0,0,0,0,0,0,0,0,0,0,0,0,
0,0,0,0,0,0,0,0,0,0,0,0,0,0,0,0,0,0,0,0,0,0,0,0,0,0,0,0,0,0,
0,0,0,0,0,0,0,0,0,0,0,0,0,0,0,0,10842,0,0,0,0,0,0,0,0,10842,0,0,0,0,
0,0,0,0,0,0,0,0,0,0,0,0,0,0,0,0,0,0,0,0,0,0,0,0,0,0,0,0,0,0,
0,0,0,0,0,0,0,0,0,0,0,0,0,0,0,0,0,0,0,0,0,0,0,0,0,0,0,0,0,0,
0,0,0,0,0,0,0,0,0,0,0,0,0,0,0,0,10842,0,0,0,0,0,0,0,0,10842,0,0,0,0,
0,0,0,0,0,0,0,0,0,0,0,0,0,0,10842,0,0,0,0,0,0,0,0,0,0,0,0,10842,0,0,
0,10842,0,0,0,0,0,0,0,0,0,0,0,0,0,0,0,0,0,0,0,0,0,0,0,0,0,0,0,0,
0,0,0,0,0,0,0,0,0,0,0,0,0,0,0,0,0,0,0,0,0,0,0,0,0,0,0,0,0,0,
0,0,0,0,0,0,0,0,0,0,0,0,0,0,10842,0,0,0,0,0,0,0,0,0,0,0,0,10842,0,0,
0,0,0,0,0,0,0,0,0,0,0,0,0,0,0,0,0,0,0,0,0,0,0,0,0,0,0,0,0,0,
0,0,0,0,0,0,0,0,0,0,0,0,0,0,10842,0,0,0,0,0,0,0,0,0,0,0,0,10842,0,0,
0,0,0,0,0,0,0,0,0,0,0,0,0,0,0,0,0,0,0,0,0,0,0,0,0,0,0,0,0,0,
0,0,0,0,0,0,0,0,0,0,0,0,0,0,0,0,0,0,0,0,0,0,0,0,0,0,0,0,0,0,
0,0,0,0,0,0,0,0,0,0,0,0,0,0,10842,0,0,0,0,0,0,0,0,0,0,0,0,10842,0,0,
0,0,0,0,0,0,0,0,0,0,0,0,0,0,0,0,0,0,0,0,0,0,0,0,0,0,0,0,0,0,
0,0,0,0,0,0,0,0,0,0,0,0,0,0,0,0,0,0,0,0,0,0,0,0,0,0,0,0,0,0,
0,0,0,0,0,0,0,0,0,0,0,0,0,10842,0,0,0,0,0,0,0,0,0,0,0,0,0,0,10842,0,
0,0,0,0,0,0,0,0,0,0,0,0,0,0,0,0,0,0,0,0,0,0,0,0,0,0,0,0,0,0,
0,0,0,0,0,0,0,0,0,0,0,0,0,0,0,0,0,0,0,0,0,0,0,0,0,0,0,0,0,0,
0,0,0,0,0,0,0,0,0,0,0,0,0,10842,0,0,0,0,0,0,0,0,0,0,0,0,0,0,10842,0
</data>
 </layer>
 <objectgroup id="2" name="Back"/>
 <objectgroup id="12" name="Back1"/>
 <objectgroup id="6" name="Buildings" visible="0">
  <object id="5" name="TileData" x="336" y="256" width="16" height="16">
   <properties>
    <property name="Action" value="Door"/>
   </properties>
  </object>
 </objectgroup>
 <objectgroup id="14" name="Buildings1"/>
 <objectgroup id="16" name="Buildings2"/>
 <objectgroup id="10" name="Front"/>
 <objectgroup id="20" name="Front1"/>
 <objectgroup id="19" name="Paths"/>
</map>
