<?xml version="1.0" encoding="UTF-8"?>
<map version="1.10" tiledversion="1.11.2" orientation="orthogonal" renderorder="right-down" compressionlevel="0" width="30" height="22" tilewidth="16" tileheight="16" infinite="0" nextlayerid="21" nextobjectid="14">
 <tileset firstgid="1" name="z_History_Katy_Hogwarts" tilewidth="16" tileheight="16" tilecount="240" columns="12">
  <image source="z_History_Katy_Hogwarts.png" width="192" height="320"/>
 </tileset>
 <tileset firstgid="241" name="z_ArithmancyCharmsDADA_ICEC_Hogwarts" tilewidth="16" tileheight="16" tilecount="814" columns="22">
  <image source="z_ArithmancyCharmsDADA_ICEC_Hogwarts.png" width="352" height="592"/>
 </tileset>
 <tileset firstgid="1055" name="z_Potions_Katy_Hogwarts" tilewidth="16" tileheight="16" tilecount="2176" columns="32">
  <image source="z_Potions_Katy_Hogwarts.png" width="512" height="1088"/>
 </tileset>
 <tileset firstgid="3231" name="paths" tilewidth="16" tileheight="16" tilecount="64" columns="4">
  <image source="paths.png" width="64" height="256"/>
 </tileset>
 <tileset firstgid="3295" name="z_Library_HitMe_Hogwarts" tilewidth="16" tileheight="16" tilecount="924" columns="21">
  <image source="z_Library_HitMe_Hogwarts.png" width="336" height="704"/>
 </tileset>
 <tileset firstgid="4219" name="z_GrandStaircase_HitMe_Hogwarts" tilewidth="16" tileheight="16" tilecount="420" columns="21">
  <image source="z_GrandStaircase_HitMe_Hogwarts.png" width="336" height="320"/>
 </tileset>
 <tileset firstgid="4639" name="z_HogsmeadeInterior_Hxoni_Hogwarts" tilewidth="16" tileheight="16" tilecount="874" columns="23">
  <image source="z_HogsmeadeInterior_Hxoni_Hogwarts.png" width="368" height="608"/>
  <tile id="516">
   <animation>
    <frame tileid="516" duration="250"/>
    <frame tileid="541" duration="250"/>
    <frame tileid="516" duration="250"/>
    <frame tileid="542" duration="250"/>
   </animation>
  </tile>
 </tileset>
 <tileset firstgid="5513" name="z_HeadmistressOffice_Hxoni_Hogwarts" tilewidth="16" tileheight="16" tilecount="312" columns="12">
  <image source="z_HeadmistressOffice_Hxoni_Hogwarts.png" width="192" height="416"/>
  <tile id="213">
   <animation>
    <frame tileid="213" duration="250"/>
    <frame tileid="213" duration="250"/>
    <frame tileid="213" duration="250"/>
    <frame tileid="213" duration="250"/>
    <frame tileid="213" duration="250"/>
    <frame tileid="213" duration="250"/>
    <frame tileid="213" duration="250"/>
    <frame tileid="213" duration="250"/>
    <frame tileid="213" duration="250"/>
    <frame tileid="213" duration="250"/>
    <frame tileid="226" duration="250"/>
    <frame tileid="226" duration="250"/>
    <frame tileid="226" duration="250"/>
    <frame tileid="203" duration="250"/>
    <frame tileid="215" duration="250"/>
    <frame tileid="227" duration="250"/>
    <frame tileid="203" duration="250"/>
    <frame tileid="215" duration="250"/>
    <frame tileid="227" duration="250"/>
    <frame tileid="203" duration="250"/>
    <frame tileid="215" duration="250"/>
    <frame tileid="227" duration="250"/>
    <frame tileid="203" duration="250"/>
    <frame tileid="215" duration="250"/>
    <frame tileid="227" duration="250"/>
    <frame tileid="203" duration="250"/>
    <frame tileid="215" duration="250"/>
    <frame tileid="227" duration="250"/>
    <frame tileid="226" duration="250"/>
    <frame tileid="226" duration="250"/>
    <frame tileid="213" duration="250"/>
    <frame tileid="213" duration="250"/>
    <frame tileid="213" duration="250"/>
    <frame tileid="213" duration="250"/>
    <frame tileid="213" duration="250"/>
    <frame tileid="213" duration="250"/>
    <frame tileid="213" duration="250"/>
    <frame tileid="213" duration="250"/>
    <frame tileid="213" duration="250"/>
    <frame tileid="213" duration="250"/>
    <frame tileid="213" duration="250"/>
    <frame tileid="213" duration="250"/>
    <frame tileid="213" duration="250"/>
    <frame tileid="213" duration="250"/>
    <frame tileid="213" duration="250"/>
    <frame tileid="213" duration="250"/>
    <frame tileid="213" duration="250"/>
    <frame tileid="213" duration="250"/>
    <frame tileid="213" duration="250"/>
    <frame tileid="213" duration="250"/>
    <frame tileid="213" duration="250"/>
    <frame tileid="213" duration="250"/>
    <frame tileid="213" duration="250"/>
    <frame tileid="213" duration="250"/>
    <frame tileid="213" duration="250"/>
    <frame tileid="213" duration="250"/>
    <frame tileid="213" duration="250"/>
    <frame tileid="213" duration="250"/>
    <frame tileid="213" duration="250"/>
    <frame tileid="213" duration="250"/>
    <frame tileid="213" duration="250"/>
    <frame tileid="213" duration="250"/>
    <frame tileid="213" duration="250"/>
    <frame tileid="213" duration="250"/>
    <frame tileid="213" duration="250"/>
    <frame tileid="213" duration="250"/>
    <frame tileid="213" duration="250"/>
   </animation>
  </tile>
 </tileset>
 <tileset firstgid="5825" name="z_GrandStaircase_Hxoni_Hogwarts" tilewidth="16" tileheight="16" tilecount="240" columns="12">
  <image source="z_GrandStaircase_Hxoni_Hogwarts.png" width="192" height="320"/>
 </tileset>
 <tileset firstgid="6065" name="z_FacultyTower_Hxoni_Hogwarts" tilewidth="16" tileheight="16" tilecount="437" columns="19">
  <image source="z_FacultyTower_Hxoni_Hogwarts.png" width="304" height="368"/>
  <tile id="361">
   <animation>
    <frame tileid="361" duration="100"/>
    <frame tileid="362" duration="100"/>
    <frame tileid="363" duration="100"/>
    <frame tileid="364" duration="100"/>
    <frame tileid="365" duration="100"/>
    <frame tileid="366" duration="100"/>
    <frame tileid="367" duration="100"/>
    <frame tileid="380" duration="100"/>
    <frame tileid="381" duration="100"/>
    <frame tileid="382" duration="100"/>
    <frame tileid="383" duration="100"/>
    <frame tileid="384" duration="100"/>
    <frame tileid="361" duration="100"/>
    <frame tileid="361" duration="100"/>
    <frame tileid="361" duration="100"/>
    <frame tileid="361" duration="100"/>
    <frame tileid="361" duration="100"/>
    <frame tileid="361" duration="100"/>
    <frame tileid="361" duration="100"/>
    <frame tileid="361" duration="100"/>
    <frame tileid="361" duration="100"/>
    <frame tileid="361" duration="100"/>
    <frame tileid="361" duration="100"/>
    <frame tileid="361" duration="100"/>
    <frame tileid="361" duration="100"/>
    <frame tileid="361" duration="100"/>
    <frame tileid="361" duration="100"/>
    <frame tileid="361" duration="100"/>
    <frame tileid="361" duration="100"/>
    <frame tileid="361" duration="100"/>
    <frame tileid="361" duration="100"/>
    <frame tileid="361" duration="100"/>
    <frame tileid="361" duration="100"/>
    <frame tileid="361" duration="100"/>
    <frame tileid="361" duration="100"/>
    <frame tileid="361" duration="100"/>
    <frame tileid="361" duration="100"/>
    <frame tileid="361" duration="100"/>
    <frame tileid="361" duration="100"/>
    <frame tileid="361" duration="100"/>
    <frame tileid="361" duration="100"/>
    <frame tileid="361" duration="100"/>
    <frame tileid="361" duration="100"/>
    <frame tileid="361" duration="100"/>
    <frame tileid="361" duration="100"/>
    <frame tileid="361" duration="100"/>
    <frame tileid="361" duration="100"/>
    <frame tileid="361" duration="100"/>
    <frame tileid="361" duration="100"/>
    <frame tileid="361" duration="100"/>
    <frame tileid="361" duration="100"/>
    <frame tileid="361" duration="100"/>
    <frame tileid="362" duration="100"/>
    <frame tileid="363" duration="100"/>
    <frame tileid="364" duration="100"/>
    <frame tileid="365" duration="100"/>
    <frame tileid="366" duration="100"/>
    <frame tileid="367" duration="100"/>
    <frame tileid="380" duration="100"/>
    <frame tileid="381" duration="100"/>
    <frame tileid="382" duration="100"/>
    <frame tileid="383" duration="100"/>
    <frame tileid="384" duration="100"/>
    <frame tileid="361" duration="100"/>
    <frame tileid="362" duration="100"/>
    <frame tileid="363" duration="100"/>
    <frame tileid="364" duration="100"/>
    <frame tileid="365" duration="100"/>
    <frame tileid="366" duration="100"/>
    <frame tileid="367" duration="100"/>
    <frame tileid="380" duration="100"/>
    <frame tileid="381" duration="100"/>
    <frame tileid="382" duration="100"/>
    <frame tileid="383" duration="100"/>
    <frame tileid="384" duration="100"/>
   </animation>
  </tile>
 </tileset>
 <tileset firstgid="6502" name="1" tilewidth="16" tileheight="16" tilecount="2176" columns="32">
  <image source="townInterior.png" width="512" height="1088"/>
 </tileset>
 <tileset firstgid="8678" name="z_DivinationClassroom_M99_Hogwarts" tilewidth="16" tileheight="16" tilecount="2048" columns="32">
  <image source="z_DivinationClassroom_M99_Hogwarts.png" width="512" height="1024"/>
 </tileset>
 <tileset firstgid="10726" name="z_FacultyTower_HitMe_Hogwarts" tilewidth="16" tileheight="16" tilecount="180" columns="12">
  <image source="z_FacultyTower_HitMe_Hogwarts.png" width="192" height="240"/>
 </tileset>
 <tileset firstgid="10906" name="z_wizard_furniture_Hogwarts" tilewidth="16" tileheight="16" tilecount="351" columns="13">
  <image source="z_wizard_furniture_Hogwarts.png" width="208" height="432"/>
 </tileset>
 <layer id="1" name="Back" width="30" height="22">
  <data encoding="csv">
0,0,0,0,0,0,3326,3327,3326,3327,3326,3327,3326,3327,0,0,3326,3327,3326,3327,3326,3327,3326,3327,0,0,0,0,0,0,
0,0,0,0,0,0,3347,3348,3347,3348,3347,3348,3347,3348,3347,3348,3347,3348,3347,3348,3347,3348,3347,3348,0,0,0,0,0,0,
0,0,0,0,0,0,3326,3327,3326,3327,3326,3327,3326,3327,3326,3327,3326,3327,3326,3327,3326,3327,3326,3327,0,0,0,0,0,0,
0,0,0,0,0,0,3347,3348,3347,3348,3347,3348,3347,3348,3347,3348,3347,3348,3347,3348,3347,3348,3347,3348,0,0,0,0,0,0,
0,0,0,0,0,0,3326,3327,3326,3327,3326,3327,3326,3327,3326,3327,3326,3327,3326,3327,3326,3327,3326,3327,0,0,0,0,0,0,
0,0,0,0,0,0,3347,3348,3347,3348,3347,3348,3347,3348,3347,3348,3347,3348,3347,3348,3347,3348,3347,3348,0,0,0,0,0,0,
0,0,0,0,0,3327,3326,3327,3326,3327,3326,3327,3326,3327,3326,3327,3326,3327,3326,3327,3326,3327,3326,3327,3326,0,0,0,0,0,
0,0,0,0,0,3348,3461,3462,4454,4455,4456,4457,3347,3348,3347,3348,3347,3348,4456,4457,4454,4455,3461,3462,3347,0,0,0,0,0,
0,0,0,0,0,3327,3482,3483,4475,4476,4477,4478,4475,3327,3326,3327,3326,4476,4477,4478,4475,4476,3482,3483,3326,0,0,0,0,0,
0,0,0,0,0,3348,3461,3462,3461,3462,4498,4499,4496,4497,4498,4499,4496,4497,4498,4499,3461,3462,3461,3462,3347,0,0,0,0,0,
0,0,0,0,3326,3327,3482,3483,3482,3483,4519,4520,4517,4518,4519,4520,4517,4518,4519,4520,3482,3483,3482,3483,3326,3327,0,0,0,0,
0,0,0,0,3347,3348,3461,3462,3461,3462,3461,3462,4454,4455,4456,4457,4454,4455,3461,3462,3461,3462,3461,3462,3347,3348,0,0,0,0,
0,0,0,0,3326,3327,3482,3483,3482,3483,3482,3483,4475,4476,4477,4478,4475,4476,3482,3483,3482,3483,3482,3483,3326,3327,0,0,0,0,
0,0,0,0,3347,3348,3461,3462,3461,3462,3461,3462,3461,3462,4498,4499,3461,3462,3461,3462,3461,3462,3461,3462,3347,3348,0,0,0,0,
0,0,0,0,3326,3327,3461,3462,3461,3462,3461,3462,3461,3462,4519,4520,3461,3462,3461,3462,3461,3462,3461,3462,3326,3327,0,0,0,0,
0,0,0,0,3347,3348,3347,3348,3347,3348,3482,3483,3482,3483,4456,4457,3482,3483,3482,3483,3347,3348,3347,3348,3347,3348,0,0,0,0,
0,0,0,0,3326,3327,3326,3327,3326,3327,3326,3327,3326,3327,4477,4478,3326,3327,3326,3327,3326,3327,3326,3327,3326,3327,0,0,0,0,
0,0,0,0,3347,3348,3347,3348,3347,3348,3347,3348,3347,3348,4498,4499,3347,3348,3347,3348,3347,3348,3347,3348,3347,3348,0,0,0,0,
0,0,0,0,3326,3327,3326,3327,3326,3327,3326,3327,3326,3327,4519,4520,3326,3327,3326,3327,3326,3327,3326,3327,3326,3327,0,0,0,0,
0,0,0,0,3347,3348,3347,3348,3347,3348,3347,3348,3347,3348,4456,4457,3347,3348,3347,3348,3347,3348,3347,3348,3347,3348,0,0,0,0,
0,0,0,0,3326,3327,3326,3327,3326,3327,3326,3327,3326,3327,4477,4478,3326,3327,3326,3327,3326,3327,3326,3327,3326,3327,0,0,0,0,
0,0,0,0,3347,3348,3347,3348,3347,3348,3347,3348,3347,3348,4498,4499,3347,3348,3347,3348,3347,3348,3347,3348,3347,3348,0,0,0,0
</data>
 </layer>
 <layer id="11" name="Back1" width="30" height="22">
  <data encoding="csv">
0,0,0,0,0,0,0,0,0,0,0,0,0,0,0,0,0,0,0,0,0,0,0,0,0,0,0,0,0,0,
0,0,0,0,0,0,0,0,0,0,0,0,0,0,0,0,0,0,0,0,0,0,0,0,0,0,0,0,0,0,
0,0,0,0,0,0,0,0,0,0,0,0,0,0,0,0,0,0,0,0,0,0,0,0,0,0,0,0,0,0,
0,0,0,0,0,0,0,0,0,0,0,0,0,0,0,0,0,0,0,0,0,0,0,0,0,0,0,0,0,0,
0,0,0,0,0,0,0,0,0,0,0,0,0,0,0,0,0,0,0,0,0,0,0,0,0,0,0,0,0,0,
0,0,0,0,0,0,0,0,0,0,0,1036,0,0,0,0,0,0,0,0,0,0,0,0,0,0,0,0,0,0,
0,0,0,0,0,10768,0,0,0,0,0,0,0,0,0,0,0,0,0,0,0,0,0,0,2147494416,0,0,0,0,0,
0,0,0,0,0,10768,2147494415,10769,2147494415,2147494415,2147494415,10769,0,0,0,0,0,0,2147494417,10767,10767,10767,2147494417,10767,2147494416,0,0,0,0,0,
0,0,0,0,0,10768,0,10768,0,0,0,6185,10769,0,0,0,0,2147494417,2147489833,0,0,0,2147494416,0,2147494416,0,0,0,0,0,
0,0,0,0,0,10768,0,6185,2147494415,10769,0,0,6185,10767,10767,10767,10767,2147489833,0,0,2147494417,10767,2147489833,0,2147494416,0,0,0,0,0,
0,0,0,0,0,10768,0,11007,0,10768,0,0,0,0,0,0,0,0,0,0,2147494416,0,11007,0,2147494416,0,0,0,0,0,
0,0,0,0,0,10768,0,0,11007,6185,2147494415,10769,0,0,0,0,0,0,2147494417,10767,2147489833,11020,0,0,2147494416,0,0,0,0,0,
0,0,0,0,0,10768,11020,0,0,0,0,10768,0,0,0,0,0,0,2147494416,0,0,0,0,0,2147494416,0,0,0,0,0,
0,0,0,0,0,10768,0,0,0,0,11020,6185,2147494415,10769,5782,5782,2147494417,10767,2147489833,0,0,0,0,11020,2147494416,0,0,0,0,0,
0,0,0,0,0,10768,11020,0,0,0,0,0,0,10768,0,0,2147494416,0,0,0,11007,0,0,0,2147494416,0,0,0,0,0,
0,0,0,0,0,10767,2147494415,2147494415,2147494415,10769,0,11007,0,10768,0,0,2147494416,11007,0,0,2147494417,10767,10767,10767,10767,0,0,0,0,0,
0,0,0,0,0,11007,0,0,0,6185,2147494415,2147494415,2147494415,10769,5782,5782,2147494417,10767,10767,10767,2147489833,0,0,0,0,0,0,0,0,0,
0,0,0,0,0,0,0,11020,0,0,11007,0,0,10768,0,0,2147494416,11007,0,0,0,0,11020,0,0,0,0,0,0,0,
0,0,0,0,0,11007,0,0,0,0,0,0,11020,10768,0,0,2147494416,0,0,0,0,0,0,0,11007,0,0,0,0,0,
0,0,0,0,0,0,0,0,0,0,0,11007,0,10768,0,0,2147494416,0,0,11020,0,0,0,0,0,0,0,0,0,0,
0,0,0,0,0,0,2147494415,2147494415,2147494415,10769,0,0,0,10768,0,0,2147494416,0,0,0,2147494417,10767,10767,10767,0,0,0,0,0,0,
0,0,0,0,0,0,0,0,0,6185,2147494415,2147494415,2147494415,10769,5782,5782,2147494417,10767,10767,10767,2147489833,0,0,0,0,0,0,0,0,0
</data>
 </layer>
 <layer id="5" name="Buildings" width="30" height="22">
  <data encoding="csv">
0,0,0,0,0,0,3764,3766,3766,3766,3766,3766,3766,3744,0,0,3764,3766,3766,3766,3766,3766,3766,3744,0,0,0,0,0,0,
0,0,0,0,0,0,3635,4460,2147488108,4460,2147488108,4460,2147488108,3743,3766,3766,3765,4460,4460,2147488108,4460,2147488108,4460,3634,0,0,0,0,0,0,
0,0,0,0,0,0,3635,4481,2147488108,4481,2147488108,4481,2147488108,4482,4482,4482,4482,4481,4481,2147488108,4481,2147488108,4481,3634,0,0,0,0,0,0,
0,0,0,0,0,0,3635,4460,2147488108,4460,2147488108,4460,2147488108,4461,4461,4461,4461,4460,4460,2147488108,4460,2147488108,4460,3634,0,0,0,0,0,0,
0,0,0,0,0,0,3635,4545,4544,4545,4544,4545,4544,4482,4482,4482,4482,4545,4544,4545,4544,4545,4544,3634,0,0,0,0,0,0,
0,0,0,0,0,0,3635,4626,6188,6189,5254,10943,4626,4544,4544,4544,4544,4626,0,6173,6174,1006,4626,3634,0,0,0,0,0,0,
0,0,0,0,0,3764,3765,10976,10977,0,0,0,0,0,0,991,992,5205,0,0,0,0,0,3743,3744,0,0,0,0,0,
0,0,0,0,0,3635,4460,0,0,0,0,0,0,4083,4084,4084,4085,0,0,0,0,0,0,4460,3634,0,0,0,0,0,
0,0,0,0,0,3635,4481,0,0,0,0,0,5230,4104,4105,4105,4106,0,0,0,0,0,0,4481,3634,0,0,0,0,0,
0,0,0,0,0,3635,4460,0,0,0,0,0,0,0,0,0,0,0,0,0,0,0,0,4460,3634,0,0,0,0,0,
0,0,0,0,3764,3765,4545,0,0,0,0,0,0,0,0,0,0,0,0,0,0,0,0,4545,3743,3744,0,0,0,0,
0,0,0,0,3635,4460,4626,8875,0,0,0,0,0,0,0,0,0,0,0,0,0,0,8874,4626,4460,3634,0,0,0,0,
0,0,0,0,3635,4481,0,0,0,0,0,0,0,0,0,0,0,0,0,0,0,0,0,0,4481,3634,0,0,0,0,
0,0,0,0,3635,4460,0,0,0,0,0,0,0,0,0,0,0,0,0,0,0,0,0,0,4460,3634,0,0,0,0,
0,0,0,0,3635,4545,0,8874,8875,0,5203,8874,8875,0,0,0,0,8874,8875,0,0,8874,8875,0,4545,3634,0,0,0,0,
0,0,0,0,3635,4626,0,0,0,0,0,0,0,0,0,0,0,0,0,0,0,0,0,0,4626,3634,0,0,0,0,
0,0,0,0,3635,0,0,0,0,0,0,0,0,0,0,0,0,0,0,0,0,0,0,0,10988,3634,0,0,0,0,
0,0,0,0,3635,8874,8875,0,0,0,0,0,0,0,0,0,0,0,0,0,0,0,0,8874,8875,3634,0,0,0,0,
0,0,0,0,3635,0,5252,0,0,0,8874,8875,0,0,0,0,0,0,8874,8875,0,0,0,0,0,3634,0,0,0,0,
0,0,0,0,3635,0,0,0,0,0,0,0,0,0,0,0,0,0,0,0,0,0,0,0,0,3634,0,0,0,0,
0,0,0,0,3722,3699,3699,3699,3699,3699,3699,3699,3700,4626,0,0,4626,3699,3699,3699,3699,3699,3699,3699,3700,3724,0,0,0,0,
0,0,0,0,3702,3702,3702,3702,3702,3702,3702,3702,3702,3722,0,0,3724,3702,3702,3702,3702,3702,3702,3702,3702,3702,0,0,0,0
</data>
 </layer>
 <layer id="13" name="Buildings1" width="30" height="22">
  <data encoding="csv">
0,0,0,0,0,0,0,0,0,0,0,0,0,0,0,0,0,0,0,0,0,0,0,0,0,0,0,0,0,0,
0,0,0,0,0,0,0,4563,0,153,154,0,4563,0,0,0,0,4563,0,153,154,0,4563,0,0,0,0,0,0,0,
0,0,0,0,0,0,0,0,0,165,166,0,0,4550,0,0,2147488198,0,0,165,166,0,0,0,0,0,0,0,0,0,
0,0,0,0,0,0,0,4570,0,177,178,0,4570,4550,0,0,2147488198,4570,0,177,178,0,4570,0,0,0,0,0,0,0,
0,0,0,0,0,0,0,4605,0,0,0,0,4605,4571,4570,4570,2147488219,4605,0,6154,6155,0,4605,0,0,0,0,0,0,0,
0,0,0,0,0,0,0,0,0,0,0,0,1037,4571,4570,4570,2147488219,0,0,0,0,0,1007,0,0,0,0,0,0,0,
0,0,0,0,0,0,0,0,0,0,0,0,0,0,0,0,0,0,0,0,0,0,0,0,0,0,0,0,0,0,
0,0,0,0,0,0,2147488198,0,0,0,0,0,0,5256,5257,8786,2147488877,0,0,0,0,0,0,4550,0,0,0,0,0,0,
0,0,0,0,0,0,2147488198,0,0,0,0,0,0,0,0,0,2147488900,0,0,0,0,0,0,4550,0,0,0,0,0,0,
0,0,0,0,0,0,2147488219,0,0,0,0,0,0,0,0,0,0,0,0,0,0,0,0,4571,0,0,0,0,0,0,
0,0,0,0,0,0,4605,0,0,0,0,0,0,0,0,0,0,0,0,0,0,0,0,4605,0,0,0,0,0,0,
0,0,0,0,0,2147488198,8874,0,0,0,0,0,0,0,0,0,0,0,0,0,0,0,0,8875,4550,0,0,0,0,0,
0,0,0,0,0,2147488198,0,0,0,0,0,0,0,0,0,0,0,0,0,0,0,0,0,0,4550,0,0,0,0,0,
0,0,0,0,0,2147488219,0,0,0,0,0,0,0,0,0,0,0,0,11020,0,0,0,0,0,4571,0,0,0,0,0,
0,0,0,0,0,4605,0,0,0,0,0,0,0,0,0,0,0,0,0,0,0,0,0,0,4605,0,0,0,0,0,
0,0,0,0,0,0,0,0,0,0,0,0,0,0,0,0,0,0,0,0,0,0,0,0,0,0,0,0,0,0,
0,0,0,0,0,0,0,0,0,0,0,0,0,0,0,0,0,0,0,0,0,0,0,0,0,0,0,0,0,0,
0,0,0,0,0,0,5229,0,0,0,0,0,0,0,0,0,0,0,0,0,0,0,0,0,0,0,0,0,0,0,
0,0,0,0,0,0,0,0,0,0,0,0,0,0,0,0,0,0,0,0,0,0,0,0,0,0,0,0,0,0,
0,0,0,0,0,0,0,0,0,0,0,0,0,0,0,0,0,0,0,0,0,0,0,0,0,0,0,0,0,0,
0,0,0,0,0,0,0,0,0,0,0,0,0,0,0,0,0,0,0,0,0,0,0,0,0,0,0,0,0,0,
0,0,0,0,0,0,0,0,0,0,0,0,0,0,0,0,0,0,0,0,0,0,0,0,0,0,0,0,0,0
</data>
 </layer>
 <layer id="15" name="Buildings2" width="30" height="22">
  <data encoding="csv">
0,0,0,0,0,0,0,4542,0,0,0,0,4542,0,0,0,0,4542,0,0,0,0,4542,0,0,0,0,0,0,0,
0,0,0,0,0,0,0,5933,0,0,0,11057,5933,0,0,0,0,5933,11057,0,0,0,5933,0,0,0,0,0,0,0,
0,0,0,0,0,0,0,4584,6150,6151,0,11070,4584,0,0,989,990,4584,11070,0,0,11100,4584,0,0,0,0,0,0,0,
0,0,0,0,0,0,0,4584,6169,6170,4570,4570,4584,0,0,1011,1012,4584,4570,4570,4570,4570,4584,0,0,0,0,0,0,0,
0,0,0,0,0,0,0,0,6169,6170,5231,0,0,0,0,1033,1034,0,0,0,0,0,0,0,0,0,0,0,0,0,
0,0,0,0,0,0,0,0,0,0,0,0,0,0,0,1014,1015,0,0,0,0,0,0,0,0,0,0,0,0,0,
0,0,0,0,0,0,4542,0,0,0,0,0,0,0,0,1025,1026,0,0,0,0,0,0,4542,0,0,0,0,0,0,
0,0,0,0,0,0,4563,0,0,0,0,0,0,0,0,0,0,0,0,0,0,0,0,4563,0,0,0,0,0,0,
0,0,0,0,0,0,4584,0,0,0,0,0,0,0,0,0,0,0,0,0,0,0,0,4584,0,0,0,0,0,0,
0,0,0,0,0,0,4584,0,0,0,0,0,0,0,0,0,0,0,0,0,0,0,0,4584,0,0,0,0,0,0,
0,0,0,0,0,4542,0,0,0,0,0,0,0,0,0,0,0,0,0,0,0,0,0,0,4542,0,0,0,0,0,
0,0,0,0,0,4563,0,0,0,0,0,0,0,0,0,0,0,0,0,0,0,0,0,0,4563,0,0,0,0,0,
0,0,0,0,0,4584,0,0,0,0,0,0,0,0,0,0,0,0,0,0,0,0,0,0,4584,0,0,0,0,0,
0,0,0,0,0,4584,0,0,0,0,0,0,0,0,0,0,0,0,0,0,0,0,0,0,4584,0,0,0,0,0,
0,0,0,0,0,0,0,0,0,0,0,0,0,0,0,0,0,0,0,0,0,0,0,0,0,0,0,0,0,0,
0,0,0,0,0,0,0,0,0,0,0,0,0,0,0,0,0,0,0,0,0,0,0,0,0,0,0,0,0,0,
0,0,0,0,0,0,0,0,0,0,0,0,0,0,0,0,0,0,0,0,0,0,0,0,0,0,0,0,0,0,
0,0,0,0,0,0,0,0,0,0,0,0,0,0,0,0,0,0,0,0,0,0,0,0,0,0,0,0,0,0,
0,0,0,0,0,0,0,0,0,0,0,0,0,0,0,0,0,0,0,0,0,0,0,0,0,0,0,0,0,0,
0,0,0,0,0,0,0,0,0,0,0,0,0,0,0,0,0,0,0,0,0,0,0,0,0,0,0,0,0,0,
0,0,0,0,0,0,0,0,0,0,0,0,0,0,0,0,0,0,0,0,0,0,0,0,0,0,0,0,0,0,
0,0,0,0,0,0,0,0,0,0,0,0,0,0,0,0,0,0,0,0,0,0,0,0,0,0,0,0,0,0
</data>
 </layer>
 <layer id="17" name="Paths" width="30" height="22" visible="0">
  <data encoding="csv">
0,0,0,0,0,0,0,0,0,0,0,0,0,0,0,0,0,0,0,0,0,0,0,0,0,0,0,0,0,0,
0,0,0,0,0,0,0,3239,0,0,0,0,3239,0,0,0,0,3239,0,0,0,0,3239,0,0,0,0,0,0,0,
0,0,0,0,0,0,0,0,0,0,0,0,0,0,0,0,0,0,0,0,0,0,0,0,0,0,0,0,0,0,
0,0,0,0,0,0,0,0,0,0,0,0,0,0,0,0,0,0,0,0,0,0,0,0,0,0,0,0,0,0,
0,0,0,0,0,0,0,0,0,0,0,0,0,0,0,0,0,0,0,0,0,0,0,0,0,0,0,0,0,0,
0,0,0,0,0,0,0,3239,0,0,0,0,3239,0,0,0,0,3239,0,0,0,0,3239,0,0,0,0,0,0,0,
0,0,0,0,0,0,0,0,0,0,0,0,0,0,0,0,0,0,0,0,0,0,0,0,0,0,0,0,0,0,
0,0,0,0,0,0,0,3239,0,0,0,0,0,0,0,0,0,0,0,0,0,0,3239,0,0,0,0,0,0,0,
0,0,0,0,0,0,0,0,0,0,0,0,0,0,0,0,0,0,0,0,0,0,0,0,0,0,0,0,0,0,
0,0,0,0,0,0,0,0,0,0,0,0,0,0,0,0,0,0,0,0,0,0,0,0,0,0,0,0,0,0,
0,0,0,0,0,0,0,0,0,0,0,0,0,0,0,0,0,0,0,0,0,0,3239,0,0,0,0,0,0,0,
0,0,0,0,0,0,3239,0,0,0,0,0,0,0,0,0,0,0,0,0,0,0,0,3239,0,0,0,0,0,0,
0,0,0,0,0,0,0,0,0,0,0,0,0,0,0,0,0,0,0,0,0,0,0,0,0,0,0,0,0,0,
0,0,0,0,0,0,0,0,0,0,0,0,0,0,0,0,0,0,0,0,0,0,0,0,0,0,0,0,0,0,
0,0,0,0,0,0,3239,0,0,0,0,0,0,0,0,0,0,0,0,0,0,0,0,3239,0,0,0,0,0,0,
0,0,0,0,0,0,0,0,0,0,0,0,0,0,0,0,0,0,0,0,0,0,0,0,0,0,0,0,0,0,
0,0,0,0,0,0,0,0,0,0,0,0,3239,0,0,0,0,3239,0,0,0,0,0,0,0,0,0,0,0,0,
0,0,0,0,0,0,0,0,0,0,0,0,0,0,0,0,0,0,0,0,0,0,0,0,0,0,0,0,0,0,
0,0,0,0,0,0,0,0,0,0,0,0,0,0,0,0,0,0,0,0,0,0,0,0,0,0,0,0,0,0,
0,0,0,0,0,0,0,0,0,0,0,0,3239,0,0,0,0,3239,0,0,0,0,0,0,0,0,0,0,0,0,
0,0,0,0,0,0,0,0,0,0,0,0,0,0,0,0,0,0,0,0,0,0,0,0,0,0,0,0,0,0,
0,0,0,0,0,0,0,0,0,0,0,0,0,0,0,0,0,0,0,0,0,0,0,0,0,0,0,0,0,0
</data>
 </layer>
 <layer id="9" name="Front" width="30" height="22">
  <data encoding="csv">
0,0,0,0,0,0,0,0,0,0,0,0,0,0,0,0,0,0,0,0,0,0,0,0,0,0,0,0,0,0,
0,0,0,0,0,0,0,0,0,0,0,0,0,0,0,0,0,0,0,0,0,0,0,0,0,0,0,0,0,0,
0,0,0,0,0,0,0,0,0,0,0,0,0,0,0,0,0,0,0,0,0,0,0,0,0,0,0,0,0,0,
0,0,0,0,0,0,0,0,0,0,0,989,990,0,0,0,0,1013,0,0,0,989,990,0,0,0,0,0,0,0,
0,0,0,0,0,0,0,0,0,0,0,1016,1017,0,0,0,0,1035,0,0,0,984,985,0,0,0,0,0,0,0,
0,0,0,0,0,0,0,10963,10964,0,0,0,0,0,0,0,0,0,0,0,0,0,0,0,0,0,0,0,0,0,
0,0,0,0,0,0,0,0,0,0,0,0,0,4062,4063,4063,4064,0,0,0,0,0,0,0,0,0,0,0,0,0,
0,0,0,0,0,0,0,0,0,0,0,0,5204,0,0,0,0,0,0,0,0,0,0,0,0,0,0,0,0,0,
0,0,0,0,0,0,0,0,0,0,0,0,0,0,0,0,0,0,0,0,0,0,0,0,0,0,0,0,0,0,
0,0,0,0,0,0,0,0,0,0,0,0,0,0,0,0,0,0,0,0,0,0,0,0,0,0,0,0,0,0,
0,0,0,0,0,0,8842,8843,0,0,0,0,0,0,0,0,0,0,0,0,0,0,8842,8843,0,0,0,0,0,0,
0,0,0,0,0,0,0,0,0,0,0,0,0,0,0,0,0,0,0,0,0,0,0,0,0,0,0,0,0,0,
0,0,0,0,0,0,0,0,0,0,0,0,0,0,0,0,0,0,0,0,0,0,0,0,0,0,0,0,0,0,
0,0,0,0,0,0,0,8842,8843,0,0,8842,8843,0,0,0,0,8842,8843,0,0,8842,8843,0,0,0,0,0,0,0,
0,0,0,0,0,0,0,0,0,0,0,0,0,0,0,0,0,0,0,0,0,0,0,0,10962,0,0,0,0,0,
0,0,0,0,0,0,0,0,0,0,0,0,0,0,0,0,0,0,0,0,0,0,0,0,10975,0,0,0,0,0,
0,0,0,0,0,8842,8843,0,0,0,0,0,0,0,0,0,0,0,0,0,0,0,0,8842,8843,0,0,0,0,0,
0,0,0,0,0,0,0,0,0,0,8842,8843,0,0,0,0,0,0,8842,8843,0,0,0,0,0,0,0,0,0,0,
0,0,0,0,0,8905,2147492554,8906,2147492554,8906,2147492554,8906,2147492553,4584,0,0,4584,8905,2147492554,8906,2147492554,8906,2147492554,8906,2147492553,0,0,0,0,0,
0,0,0,0,0,8937,2147492586,8938,2147492586,8938,2147492586,8938,2147492585,4605,0,0,4605,8937,2147492586,8938,2147492586,8938,2147492586,8938,2147492585,0,0,0,0,0,
0,0,0,0,0,0,0,0,0,0,0,0,0,3701,0,0,3703,0,0,0,0,0,0,0,0,0,0,0,0,0,
0,0,0,0,0,0,0,0,0,0,0,0,0,0,3723,3723,0,0,0,0,0,0,0,0,0,0,0,0,0,0
</data>
 </layer>
 <layer id="19" name="Front1" width="30" height="22">
  <data encoding="csv">
0,0,0,0,0,0,0,0,0,0,0,0,0,0,0,0,0,0,0,0,0,0,0,0,0,0,0,0,0,0,
0,0,0,0,0,0,0,0,0,0,0,0,0,0,0,0,0,0,0,0,0,0,0,0,0,0,0,0,0,0,
0,0,0,0,0,0,0,0,0,0,0,0,0,0,0,0,0,0,0,0,0,0,0,0,0,0,0,0,0,0,
0,0,0,0,0,0,0,0,0,0,0,0,0,0,0,0,0,0,0,0,0,0,0,0,0,0,0,0,0,0,
0,0,0,0,0,0,0,0,0,0,0,0,0,0,0,0,0,0,0,0,0,0,0,0,0,0,0,0,0,0,
0,0,0,0,0,0,0,0,0,0,0,0,0,0,0,0,0,5206,0,0,0,0,0,0,0,0,0,0,0,0,
0,0,0,0,0,0,0,0,0,0,0,0,0,5233,5234,8754,0,0,0,0,0,0,0,0,0,0,0,0,0,0,
0,0,0,0,0,0,0,0,0,0,0,0,0,0,0,0,0,0,0,0,0,0,0,0,0,0,0,0,0,0,
0,0,0,0,0,0,0,0,0,0,0,0,0,0,0,0,0,0,0,0,0,0,0,0,0,0,0,0,0,0,
0,0,0,0,0,0,0,0,0,0,0,0,0,0,0,0,0,0,0,0,0,0,0,0,0,0,0,0,0,0,
0,0,0,0,0,0,5238,0,0,0,0,0,0,0,0,0,0,0,0,0,0,0,0,2147488852,0,0,0,0,0,0,
0,0,0,0,0,0,0,0,0,0,0,0,0,0,0,0,0,0,0,0,0,0,0,0,0,0,0,0,0,0,
0,0,0,0,0,0,0,0,0,0,0,0,0,0,0,0,0,0,0,0,0,0,0,0,0,0,0,0,0,0,
0,0,0,0,0,0,0,0,0,0,0,0,0,0,0,0,0,0,0,0,0,0,0,0,0,0,0,0,0,0,
0,0,0,0,0,0,0,0,0,0,0,0,0,0,0,0,0,0,0,0,0,0,0,0,0,0,0,0,0,0,
0,0,0,0,0,0,0,0,0,0,0,0,0,0,0,0,0,0,0,0,0,0,0,0,0,0,0,0,0,0,
0,0,0,0,0,0,0,0,0,0,0,0,0,0,0,0,0,0,0,0,0,0,0,0,5253,0,0,0,0,0,
0,0,0,0,0,0,0,0,0,0,0,0,0,0,0,0,0,0,5206,0,0,0,0,0,0,0,0,0,0,0,
0,0,0,0,0,0,0,0,0,0,0,0,0,0,0,0,0,0,0,0,0,0,0,0,0,0,0,0,0,0,
0,0,0,0,0,0,0,0,0,0,0,0,0,0,0,0,0,0,0,0,0,0,0,0,0,0,0,0,0,0,
0,0,0,0,0,0,0,0,0,0,0,0,0,0,0,0,0,0,0,0,0,0,0,0,0,0,0,0,0,0,
0,0,0,0,0,0,0,0,0,0,0,0,0,0,0,0,0,0,0,0,0,0,0,0,0,0,0,0,0,0
</data>
 </layer>
 <layer id="20" name="AlwaysFront" width="30" height="22">
  <data encoding="csv">
0,0,0,0,0,0,0,0,0,0,0,0,0,0,0,0,0,0,0,0,0,0,0,0,0,0,0,0,0,0,
0,0,0,0,0,0,0,0,0,0,0,0,0,0,0,0,0,0,0,0,0,0,0,0,0,0,0,0,0,0,
0,0,0,0,0,0,0,0,0,0,0,0,0,0,0,0,0,0,0,0,0,0,0,0,0,0,0,0,0,0,
0,0,0,0,0,0,0,0,0,0,0,0,0,0,0,0,0,0,0,0,0,0,0,0,0,0,0,0,0,0,
0,0,0,0,0,0,0,0,0,0,0,0,0,0,0,0,0,0,0,0,0,0,0,0,0,0,0,0,0,0,
0,0,0,0,0,0,0,0,0,0,0,0,0,0,0,0,0,0,0,0,0,0,0,0,0,0,0,0,0,0,
0,0,0,0,0,0,0,0,0,0,0,0,0,0,0,0,0,0,0,0,0,0,0,0,0,0,0,0,0,0,
0,0,0,0,0,0,0,2147489521,0,0,0,0,0,0,0,0,0,0,0,0,0,0,5873,0,0,0,0,0,0,0,
0,0,0,0,0,0,0,0,0,0,0,0,0,0,0,0,0,0,0,0,0,0,0,0,0,0,0,0,0,0,
0,0,0,0,0,0,0,0,0,0,0,0,0,0,0,0,0,0,0,0,0,0,0,0,0,0,0,0,0,0,
0,0,0,0,0,0,0,0,0,0,0,0,0,0,0,0,0,0,0,0,0,0,0,0,0,0,0,0,0,0,
0,0,0,0,0,0,2147489521,0,0,0,0,0,0,0,0,0,0,0,0,0,0,0,0,5873,0,0,0,0,0,0,
0,0,0,0,0,0,0,0,0,0,0,0,0,0,0,0,0,0,0,0,0,0,0,0,0,0,0,0,0,0,
0,0,0,0,0,0,0,0,0,0,0,0,0,0,0,0,0,0,0,0,0,0,0,0,0,0,0,0,0,0,
0,0,0,0,0,0,0,0,0,0,0,0,0,0,0,0,0,0,0,0,0,0,0,0,0,0,0,0,0,0,
0,0,0,0,0,0,0,0,0,0,0,0,0,4585,4586,4588,4589,0,0,0,0,0,0,0,0,0,0,0,0,0,
0,0,0,0,0,0,0,0,0,0,0,0,5873,4606,4607,4609,4610,2147489521,0,0,0,0,0,0,0,0,0,0,0,0,
0,0,0,0,0,0,0,0,0,0,0,0,0,4584,0,0,4584,0,0,0,0,0,0,0,0,0,0,0,0,0,
0,0,0,0,0,0,0,0,0,0,0,0,0,0,0,0,0,0,0,0,0,0,0,0,0,0,0,0,0,0,
0,0,0,0,0,0,0,0,0,0,0,0,0,0,0,0,0,0,0,0,0,0,0,0,0,0,0,0,0,0,
0,0,0,0,0,0,0,0,0,0,0,0,0,0,0,0,0,0,0,0,0,0,0,0,0,0,0,0,0,0,
0,0,0,0,0,0,0,0,0,0,0,0,0,0,0,0,0,0,0,0,0,0,0,0,0,0,0,0,0,0
</data>
 </layer>
 <objectgroup id="2" name="Back"/>
 <objectgroup id="12" name="Back1"/>
 <objectgroup id="6" name="Buildings" visible="0">
  <object id="11" name="TileData" x="352" y="240" width="16" height="16">
   <properties>
    <property name="Action" value="Door"/>
   </properties>
  </object>
 </objectgroup>
 <objectgroup id="14" name="Buildings1"/>
 <objectgroup id="16" name="Buildings2"/>
 <objectgroup id="18" name="Paths"/>
 <objectgroup id="10" name="Front"/>
</map>
