<?xml version="1.0" encoding="UTF-8"?>
<map version="1.10" tiledversion="1.11.2" orientation="orthogonal" renderorder="right-down" compressionlevel="0" width="17" height="34" tilewidth="16" tileheight="16" infinite="0" nextlayerid="28" nextobjectid="28">
 <tileset firstgid="1" name="1" tilewidth="16" tileheight="16" tilecount="2176" columns="32">
  <image source="townInterior.png" width="512" height="1088"/>
  <tile id="546">
   <animation>
    <frame tileid="546" duration="150"/>
    <frame tileid="546" duration="150"/>
    <frame tileid="546" duration="150"/>
    <frame tileid="546" duration="150"/>
    <frame tileid="546" duration="150"/>
    <frame tileid="547" duration="150"/>
    <frame tileid="548" duration="150"/>
    <frame tileid="546" duration="150"/>
    <frame tileid="547" duration="150"/>
    <frame tileid="548" duration="150"/>
    <frame tileid="546" duration="150"/>
    <frame tileid="547" duration="150"/>
    <frame tileid="548" duration="150"/>
    <frame tileid="546" duration="150"/>
    <frame tileid="547" duration="150"/>
    <frame tileid="548" duration="150"/>
    <frame tileid="546" duration="150"/>
    <frame tileid="547" duration="150"/>
    <frame tileid="548" duration="150"/>
    <frame tileid="546" duration="150"/>
    <frame tileid="547" duration="150"/>
    <frame tileid="548" duration="150"/>
    <frame tileid="546" duration="150"/>
    <frame tileid="546" duration="150"/>
    <frame tileid="546" duration="150"/>
    <frame tileid="546" duration="150"/>
    <frame tileid="546" duration="150"/>
    <frame tileid="546" duration="150"/>
    <frame tileid="546" duration="150"/>
    <frame tileid="546" duration="150"/>
    <frame tileid="546" duration="150"/>
    <frame tileid="546" duration="150"/>
    <frame tileid="546" duration="150"/>
    <frame tileid="546" duration="150"/>
    <frame tileid="546" duration="150"/>
    <frame tileid="546" duration="150"/>
   </animation>
  </tile>
  <tile id="1660">
   <properties>
    <property name="Type" value="Carpet"/>
   </properties>
  </tile>
  <tile id="1661">
   <properties>
    <property name="Type" value="Carpet"/>
   </properties>
  </tile>
  <tile id="1662">
   <properties>
    <property name="Type" value="Carpet"/>
   </properties>
  </tile>
  <tile id="1663">
   <properties>
    <property name="Type" value="Carpet"/>
   </properties>
  </tile>
  <tile id="1692">
   <properties>
    <property name="Type" value="Carpet"/>
   </properties>
  </tile>
  <tile id="1693">
   <properties>
    <property name="Type" value="Carpet"/>
   </properties>
  </tile>
  <tile id="1694">
   <properties>
    <property name="Type" value="Carpet"/>
   </properties>
  </tile>
  <tile id="1695">
   <properties>
    <property name="Type" value="Carpet"/>
   </properties>
  </tile>
  <tile id="1724">
   <properties>
    <property name="Type" value="Carpet"/>
   </properties>
  </tile>
  <tile id="1725">
   <properties>
    <property name="Type" value="Carpet"/>
   </properties>
  </tile>
  <tile id="1726">
   <properties>
    <property name="Type" value="Carpet"/>
   </properties>
  </tile>
  <tile id="1727">
   <properties>
    <property name="Type" value="Carpet"/>
   </properties>
  </tile>
  <tile id="1756">
   <properties>
    <property name="Type" value="Carpet"/>
   </properties>
  </tile>
  <tile id="1757">
   <properties>
    <property name="Type" value="Carpet"/>
   </properties>
  </tile>
  <tile id="1758">
   <properties>
    <property name="Type" value="Carpet"/>
   </properties>
  </tile>
  <tile id="1759">
   <properties>
    <property name="Type" value="Carpet"/>
   </properties>
  </tile>
  <tile id="1788">
   <properties>
    <property name="Type" value="Carpet"/>
   </properties>
  </tile>
  <tile id="1789">
   <properties>
    <property name="Type" value="Carpet"/>
   </properties>
  </tile>
  <tile id="1790">
   <properties>
    <property name="Type" value="Carpet"/>
   </properties>
  </tile>
  <tile id="1791">
   <properties>
    <property name="Type" value="Carpet"/>
   </properties>
  </tile>
 </tileset>
 <tileset firstgid="2177" name="2" tilewidth="16" tileheight="16" tilecount="1312" columns="32">
  <image source="townInterior_2.png" width="512" height="656"/>
 </tileset>
 <tileset firstgid="3489" name="Paths" tilewidth="16" tileheight="16" tilecount="64" columns="4">
  <image source="paths.png" width="64" height="256"/>
 </tileset>
 <tileset firstgid="3553" name="z_ArithmancyCharmsDADA_ICEC_Hogwarts" tilewidth="16" tileheight="16" tilecount="814" columns="22">
  <image source="z_ArithmancyCharmsDADA_ICEC_Hogwarts.png" width="352" height="592"/>
 </tileset>
 <tileset firstgid="4367" name="z_vanillaEdits_Hogwarts" tilewidth="16" tileheight="16" tilecount="330" columns="22">
  <image source="z_vanillaEdits_Hogwarts.png" width="352" height="240"/>
 </tileset>
 <tileset firstgid="4697" name="z_Potions_Katy_Hogwarts" tilewidth="16" tileheight="16" tilecount="1184" columns="32">
  <image source="z_Potions_Katy_Hogwarts.png" width="512" height="592"/>
 </tileset>
 <tileset firstgid="5881" name="z_AstronomyKitchen_SC_Hogwarts" tilewidth="16" tileheight="16" tilecount="660" columns="22">
  <image source="z_AstronomyKitchen_SC_Hogwarts.png" width="352" height="480"/>
 </tileset>
 <tileset firstgid="6541" name="z_GrandStaircase_HitMe_Hogwarts" tilewidth="16" tileheight="16" tilecount="420" columns="21">
  <image source="z_GrandStaircase_HitMe_Hogwarts.png" width="336" height="320"/>
 </tileset>
 <tileset firstgid="6961" name="z_GrandStaircase_Hxoni_Hogwarts" tilewidth="16" tileheight="16" tilecount="240" columns="12">
  <image source="z_GrandStaircase_Hxoni_Hogwarts.png" width="192" height="320"/>
 </tileset>
 <tileset firstgid="7201" name="z_Library_HitMe_Hogwarts" tilewidth="16" tileheight="16" tilecount="924" columns="21">
  <image source="z_Library_HitMe_Hogwarts.png" width="336" height="704"/>
 </tileset>
 <tileset firstgid="8125" name="z_HogsmeadeInterior_Hxoni_Hogwarts" tilewidth="16" tileheight="16" tilecount="874" columns="23">
  <image source="z_HogsmeadeInterior_Hxoni_Hogwarts.png" width="368" height="608"/>
  <tile id="516">
   <animation>
    <frame tileid="516" duration="250"/>
    <frame tileid="541" duration="250"/>
    <frame tileid="516" duration="250"/>
    <frame tileid="542" duration="250"/>
   </animation>
  </tile>
 </tileset>
 <tileset firstgid="8999" name="z_FacultyTower_Hxoni_Hogwarts" tilewidth="16" tileheight="16" tilecount="437" columns="19">
  <image source="z_FacultyTower_Hxoni_Hogwarts.png" width="304" height="368"/>
 </tileset>
 <tileset firstgid="9436" name="z_HeadmistressOffice_Hxoni_Hogwarts" tilewidth="16" tileheight="16" tilecount="312" columns="12">
  <image source="z_HeadmistressOffice_Hxoni_Hogwarts.png" width="192" height="416"/>
  <tile id="154">
   <animation>
    <frame tileid="195" duration="500"/>
    <frame tileid="196" duration="500"/>
    <frame tileid="197" duration="500"/>
    <frame tileid="198" duration="500"/>
    <frame tileid="196" duration="500"/>
    <frame tileid="197" duration="500"/>
    <frame tileid="198" duration="500"/>
    <frame tileid="196" duration="500"/>
    <frame tileid="197" duration="500"/>
    <frame tileid="198" duration="500"/>
    <frame tileid="196" duration="500"/>
    <frame tileid="197" duration="500"/>
    <frame tileid="198" duration="500"/>
   </animation>
  </tile>
  <tile id="166">
   <animation>
    <frame tileid="207" duration="500"/>
    <frame tileid="208" duration="500"/>
    <frame tileid="209" duration="500"/>
    <frame tileid="210" duration="500"/>
    <frame tileid="208" duration="500"/>
    <frame tileid="209" duration="500"/>
    <frame tileid="210" duration="500"/>
    <frame tileid="208" duration="500"/>
    <frame tileid="209" duration="500"/>
    <frame tileid="210" duration="500"/>
    <frame tileid="208" duration="500"/>
    <frame tileid="209" duration="500"/>
    <frame tileid="210" duration="500"/>
   </animation>
  </tile>
  <tile id="213">
   <animation>
    <frame tileid="213" duration="250"/>
    <frame tileid="213" duration="250"/>
    <frame tileid="213" duration="250"/>
    <frame tileid="213" duration="250"/>
    <frame tileid="213" duration="250"/>
    <frame tileid="213" duration="250"/>
    <frame tileid="213" duration="250"/>
    <frame tileid="213" duration="250"/>
    <frame tileid="213" duration="250"/>
    <frame tileid="213" duration="250"/>
    <frame tileid="226" duration="250"/>
    <frame tileid="226" duration="250"/>
    <frame tileid="226" duration="250"/>
    <frame tileid="203" duration="250"/>
    <frame tileid="215" duration="250"/>
    <frame tileid="227" duration="250"/>
    <frame tileid="203" duration="250"/>
    <frame tileid="215" duration="250"/>
    <frame tileid="227" duration="250"/>
    <frame tileid="203" duration="250"/>
    <frame tileid="215" duration="250"/>
    <frame tileid="227" duration="250"/>
    <frame tileid="203" duration="250"/>
    <frame tileid="215" duration="250"/>
    <frame tileid="227" duration="250"/>
    <frame tileid="203" duration="250"/>
    <frame tileid="215" duration="250"/>
    <frame tileid="227" duration="250"/>
    <frame tileid="226" duration="250"/>
    <frame tileid="226" duration="250"/>
    <frame tileid="213" duration="250"/>
    <frame tileid="213" duration="250"/>
    <frame tileid="213" duration="250"/>
    <frame tileid="213" duration="250"/>
    <frame tileid="213" duration="250"/>
    <frame tileid="213" duration="250"/>
    <frame tileid="213" duration="250"/>
    <frame tileid="213" duration="250"/>
    <frame tileid="213" duration="250"/>
    <frame tileid="213" duration="250"/>
    <frame tileid="213" duration="250"/>
    <frame tileid="213" duration="250"/>
    <frame tileid="213" duration="250"/>
    <frame tileid="213" duration="250"/>
    <frame tileid="213" duration="250"/>
    <frame tileid="213" duration="250"/>
    <frame tileid="213" duration="250"/>
    <frame tileid="213" duration="250"/>
    <frame tileid="213" duration="250"/>
    <frame tileid="213" duration="250"/>
    <frame tileid="213" duration="250"/>
    <frame tileid="213" duration="250"/>
    <frame tileid="213" duration="250"/>
    <frame tileid="213" duration="250"/>
    <frame tileid="213" duration="250"/>
    <frame tileid="213" duration="250"/>
    <frame tileid="213" duration="250"/>
    <frame tileid="213" duration="250"/>
    <frame tileid="213" duration="250"/>
    <frame tileid="213" duration="250"/>
    <frame tileid="213" duration="250"/>
    <frame tileid="213" duration="250"/>
    <frame tileid="213" duration="250"/>
    <frame tileid="213" duration="250"/>
    <frame tileid="213" duration="250"/>
    <frame tileid="213" duration="250"/>
    <frame tileid="213" duration="250"/>
   </animation>
  </tile>
 </tileset>
 <tileset firstgid="9748" name="z_History_Katy_Hogwarts" tilewidth="16" tileheight="16" tilecount="240" columns="12">
  <image source="z_History_Katy_Hogwarts.png" width="192" height="320"/>
 </tileset>
 <tileset firstgid="9988" name="z_Painting_HitMe_Hogwarts" tilewidth="16" tileheight="16" tilecount="104" columns="8">
  <image source="z_Painting_HitMe_Hogwarts.png" width="128" height="208"/>
 </tileset>
 <layer id="1" name="Back" width="17" height="34">
  <data encoding="csv">
0,0,0,0,0,0,0,0,0,0,0,0,0,0,0,0,0,
0,0,0,0,0,0,0,0,0,0,0,0,0,0,0,0,0,
0,0,0,0,0,0,0,0,0,0,0,0,0,0,0,0,0,
5371,5372,5371,5372,5371,5372,5371,5372,5371,5372,5371,5372,0,0,0,0,0,
5403,5404,5403,5404,5403,5404,5403,5404,5403,5404,5403,5404,0,0,0,0,0,
5371,5372,5371,5372,5371,5372,5371,5372,5371,5372,5371,5372,0,0,0,0,0,
5403,5404,5403,5404,5403,5404,5403,5404,5403,5404,5403,5404,0,0,0,0,0,
5371,5372,5371,5372,5371,5372,5371,5372,5371,5372,5371,0,0,0,0,0,0,
5403,5404,5403,5404,5403,5404,5403,5404,5403,5404,5403,5404,0,0,0,0,0,
5371,5372,5371,5372,5371,5372,5371,5372,5371,5372,5371,5372,0,0,0,0,0,
5403,5404,5403,5404,5403,5404,5403,5404,5403,5404,5403,5404,0,0,0,0,0,
5371,5372,5371,5372,5371,5372,5371,5372,5371,5372,5371,5372,5371,5372,5371,5372,5371,
5403,5404,5403,5404,5403,5404,5403,5404,5403,5404,5403,5404,5403,5404,5403,5404,5403,
5371,5372,5371,5372,5371,5372,5371,5372,5371,5372,5371,5372,5371,5372,5371,5372,5371,
5403,5404,5403,5404,5403,5404,5403,5404,5403,5404,5403,5404,5403,5404,5403,5404,5403,
5371,5372,5371,5372,5371,5372,5371,5372,5371,5372,5371,5372,5371,5372,5371,5372,5371,
5403,5404,5403,7014,5403,7039,5403,5404,5403,5404,5403,5404,5403,5404,5403,5404,5403,
5371,5372,5371,7014,7038,7039,5371,5372,5371,5372,5371,5372,5371,5372,5371,5372,5371,
5403,5404,5403,7026,7026,7027,5403,5404,5403,5404,5403,5404,5403,5404,5403,5404,5403,
5371,5372,5371,5372,5371,5372,5371,5372,5371,5372,5371,5372,5371,5372,5371,5372,5371,
5403,5404,5403,5404,5403,5404,5403,5404,5403,5404,5403,5404,5403,5404,5403,5404,5403,
301,5372,5371,5372,5371,5372,5371,5372,5371,5372,5371,5372,5371,5372,5371,5372,0,
5403,5404,5403,5404,5403,5404,5403,5404,5403,5404,5403,5404,5403,5404,5403,5404,0,
5371,5372,5371,5372,5371,5372,5371,5372,5371,5372,5371,5372,5371,5372,5371,5372,5371,
5403,5404,5403,5404,5403,5404,5403,5404,5403,5404,5403,5404,5403,5404,5403,5404,5403,
5371,5372,5371,5372,5371,5372,5371,5372,5371,5372,5371,5372,5371,5372,5371,5372,5371,
5403,5404,5403,5404,5403,5404,5403,5404,5403,5404,5403,5404,5403,5404,5403,5404,5403,
5371,5372,5371,5372,5371,5372,5371,5372,5371,5372,5371,5372,5371,5372,5371,5372,5371,
5403,5404,5403,5404,5403,5404,5403,5404,5403,5404,5403,5404,5403,5404,5403,5404,5403,
5371,5372,5371,5372,5371,5372,5371,5372,5371,5372,5371,5372,5371,5372,5371,5372,5371,
5403,5404,5403,5404,5403,5404,5403,5404,5403,5404,5403,5404,5403,5404,5403,5404,5403,
5371,5372,5371,5372,5371,5372,5371,5372,5371,5372,5371,5372,5371,5372,5371,5372,5371,
5403,5404,5403,5404,5403,5404,5403,5404,5403,5404,5403,5404,5403,5404,5403,5404,5403,
5371,5372,5371,5372,5371,5372,5371,5372,5371,5372,5371,5372,5371,5372,5371,5372,0
</data>
 </layer>
 <layer id="15" name="Back1" width="17" height="34">
  <data encoding="csv">
0,0,0,0,0,0,0,0,0,0,0,0,0,0,0,0,0,
0,0,0,0,0,0,0,0,0,0,0,0,0,0,0,0,0,
0,0,0,0,0,0,0,0,0,0,0,0,0,0,0,0,0,
0,0,0,0,0,0,0,0,0,6594,6574,0,0,0,0,0,0,
0,0,0,0,0,0,0,0,0,6594,0,0,0,0,0,0,0,
0,1430,2147487960,2147487959,1427,1427,1427,1427,1427,1427,2147485078,0,0,0,0,0,0,
0,7728,7729,0,9520,9521,9522,9523,0,2147493143,0,0,0,0,0,0,0,
0,7749,7750,0,9532,9533,9534,9535,0,0,0,0,0,0,0,0,0,
0,0,0,0,9544,9545,9546,9547,0,0,0,0,0,0,0,0,0,
0,0,0,0,0,0,0,0,0,0,0,0,0,0,0,0,0,
0,0,0,0,0,0,0,0,0,0,0,0,0,0,0,0,0,
0,0,0,0,0,0,0,0,0,0,0,0,0,0,0,0,0,
0,0,0,0,0,0,0,0,0,0,7608,0,0,0,0,0,0,
0,0,0,7608,0,0,0,0,7608,0,0,0,0,0,0,0,0,
0,0,0,0,0,0,0,0,0,0,0,0,0,0,0,0,0,
0,0,0,0,0,0,0,0,0,0,0,0,0,0,0,0,0,
0,0,0,0,0,0,6542,0,0,0,0,6617,1427,7770,7771,1427,0,
0,1427,1429,0,0,0,6594,6542,0,1430,7728,7729,7854,7791,7770,7771,0,
0,0,8952,0,0,0,6584,1427,1427,0,7749,7750,0,0,7791,7792,0,
2147491419,2147491418,0,0,0,8719,8720,6584,0,0,5435,5436,5436,5436,2147489083,0,0,
2147491440,2147491439,7770,7771,0,8742,8743,0,0,0,1073747259,5468,5468,5468,3221230907,0,0,
0,0,7791,7792,0,0,0,0,0,0,0,0,0,0,0,0,0,
0,0,0,0,0,0,0,0,0,0,0,0,0,0,0,0,0,
0,0,0,0,2147487989,0,0,0,0,0,0,0,0,0,0,0,0,
0,0,0,0,0,0,0,0,0,0,0,0,0,0,0,0,0,
0,0,0,0,0,0,0,0,0,0,0,0,0,0,0,0,0,
0,0,0,0,0,0,0,0,0,0,0,0,0,0,0,0,0,
0,0,0,0,0,0,0,0,0,0,0,0,0,0,0,0,0,
0,0,0,0,0,0,0,0,0,0,0,0,0,0,0,0,0,
0,0,0,0,0,0,0,0,0,0,0,0,0,0,0,0,0,
0,0,0,0,0,0,0,0,0,0,0,0,0,0,0,0,0,
0,0,0,0,0,0,0,0,0,0,0,0,0,0,0,0,0,
0,0,0,0,0,0,0,5435,5436,5436,2147489083,0,0,0,0,0,0,
0,0,0,0,0,0,0,0,0,0,0,0,0,0,0,0,0
</data>
 </layer>
 <layer id="2" name="Buildings" width="17" height="34">
  <data encoding="csv">
0,0,0,0,0,0,0,0,0,0,0,0,0,0,0,0,0,
0,2357,2297,2297,2297,2297,2297,2297,2297,2297,2147486005,0,0,0,0,0,0,
2388,6555,6552,6552,6552,6552,6552,6552,6552,6552,6554,2391,0,0,0,0,0,
2328,6575,6573,6594,6594,6594,6594,6594,6594,2147493107,2147493117,2330,0,0,0,0,0,
2328,6575,6594,6594,6594,6594,6594,6594,6594,2147493119,2147493129,2330,0,0,0,0,0,
2328,6617,9721,0,8158,9259,9260,8936,9200,2147493131,2147493141,2330,0,0,0,0,0,
2328,9720,9745,0,0,0,0,0,9219,9220,2147493153,2330,0,0,0,0,0,
2328,9611,0,0,0,9390,9391,0,9101,9697,9577,2330,0,0,0,0,0,
2328,9623,0,0,0,0,9719,0,0,0,2147487682,2330,0,0,0,0,0,
2328,0,0,0,0,0,0,0,0,0,2147487704,2330,0,0,0,0,0,
2328,0,0,4053,4054,4055,0,0,0,0,0,2362,0,0,0,0,0,
2360,0,0,0,0,0,0,0,0,0,2147488011,2357,2297,2297,2297,2297,2298,
2296,2297,2358,0,0,0,0,0,0,2357,2147488012,6555,6552,6552,6552,6552,2330,
2328,6552,6554,4364,0,2297,2297,2297,2147488012,6555,6552,6575,6573,6573,6573,6573,2330,
2328,6573,6574,6552,0,6552,6552,6552,6552,6575,6573,6575,6594,6594,6594,6594,2330,
2328,6594,6574,6594,0,6594,6594,6573,6573,6575,6594,6596,6594,6594,6594,6594,2330,
2328,8905,8906,6594,121,6594,6594,6594,6594,6596,6594,9107,9108,5578,5579,9123,2330,
2328,8928,8929,0,0,0,0,6594,6594,6617,9697,9722,9723,8269,8292,9204,2330,
2328,8951,7143,0,0,0,0,0,7126,0,0,0,0,0,0,9204,2330,
2328,8838,0,6751,6752,6753,6605,0,0,0,0,0,4292,0,0,9223,2330,
2328,0,0,6772,6773,6774,9721,6605,7126,0,0,0,0,0,0,9239,2330,
2328,4315,4316,4317,0,0,0,0,0,0,0,0,0,0,0,9185,2330,
2328,0,0,0,0,0,0,0,0,0,0,0,0,0,0,9204,2330,
2328,2147492887,0,2147487990,3577,3578,3578,3579,0,0,0,0,9720,0,0,9223,2330,
2328,2147492833,0,0,0,0,0,0,0,0,4053,4055,4053,4055,0,8829,2330,
2328,2147492852,0,0,0,0,0,0,0,0,0,0,0,0,0,8852,2330,
2328,2147492871,0,0,9697,2147493369,0,0,0,0,0,0,0,0,0,0,2330,
2328,2147492887,0,0,4053,4055,4053,4055,0,0,4053,4055,4053,4055,0,9239,2330,
2328,2147492833,0,0,0,0,0,0,0,0,0,0,0,0,0,9185,2330,
2328,2147492852,0,0,0,0,0,0,0,0,0,0,0,0,0,9204,2330,
2328,2147492871,0,0,4053,4055,4053,4055,0,0,4053,4055,4053,4055,0,9223,2330,
2328,9721,2147493368,0,0,0,0,0,0,0,0,0,0,0,0,9697,2327,
2360,4098,4099,2147493371,2147493370,0,0,0,0,0,0,0,2147488011,1,1,1,1,
1,1,1,1,1,1,1,2328,0,0,2330,1,1,1,1,1,1
</data>
 </layer>
 <layer id="14" name="Buildings1" width="17" height="34">
  <data encoding="csv">
0,0,0,0,0,0,0,0,0,0,0,0,0,0,0,0,0,
0,0,0,0,0,9183,9184,0,0,0,0,0,0,0,0,0,0,
0,2389,9935,9936,9937,9202,9203,9935,9936,9937,2147493094,0,0,0,0,0,0,
0,0,9947,9948,9949,9221,9222,9947,9948,9949,0,0,0,0,0,0,0,
0,2147487939,9959,9960,9961,9240,9241,9959,9960,9961,0,0,0,0,0,0,0,
0,9697,9733,0,0,0,0,0,0,9201,0,0,0,0,0,0,0,
0,0,4336,0,0,0,0,0,9082,9696,9565,0,0,0,0,0,0,
0,0,0,0,0,0,0,0,4248,0,2147487660,0,0,0,0,0,0,
0,0,0,0,0,0,0,0,0,0,0,0,0,0,0,0,0,
0,0,0,0,0,0,0,0,0,0,0,0,0,0,0,0,0,
0,0,0,0,0,0,0,0,0,0,0,0,0,0,0,0,0,
0,0,0,0,0,0,0,0,0,0,0,0,0,0,0,0,0,
0,0,0,0,0,0,0,0,0,0,0,2389,10036,10037,0,0,0,
0,10005,2390,0,0,0,0,0,0,2389,9649,0,10044,10045,0,9090,0,
0,10013,0,0,0,0,0,0,0,2147493238,9661,0,9637,0,5515,9109,0,
0,8882,8883,0,0,0,6719,7069,2147492614,2147493250,2147493344,9088,9089,5546,5547,9239,0,
0,0,6640,7184,0,7186,6740,0,2147492637,0,2147493368,9710,9711,8246,8247,9185,0,
0,0,6640,0,0,0,6727,6740,7114,0,0,0,0,7855,0,8873,0,
0,8815,0,0,0,0,0,6727,0,0,0,0,0,0,0,8896,0,
0,0,7141,7118,7118,7119,6761,0,0,0,0,0,0,0,0,0,0,
0,0,0,0,0,9720,0,6761,0,0,0,0,0,0,0,0,0,
0,0,0,0,0,0,0,0,0,0,0,0,0,0,0,0,0,
0,0,0,0,0,0,0,0,0,0,0,0,0,0,0,0,0,
0,0,0,0,0,0,0,0,0,0,0,0,0,0,0,8806,0,
0,0,0,0,0,0,0,0,0,0,0,0,0,0,0,0,0,
0,0,0,0,0,0,0,0,0,0,0,0,0,0,0,2147493381,0,
0,2147492814,0,0,0,0,0,0,0,0,0,0,0,0,0,0,0,
0,0,0,0,0,0,0,0,0,0,0,0,0,0,0,0,0,
0,0,0,0,0,0,0,0,0,0,0,0,0,0,0,0,0,
0,0,0,0,0,0,0,0,0,0,0,0,0,0,0,0,0,
0,9709,0,0,0,0,0,0,0,0,0,0,0,0,0,9696,0,
0,0,0,0,0,0,0,0,0,0,0,0,0,0,0,0,0,
0,0,0,0,0,0,0,0,0,0,0,0,0,0,0,0,0,
0,0,0,0,0,0,0,0,0,0,0,0,0,0,0,0,0
</data>
 </layer>
 <layer id="25" name="Buildings2" width="17" height="34">
  <data encoding="csv">
0,0,0,0,0,0,0,0,0,0,0,0,0,0,0,0,0,
0,0,0,0,0,0,0,0,0,0,0,0,0,0,0,0,0,
0,0,4994,0,10046,0,0,0,0,2147493095,2390,0,0,0,0,0,0,
0,0,5026,0,10054,0,0,10047,0,0,0,0,0,0,0,0,0,
0,2147493344,2147487938,2147487937,8135,0,0,8941,9181,9182,0,0,0,0,0,0,0,
0,9708,0,0,0,0,0,0,0,0,0,0,0,0,0,0,0,
0,0,0,0,0,0,0,0,4226,0,0,0,0,0,0,0,0,
0,0,0,0,0,0,0,0,0,0,0,0,0,0,0,0,0,
0,0,0,0,0,0,0,0,0,0,0,0,0,0,0,0,0,
0,0,0,0,0,0,0,0,0,0,0,0,0,0,0,0,0,
0,0,0,0,0,0,0,0,0,0,0,0,0,0,0,0,0,
0,0,0,0,0,0,0,0,0,0,0,0,0,0,0,0,0,
0,0,0,0,0,0,0,0,0,0,0,0,0,0,0,0,0,
0,0,0,0,0,0,0,0,0,0,0,0,0,5482,5483,0,0,
0,0,0,0,0,0,0,0,0,0,0,0,0,5514,0,9166,0,
0,0,0,0,0,6682,0,0,0,0,0,0,0,0,0,2147492331,0,
0,0,0,0,0,6682,0,0,0,0,0,0,0,0,0,0,0,
0,0,0,0,0,0,0,0,0,0,0,0,0,0,0,0,0,
0,0,0,0,0,0,0,0,0,0,0,0,0,0,0,0,0,
0,0,0,0,0,9698,9709,0,0,0,0,0,0,0,0,0,0,
0,0,0,0,0,0,0,0,0,0,0,0,0,0,0,0,0,
0,0,0,0,0,0,0,0,0,0,0,0,0,0,0,0,0,
0,0,0,0,0,0,0,0,0,0,0,0,0,0,0,0,0,
0,0,0,0,0,0,0,0,0,0,0,0,0,0,0,0,0,
0,0,0,0,0,0,0,0,0,0,0,0,0,0,0,0,0,
0,0,0,0,0,0,0,0,0,0,0,0,0,0,0,0,0,
0,7860,0,0,0,0,0,0,0,0,0,0,0,0,0,0,0,
0,7881,0,0,0,0,0,0,0,0,0,0,0,0,0,0,0,
0,0,0,0,0,0,0,0,0,0,0,0,0,0,0,0,0,
0,0,0,0,0,0,0,0,0,0,0,0,0,0,0,0,0,
0,0,0,0,0,0,0,0,0,0,0,0,0,0,0,0,0,
0,0,0,0,0,0,0,0,0,0,0,0,0,0,0,0,0,
0,0,0,0,0,0,0,0,0,0,0,0,0,0,0,0,0,
0,0,0,0,0,0,0,0,0,0,0,0,0,0,0,0,0
</data>
 </layer>
 <layer id="4" name="Paths" width="17" height="34" visible="0">
  <data encoding="csv">
0,0,0,0,0,0,0,0,0,0,0,0,0,0,0,0,0,
0,0,0,0,0,0,0,0,0,0,0,0,0,0,0,0,0,
0,0,0,0,0,0,0,0,0,0,0,0,0,0,0,0,0,
0,0,0,0,0,0,0,0,0,0,0,0,0,0,0,0,0,
0,0,0,0,0,0,0,0,0,0,0,0,0,0,0,0,0,
0,0,0,0,0,0,0,0,0,0,0,0,0,0,0,0,0,
0,0,0,0,0,0,0,0,0,0,0,0,0,0,0,0,0,
0,0,0,0,0,0,0,0,0,0,0,0,0,0,0,0,0,
0,0,0,0,0,0,0,0,0,0,0,0,0,0,0,0,0,
0,0,0,0,3497,0,0,0,0,0,0,0,0,0,0,0,0,
0,0,0,0,0,0,0,0,0,0,0,0,0,0,0,0,0,
0,0,0,0,0,0,0,0,0,0,0,0,0,0,0,0,0,
0,0,0,0,0,0,0,0,0,0,0,0,0,0,0,0,0,
0,0,0,0,0,0,0,0,0,0,0,0,0,3497,0,0,0,
0,0,0,0,0,0,0,0,0,0,0,0,0,0,0,0,0,
0,0,0,0,0,0,0,3497,0,0,0,0,0,0,0,0,0,
0,0,0,0,0,0,0,0,0,0,0,0,0,3497,0,0,0,
0,0,0,0,0,0,0,0,0,0,0,0,0,0,0,0,0,
0,0,0,0,0,0,0,3497,0,0,0,0,0,0,0,0,0,
0,0,0,0,0,0,0,0,0,0,0,0,0,0,0,0,0,
0,0,0,0,0,0,0,0,0,0,0,0,0,0,0,0,0,
0,0,0,3497,0,0,0,0,0,0,0,0,0,0,3497,0,0,
0,0,0,0,0,0,0,0,0,0,0,0,0,0,0,0,0,
0,0,0,3497,0,0,0,0,0,0,0,0,0,0,0,0,0,
0,0,0,0,0,0,0,0,0,0,0,0,0,0,3497,0,0,
0,0,0,0,0,0,0,0,0,0,0,0,0,0,0,0,0,
0,0,0,0,0,0,0,0,0,0,0,0,0,0,0,0,0,
0,0,0,0,0,0,0,0,0,0,0,0,0,0,0,0,0,
0,0,3497,0,0,0,0,0,0,0,0,0,0,0,3497,0,0,
0,0,0,0,0,0,0,0,0,0,0,0,0,0,0,0,0,
0,0,0,0,0,0,0,0,0,0,0,0,0,0,0,0,0,
0,0,3497,0,0,0,0,0,0,0,0,0,0,0,3497,0,0,
0,0,0,0,0,0,0,0,0,0,0,0,0,0,0,0,0,
0,0,0,0,0,0,0,0,0,0,0,0,0,0,0,0,0
</data>
 </layer>
 <layer id="3" name="Front" width="17" height="34">
  <data encoding="csv">
0,0,0,0,0,0,0,0,0,0,0,0,0,0,0,0,0,
0,0,0,0,0,0,0,0,0,0,0,0,0,0,0,0,0,
0,0,0,0,0,0,0,0,0,0,0,0,0,0,0,0,0,
0,0,0,0,0,0,0,0,0,0,0,0,0,0,0,0,0,
0,0,0,0,0,0,0,0,0,0,0,0,0,0,0,0,0,
0,0,0,0,0,0,0,0,0,0,0,0,0,0,0,0,0,
0,9599,0,0,0,9371,9372,0,0,0,0,0,0,0,0,0,0,
0,0,0,0,0,0,9707,0,0,0,0,0,0,0,0,0,0,
0,0,0,0,8641,0,0,0,0,0,0,0,0,0,0,0,0,
0,0,0,4031,4032,4033,0,0,0,0,0,0,0,0,0,0,0,
0,0,0,0,0,0,0,0,0,0,0,2362,0,0,0,0,0,
2360,0,0,0,0,0,0,0,0,0,0,0,0,0,0,0,0,
0,0,2358,0,0,0,0,0,0,2357,0,0,0,0,0,0,0,
0,0,0,0,0,0,0,0,0,0,0,0,0,0,0,0,0,
0,0,0,0,57,0,0,0,0,0,0,0,0,0,0,0,0,
0,0,0,7172,89,7174,0,0,0,0,0,0,0,0,0,0,0,
0,0,0,0,0,0,0,6719,0,0,0,0,0,0,0,0,0,
0,0,7131,7132,7134,7135,7098,0,0,0,0,0,0,0,0,0,0,
0,0,7143,7144,7146,7147,6740,6719,0,0,0,0,4270,0,0,0,0,
0,4271,4272,4273,0,0,0,6740,7114,0,0,0,0,0,0,9166,0,
0,4293,4294,4295,0,0,0,0,0,0,0,0,0,0,0,0,0,
0,0,0,2147487992,2147487991,0,0,0,0,0,0,0,0,0,7009,0,0,
0,2147492814,0,2147488014,3555,3556,3556,3557,0,0,0,0,2147493346,0,0,0,0,
0,0,0,0,0,0,0,0,0,0,4031,4033,4031,4033,0,0,0,
0,0,0,0,9708,0,0,0,0,0,0,0,0,0,0,0,0,
0,0,0,0,9720,2147493357,0,0,0,0,0,0,0,0,0,0,0,
0,0,0,0,4031,4033,4031,4033,0,0,4031,4033,4031,4033,0,9166,0,
0,0,0,0,0,0,0,0,0,0,0,0,0,0,0,0,0,
0,0,2147490657,0,0,0,0,0,0,0,0,0,0,0,7009,0,0,
0,0,0,0,4031,4033,4031,4033,0,0,4031,4033,4031,4033,0,0,0,
0,0,2147493356,0,0,0,0,0,0,0,0,0,0,0,0,0,0,
0,4076,4077,2147493359,2147493358,0,0,0,0,0,0,0,4362,2361,2361,2326,2327,
0,2361,2361,2361,2361,2361,2361,2393,0,0,2392,2147488012,2147488011,0,0,0,0,
0,0,0,0,0,0,0,2360,2361,2361,2362,0,0,0,0,0,0
</data>
 </layer>
 <layer id="20" name="Front1" width="17" height="34">
  <data encoding="csv">
0,0,0,0,0,0,0,0,0,0,0,0,0,0,0,0,0,
0,0,0,0,0,0,0,0,0,0,0,0,0,0,0,0,0,
0,0,0,0,0,0,0,0,0,0,0,0,0,0,0,0,0,
0,0,0,0,0,0,0,0,0,0,0,0,0,0,0,0,0,
0,0,0,0,0,0,0,0,0,0,0,0,0,0,0,0,0,
0,0,0,0,0,0,0,0,0,0,0,0,0,0,0,0,0,
0,0,0,0,0,0,0,0,0,0,0,0,0,0,0,0,0,
0,0,0,0,0,0,0,0,0,0,0,0,0,0,0,0,0,
0,0,0,0,0,0,0,0,0,0,0,0,0,0,0,0,0,
0,0,0,0,8844,0,0,0,0,0,0,0,0,0,0,0,0,
0,0,0,0,0,0,0,0,0,0,0,0,0,0,0,0,0,
0,0,0,0,0,0,0,0,0,0,0,0,0,0,0,0,0,
0,0,0,0,0,0,0,0,0,0,0,0,0,0,0,0,0,
0,0,0,0,0,0,0,0,0,0,0,0,0,0,0,0,0,
0,0,0,0,0,0,0,0,0,0,0,0,0,0,0,0,0,
0,0,0,0,0,0,0,0,0,0,0,0,0,0,0,0,0,
0,0,0,0,0,0,0,0,0,0,0,0,0,0,0,0,0,
0,0,0,0,0,0,0,0,0,0,0,0,0,0,0,0,0,
0,0,0,0,0,0,0,0,0,0,0,0,0,0,0,0,0,
0,0,0,0,0,0,0,0,0,0,0,0,0,0,0,0,0,
0,0,0,0,0,0,0,0,0,0,0,0,0,0,0,0,0,
0,0,0,0,0,0,0,0,0,0,0,0,0,0,0,0,0,
0,0,0,0,0,8739,4358,0,0,0,0,0,0,0,0,0,0,
0,0,0,0,0,0,0,0,0,0,0,9158,0,0,0,0,0,
0,0,0,0,0,0,0,0,0,0,0,0,0,0,0,0,0,
0,0,0,0,0,0,2147488009,0,0,0,9707,4338,0,0,0,0,0,
0,0,0,0,0,9159,2147488008,0,0,0,9719,4360,0,0,0,0,0,
0,0,0,0,0,0,0,0,0,0,0,0,0,0,0,0,0,
0,0,0,0,0,0,0,0,0,0,0,0,0,0,0,0,0,
0,0,0,0,0,2147488006,9732,0,0,0,0,0,2147493343,0,0,0,0,
0,0,0,0,0,0,0,0,0,0,0,0,0,0,0,0,0,
0,0,0,0,0,0,0,0,0,0,0,0,0,0,0,0,0,
0,0,0,0,0,0,0,0,0,0,0,0,0,0,0,0,0,
0,0,0,0,0,0,0,0,0,0,0,0,0,0,0,0,0
</data>
 </layer>
 <layer id="9" name="AlwaysFront" width="17" height="34">
  <data encoding="csv">
0,0,0,0,0,0,0,0,0,0,0,0,0,0,0,0,0,
0,0,0,0,0,0,0,0,0,0,0,0,0,0,0,0,0,
0,0,0,0,0,0,0,0,0,0,0,0,0,0,0,0,0,
0,0,0,0,0,0,0,0,0,0,0,0,0,0,0,0,0,
0,0,0,0,0,0,0,0,0,0,0,0,0,0,0,0,0,
0,0,0,0,0,0,0,0,0,0,0,0,0,0,0,0,0,
0,0,0,0,0,0,0,0,0,0,0,0,0,0,0,0,0,
0,0,0,0,0,0,0,0,0,0,0,0,0,0,0,0,0,
0,0,0,0,0,0,0,0,0,0,0,0,0,0,0,0,0,
0,0,0,0,0,0,0,0,0,0,0,0,0,0,0,0,0,
0,0,0,0,0,0,0,0,0,0,4362,0,0,0,0,0,0,
0,2361,2361,2147488010,0,0,0,0,4362,2147488012,2147488011,0,0,0,0,0,0,
0,0,0,4363,4364,2361,2361,2147488012,2147488011,0,0,0,0,0,0,0,0,
0,0,0,4364,2297,2297,0,0,0,0,0,0,0,0,0,0,0,
0,0,0,6552,6552,6552,0,0,0,0,0,0,0,0,0,0,0,
0,0,0,0,0,0,0,0,0,0,0,0,0,0,0,0,0,
0,0,0,0,0,0,0,0,0,0,0,0,0,0,0,0,0,
0,0,0,0,0,0,0,0,0,0,0,0,0,0,0,0,0,
0,0,0,0,0,0,0,0,0,0,0,0,0,0,0,0,0,
0,0,0,0,0,0,0,0,0,0,0,0,0,0,0,0,0,
0,0,0,0,0,0,0,0,0,0,0,0,0,0,0,0,0,
0,0,0,0,0,0,0,0,0,0,0,0,0,0,0,0,0,
0,0,0,0,0,0,0,0,0,0,0,0,0,0,0,0,0,
0,0,0,0,0,0,0,0,0,0,0,0,0,0,0,0,0,
0,0,0,0,0,0,0,0,0,0,0,0,0,0,0,0,0,
0,0,0,0,0,0,0,0,0,0,0,0,0,0,0,0,0,
0,0,0,0,0,0,0,0,0,0,0,0,0,0,0,0,0,
0,0,0,0,0,0,0,0,0,0,0,0,0,0,0,0,0,
0,0,0,0,0,0,0,0,0,0,0,0,0,0,0,0,0,
0,0,0,0,0,0,0,0,0,0,0,0,0,0,0,0,0,
0,0,0,4262,0,0,0,0,0,0,0,0,0,0,0,0,0,
0,0,0,0,0,0,0,0,0,0,0,0,0,0,0,0,0,
0,0,0,0,0,0,0,0,0,0,0,0,0,0,0,0,0,
0,0,0,0,0,0,0,0,0,0,0,0,0,0,0,0,0
</data>
 </layer>
 <layer id="23" name="AlwaysFront1" width="17" height="34">
  <data encoding="csv">
0,0,0,0,0,0,0,0,0,0,0,0,0,0,0,0,0,
0,0,0,0,0,0,0,0,0,0,0,0,0,0,0,0,0,
0,0,0,0,0,0,0,0,0,0,0,0,0,0,0,0,0,
0,0,0,0,0,0,0,0,0,0,0,0,0,0,0,0,0,
0,0,0,0,0,0,0,0,0,0,0,0,0,0,0,0,0,
0,0,0,0,0,0,0,0,0,0,0,0,0,0,0,0,0,
0,0,0,0,0,0,0,0,0,0,0,0,0,0,0,0,0,
0,0,0,0,0,0,0,0,0,0,0,0,0,0,0,0,0,
0,0,0,0,0,0,0,0,0,0,0,0,0,0,0,0,0,
0,0,0,0,0,0,0,0,0,0,0,0,0,0,0,0,0,
0,0,0,0,0,0,0,0,0,0,0,0,0,0,0,0,0,
0,0,0,0,0,0,0,0,0,0,0,0,0,0,0,0,0,
0,0,0,0,0,0,0,0,0,0,0,0,0,0,0,0,0,
0,0,0,0,0,0,0,0,0,0,0,0,0,0,0,0,0,
0,0,0,7160,7161,7162,0,0,0,0,0,0,0,0,0,0,0,
0,0,0,0,7127,0,0,0,0,0,0,0,0,0,0,0,0,
0,0,0,0,0,0,0,0,0,0,0,0,0,0,0,0,0,
0,0,0,0,0,0,0,0,0,0,0,0,0,0,0,0,0,
0,0,0,0,0,0,0,0,0,0,0,0,0,0,0,0,0,
0,0,0,0,0,0,0,0,0,0,0,0,0,0,0,0,0,
0,0,0,0,0,0,0,0,0,0,0,0,0,0,0,0,0,
0,0,0,0,0,0,0,0,0,0,0,0,0,0,0,0,0,
0,0,0,0,0,0,0,0,0,0,0,0,0,0,0,0,0,
0,0,0,0,0,0,0,0,0,0,0,0,0,0,0,0,0,
0,0,0,0,0,0,0,0,0,0,0,0,0,0,0,0,0,
0,0,0,0,0,0,0,0,0,0,0,0,0,0,0,0,0,
0,0,0,0,0,0,0,0,0,0,0,0,0,0,0,0,0,
0,0,0,0,0,0,0,0,0,0,0,0,0,0,0,0,0,
0,0,0,0,0,0,0,0,0,0,0,0,0,0,0,0,0,
0,0,0,0,0,0,0,0,0,0,0,0,0,0,0,0,0,
0,0,0,0,0,0,0,0,0,0,0,0,0,0,0,0,0,
0,0,0,0,0,0,0,0,0,0,0,0,0,0,0,0,0,
0,0,0,0,0,0,0,0,0,0,0,0,0,0,0,0,0,
0,0,0,0,0,0,0,0,0,0,0,0,0,0,0,0,0
</data>
 </layer>
 <objectgroup id="5" name="Back"/>
 <objectgroup id="16" name="Back1"/>
 <objectgroup id="6" name="Buildings" visible="0">
  <object id="27" name="TileData" x="64" y="256" width="16" height="16">
   <properties>
    <property name="Action" value="Door"/>
   </properties>
  </object>
 </objectgroup>
 <objectgroup id="22" name="Buildings1"/>
 <objectgroup id="27" name="Buildings2"/>
 <objectgroup id="8" name="Paths"/>
 <objectgroup id="7" name="Front"/>
 <objectgroup id="21" name="Front1"/>
 <objectgroup id="11" name="AlwaysFront"/>
 <objectgroup id="24" name="AlwaysFront1"/>
</map>
