<?xml version="1.0" encoding="UTF-8"?>
<map version="1.10" tiledversion="1.12.2" orientation="orthogonal" renderorder="right-down" compressionlevel="0" width="12" height="12" tilewidth="16" tileheight="16" infinite="0" nextlayerid="9" nextobjectid="4">
 <tileset firstgid="1" name="indoor" tilewidth="16" tileheight="16" tilecount="2176" columns="32">
  <image source="townInterior.png" width="512" height="1088"/>
 </tileset>
 <tileset firstgid="2177" name="walls_and_floors" tilewidth="16" tileheight="16" tilecount="688" columns="16">
  <image source="walls_and_floors.png" width="256" height="688"/>
 </tileset>
 <layer id="1" name="Back" width="12" height="12">
  <data encoding="csv">
0,0,0,0,0,0,0,0,0,0,0,0,
0,0,0,0,0,0,0,0,0,0,0,0,
0,0,0,0,0,0,0,0,0,0,0,0,
0,2751,2752,2751,2752,2751,2752,2751,2752,2751,2752,0,
0,2767,2768,2767,2768,2767,2768,2767,2768,2767,2768,0,
0,2751,2752,2751,2752,2751,2752,2751,2752,2751,2752,0,
0,2767,2768,2767,2768,2767,2768,2767,2768,2767,2768,0,
0,2751,2752,2751,2752,2751,2752,2751,2752,2751,2752,0,
0,2767,2768,2767,2768,2767,2768,2767,2768,2767,2768,0,
0,2751,2752,2751,2752,2751,2752,2751,2752,2751,2752,0,
0,2767,2768,2767,2768,2767,2768,2767,2768,2767,2768,0,
0,0,0,0,0,2751,2752,0,0,0,0,0
</data>
 </layer>
 <layer id="2" name="Buildings" width="12" height="12">
  <data encoding="csv">
10,11,11,11,11,11,11,11,11,11,11,12,
65,2369,2369,2369,2369,2369,2369,2369,2369,2369,2369,69,
65,2385,2385,2385,2385,2385,2385,2385,2385,2385,2385,69,
65,2401,2401,2401,2401,2401,2401,2401,2401,2401,2401,69,
65,0,0,0,0,0,0,0,0,0,0,69,
65,0,0,0,0,0,0,0,0,0,0,69,
65,0,0,0,0,0,0,0,0,0,0,69,
65,0,0,0,0,0,0,0,0,0,0,69,
65,0,0,0,0,0,0,0,0,0,0,69,
65,0,0,0,0,0,0,0,0,0,0,69,
161,0,0,0,0,0,0,0,0,0,0,168,
1,1,1,1,1,97,0,131,1,1,1,1
</data>
 </layer>
 <layer id="7" name="Buildings1" width="12" height="12">
  <data encoding="csv">
0,0,0,0,0,0,0,0,0,0,0,0,
0,0,0,0,0,0,0,0,0,0,0,0,
0,0,0,0,0,0,0,0,0,0,0,0,
0,0,0,0,0,0,0,0,0,0,0,0,
0,0,0,0,0,0,0,0,0,0,0,0,
0,0,0,0,0,0,0,0,0,0,0,0,
0,0,0,0,0,0,0,0,0,0,0,0,
0,0,0,0,0,0,0,0,0,0,0,0,
0,0,0,0,0,0,0,0,0,0,0,0,
0,0,0,0,0,0,0,0,0,0,0,0,
0,0,0,0,0,0,0,0,0,0,0,0,
0,0,0,0,0,0,0,0,0,0,0,0
</data>
 </layer>
 <layer id="3" name="Front" width="12" height="12">
  <data encoding="csv">
0,0,0,0,0,0,0,0,0,0,0,0,
0,0,0,0,0,0,0,0,0,0,0,0,
0,0,0,0,0,0,0,0,0,0,0,0,
0,0,0,0,0,0,0,0,0,0,0,0,
0,0,0,0,0,0,0,0,0,0,0,0,
0,0,0,0,0,0,0,0,0,0,0,0,
0,0,0,0,0,0,0,0,0,0,0,0,
0,0,0,0,0,0,0,0,0,0,0,0,
0,0,0,0,0,0,0,0,0,0,0,0,
0,0,0,0,0,0,0,0,0,0,0,0,
0,162,166,166,166,163,0,164,166,166,167,0,
0,0,0,0,0,0,166,0,0,0,0,0
</data>
 </layer>
 <objectgroup id="4" name="Back"/>
 <objectgroup id="5" name="Buildings"/>
 <objectgroup id="8" name="Buildings1"/>
 <objectgroup id="6" name="Front"/>
</map>
