<?xml version="1.0" encoding="UTF-8"?>
<map version="1.10" tiledversion="1.11.2" orientation="orthogonal" renderorder="right-down" compressionlevel="0" width="30" height="22" tilewidth="16" tileheight="16" infinite="0" nextlayerid="21" nextobjectid="14">
 <tileset firstgid="1" name="z_History_Katy_Hogwarts" tilewidth="16" tileheight="16" tilecount="240" columns="12">
  <image source="z_History_Katy_Hogwarts.png" width="192" height="320"/>
 </tileset>
 <tileset firstgid="241" name="z_ArithmancyCharmsDADA_ICEC_Hogwarts" tilewidth="16" tileheight="16" tilecount="814" columns="22">
  <image source="z_ArithmancyCharmsDADA_ICEC_Hogwarts.png" width="352" height="592"/>
 </tileset>
 <tileset firstgid="1055" name="z_Potions_Katy_Hogwarts" tilewidth="16" tileheight="16" tilecount="1184" columns="32">
  <image source="z_Potions_Katy_Hogwarts.png" width="512" height="592"/>
 </tileset>
 <tileset firstgid="2239" name="paths" tilewidth="16" tileheight="16" tilecount="64" columns="4">
  <image source="paths.png" width="64" height="256"/>
 </tileset>
 <tileset firstgid="2303" name="z_Library_HitMe_Hogwarts" tilewidth="16" tileheight="16" tilecount="924" columns="21">
  <image source="z_Library_HitMe_Hogwarts.png" width="336" height="704"/>
 </tileset>
 <tileset firstgid="3227" name="z_GrandStaircase_HitMe_Hogwarts" tilewidth="16" tileheight="16" tilecount="420" columns="21">
  <image source="z_GrandStaircase_HitMe_Hogwarts.png" width="336" height="320"/>
 </tileset>
 <tileset firstgid="3647" name="z_HogsmeadeInterior_Hxoni_Hogwarts" tilewidth="16" tileheight="16" tilecount="874" columns="23">
  <image source="z_HogsmeadeInterior_Hxoni_Hogwarts.png" width="368" height="608"/>
  <tile id="516">
   <animation>
    <frame tileid="516" duration="250"/>
    <frame tileid="541" duration="250"/>
    <frame tileid="516" duration="250"/>
    <frame tileid="542" duration="250"/>
   </animation>
  </tile>
 </tileset>
 <tileset firstgid="4521" name="z_HeadmistressOffice_Hxoni_Hogwarts" tilewidth="16" tileheight="16" tilecount="312" columns="12">
  <image source="z_HeadmistressOffice_Hxoni_Hogwarts.png" width="192" height="416"/>
  <tile id="213">
   <animation>
    <frame tileid="213" duration="250"/>
    <frame tileid="213" duration="250"/>
    <frame tileid="213" duration="250"/>
    <frame tileid="213" duration="250"/>
    <frame tileid="213" duration="250"/>
    <frame tileid="213" duration="250"/>
    <frame tileid="213" duration="250"/>
    <frame tileid="213" duration="250"/>
    <frame tileid="213" duration="250"/>
    <frame tileid="213" duration="250"/>
    <frame tileid="226" duration="250"/>
    <frame tileid="226" duration="250"/>
    <frame tileid="226" duration="250"/>
    <frame tileid="203" duration="250"/>
    <frame tileid="215" duration="250"/>
    <frame tileid="227" duration="250"/>
    <frame tileid="203" duration="250"/>
    <frame tileid="215" duration="250"/>
    <frame tileid="227" duration="250"/>
    <frame tileid="203" duration="250"/>
    <frame tileid="215" duration="250"/>
    <frame tileid="227" duration="250"/>
    <frame tileid="203" duration="250"/>
    <frame tileid="215" duration="250"/>
    <frame tileid="227" duration="250"/>
    <frame tileid="203" duration="250"/>
    <frame tileid="215" duration="250"/>
    <frame tileid="227" duration="250"/>
    <frame tileid="226" duration="250"/>
    <frame tileid="226" duration="250"/>
    <frame tileid="213" duration="250"/>
    <frame tileid="213" duration="250"/>
    <frame tileid="213" duration="250"/>
    <frame tileid="213" duration="250"/>
    <frame tileid="213" duration="250"/>
    <frame tileid="213" duration="250"/>
    <frame tileid="213" duration="250"/>
    <frame tileid="213" duration="250"/>
    <frame tileid="213" duration="250"/>
    <frame tileid="213" duration="250"/>
    <frame tileid="213" duration="250"/>
    <frame tileid="213" duration="250"/>
    <frame tileid="213" duration="250"/>
    <frame tileid="213" duration="250"/>
    <frame tileid="213" duration="250"/>
    <frame tileid="213" duration="250"/>
    <frame tileid="213" duration="250"/>
    <frame tileid="213" duration="250"/>
    <frame tileid="213" duration="250"/>
    <frame tileid="213" duration="250"/>
    <frame tileid="213" duration="250"/>
    <frame tileid="213" duration="250"/>
    <frame tileid="213" duration="250"/>
    <frame tileid="213" duration="250"/>
    <frame tileid="213" duration="250"/>
    <frame tileid="213" duration="250"/>
    <frame tileid="213" duration="250"/>
    <frame tileid="213" duration="250"/>
    <frame tileid="213" duration="250"/>
    <frame tileid="213" duration="250"/>
    <frame tileid="213" duration="250"/>
    <frame tileid="213" duration="250"/>
    <frame tileid="213" duration="250"/>
    <frame tileid="213" duration="250"/>
    <frame tileid="213" duration="250"/>
    <frame tileid="213" duration="250"/>
    <frame tileid="213" duration="250"/>
   </animation>
  </tile>
 </tileset>
 <tileset firstgid="4833" name="z_GrandStaircase_Hxoni_Hogwarts" tilewidth="16" tileheight="16" tilecount="240" columns="12">
  <image source="z_GrandStaircase_Hxoni_Hogwarts.png" width="192" height="320"/>
 </tileset>
 <tileset firstgid="5073" name="z_FacultyTower_Hxoni_Hogwarts" tilewidth="16" tileheight="16" tilecount="437" columns="19">
  <image source="z_FacultyTower_Hxoni_Hogwarts.png" width="304" height="368"/>
  <tile id="361">
   <animation>
    <frame tileid="361" duration="100"/>
    <frame tileid="362" duration="100"/>
    <frame tileid="363" duration="100"/>
    <frame tileid="364" duration="100"/>
    <frame tileid="365" duration="100"/>
    <frame tileid="366" duration="100"/>
    <frame tileid="367" duration="100"/>
    <frame tileid="380" duration="100"/>
    <frame tileid="381" duration="100"/>
    <frame tileid="382" duration="100"/>
    <frame tileid="383" duration="100"/>
    <frame tileid="384" duration="100"/>
    <frame tileid="361" duration="100"/>
    <frame tileid="361" duration="100"/>
    <frame tileid="361" duration="100"/>
    <frame tileid="361" duration="100"/>
    <frame tileid="361" duration="100"/>
    <frame tileid="361" duration="100"/>
    <frame tileid="361" duration="100"/>
    <frame tileid="361" duration="100"/>
    <frame tileid="361" duration="100"/>
    <frame tileid="361" duration="100"/>
    <frame tileid="361" duration="100"/>
    <frame tileid="361" duration="100"/>
    <frame tileid="361" duration="100"/>
    <frame tileid="361" duration="100"/>
    <frame tileid="361" duration="100"/>
    <frame tileid="361" duration="100"/>
    <frame tileid="361" duration="100"/>
    <frame tileid="361" duration="100"/>
    <frame tileid="361" duration="100"/>
    <frame tileid="361" duration="100"/>
    <frame tileid="361" duration="100"/>
    <frame tileid="361" duration="100"/>
    <frame tileid="361" duration="100"/>
    <frame tileid="361" duration="100"/>
    <frame tileid="361" duration="100"/>
    <frame tileid="361" duration="100"/>
    <frame tileid="361" duration="100"/>
    <frame tileid="361" duration="100"/>
    <frame tileid="361" duration="100"/>
    <frame tileid="361" duration="100"/>
    <frame tileid="361" duration="100"/>
    <frame tileid="361" duration="100"/>
    <frame tileid="361" duration="100"/>
    <frame tileid="361" duration="100"/>
    <frame tileid="361" duration="100"/>
    <frame tileid="361" duration="100"/>
    <frame tileid="361" duration="100"/>
    <frame tileid="361" duration="100"/>
    <frame tileid="361" duration="100"/>
    <frame tileid="361" duration="100"/>
    <frame tileid="362" duration="100"/>
    <frame tileid="363" duration="100"/>
    <frame tileid="364" duration="100"/>
    <frame tileid="365" duration="100"/>
    <frame tileid="366" duration="100"/>
    <frame tileid="367" duration="100"/>
    <frame tileid="380" duration="100"/>
    <frame tileid="381" duration="100"/>
    <frame tileid="382" duration="100"/>
    <frame tileid="383" duration="100"/>
    <frame tileid="384" duration="100"/>
    <frame tileid="361" duration="100"/>
    <frame tileid="362" duration="100"/>
    <frame tileid="363" duration="100"/>
    <frame tileid="364" duration="100"/>
    <frame tileid="365" duration="100"/>
    <frame tileid="366" duration="100"/>
    <frame tileid="367" duration="100"/>
    <frame tileid="380" duration="100"/>
    <frame tileid="381" duration="100"/>
    <frame tileid="382" duration="100"/>
    <frame tileid="383" duration="100"/>
    <frame tileid="384" duration="100"/>
   </animation>
  </tile>
 </tileset>
 <tileset firstgid="5510" name="1" tilewidth="16" tileheight="16" tilecount="2176" columns="32">
  <image source="townInterior.png" width="512" height="1088"/>
 </tileset>
 <layer id="1" name="Back" width="30" height="22">
  <data encoding="csv">
0,0,0,0,0,0,0,0,0,0,0,0,0,0,0,0,0,0,0,0,0,0,0,0,0,0,0,0,0,0,
0,0,0,0,0,0,0,0,0,0,0,0,0,0,0,0,0,0,0,0,0,0,0,0,0,0,0,0,0,0,
0,0,0,0,0,0,0,0,0,0,0,0,0,0,0,0,0,0,0,0,0,0,0,0,0,0,0,0,0,0,
0,0,0,0,0,0,0,0,0,0,0,0,0,0,0,0,0,0,0,0,0,0,0,0,0,0,0,0,0,0,
0,0,0,0,0,0,0,0,0,0,0,0,0,0,0,0,0,0,0,0,0,0,0,2386,0,0,0,0,0,0,
0,0,0,2334,2335,2334,2335,2334,2335,2334,2335,2334,2334,2335,2334,2335,2147488504,2386,2344,2386,2344,2344,2386,2407,4856,2334,2335,2334,2335,0,
0,0,0,2355,2356,2355,2356,2355,2356,2355,2356,2355,2355,2356,2355,2356,2147488516,2407,2365,2407,2365,2365,2407,2386,4868,2355,2356,2355,2356,0,
0,0,0,2334,2335,2334,2335,2334,2335,2334,2335,2334,2334,2335,2334,2335,2334,2386,2344,2469,2470,2470,2344,2407,2335,2334,2335,2334,2335,0,
0,0,0,2355,2356,2355,2356,2355,2356,2355,2356,2355,2355,2356,2355,2356,2355,2407,2365,2490,2491,2491,2365,2386,2356,2355,2356,2355,2356,0,
0,0,0,2334,2335,2334,2335,2334,2335,2334,2335,2334,2334,2335,2334,2335,2334,2386,2334,2469,2470,2470,2335,2407,2335,2334,2335,2334,2335,0,
0,0,0,2355,2356,2355,2356,2355,2356,2355,2356,2355,2355,2356,2355,2356,2355,2407,2355,2490,2491,2491,2356,2386,2356,2355,2356,2355,2356,0,
0,0,0,2334,2335,2334,2335,2334,2335,2334,2335,2334,2334,2335,2334,2335,2147488491,2386,2334,2469,2470,2470,2335,2407,4843,2334,2335,2334,2335,0,
0,0,0,0,0,2355,2356,2355,2356,2355,2356,2355,2355,2356,2355,2356,2147488504,2407,2147488491,2490,2491,2491,4843,2386,4856,2355,2356,2355,2356,0,
0,0,0,0,0,0,2335,2334,2335,2334,2335,2334,2334,2335,2334,2335,2147488516,2386,2147488504,2469,2470,2470,4856,2407,4868,2334,2335,2334,2335,0,
0,0,0,0,0,0,2356,2355,2356,2355,2356,2355,2355,2356,2355,2356,2355,2407,2147488516,2490,2491,2491,4868,2386,2356,2355,2356,2355,2356,0,
0,0,0,0,0,0,2335,2334,2335,2334,2335,2334,2334,2335,2334,2335,2334,2386,2386,2469,2470,2470,2386,2407,2335,2334,2335,2334,2335,0,
0,0,0,0,0,0,2356,2355,2356,2355,2356,2355,2355,2356,2355,2356,2355,2407,2344,2490,2491,2491,2386,2386,2356,2355,2356,2355,2356,0,
0,0,0,0,0,2334,2335,2334,2335,2334,2335,2334,2334,2335,2334,2335,2334,2386,2365,2469,2470,2470,2335,2407,2335,2334,2335,2334,2335,0,
0,0,0,0,0,2356,2356,2355,2356,2355,2356,2355,2355,2356,2355,2356,2355,2407,2355,2490,2491,2491,2356,2386,2356,2355,2356,2355,2356,0,
0,0,0,0,0,0,0,0,0,0,0,0,2334,2335,2334,2335,2334,2386,2334,2469,2470,2470,2335,2407,2335,2334,2335,2334,2335,0,
0,0,0,0,0,0,0,0,0,0,0,0,2355,2356,2355,2356,2147488491,2407,2355,2490,2491,2491,2356,2386,4843,2355,2356,2355,2356,0,
0,0,0,0,0,0,0,0,0,0,0,0,2334,2335,2334,2335,2334,2335,2334,2469,2470,2470,2335,2407,2335,2334,2335,2334,2335,0
</data>
 </layer>
 <layer id="11" name="Back1" width="30" height="22">
  <data encoding="csv">
0,0,0,0,0,0,0,0,0,0,0,0,0,0,0,0,0,0,0,0,0,0,0,0,0,0,0,0,0,0,
0,0,0,0,0,0,0,0,0,0,0,0,0,0,0,3848,3848,0,0,0,3848,0,0,0,3848,3848,0,0,0,0,
0,0,0,0,0,0,0,0,0,0,0,0,0,0,0,3871,3871,0,0,0,3871,0,0,0,3871,3871,0,0,0,0,
0,0,0,0,0,0,0,0,0,0,0,0,0,3848,0,3848,3848,0,3848,0,3848,0,3848,0,3848,3848,0,3848,0,0,
0,0,0,0,0,0,0,0,0,0,0,0,0,0,0,0,0,0,0,0,0,0,0,0,0,0,0,0,0,0,
0,0,0,0,0,0,0,0,0,0,0,0,0,2684359052,536874807,536874807,3895,536874807,0,536874807,536874807,536874807,0,536874807,2147487543,2873,536874807,536875404,0,0,
0,0,0,0,0,0,0,0,0,0,0,0,0,3895,0,0,3895,1610616699,2147488007,3758100279,3758100279,3758100279,4359,0,2147487543,2894,0,2147487543,0,0,
0,0,0,0,3963,3963,3963,3963,3963,3963,3963,3963,0,3895,0,0,2147487543,1610616699,2147487543,4920,4921,4921,3895,3758100347,3895,0,0,2147487543,0,0,
0,0,0,0,0,0,0,0,0,0,0,0,0,3895,0,0,2147487543,1610616699,2147487543,1610616699,0,3758100347,3895,3758100347,3895,0,0,2147487543,0,0,
0,0,0,0,0,0,0,0,0,0,0,0,0,3895,0,0,2147487543,1610616699,2147487543,1610616699,0,3758100347,3895,3758100347,3895,0,0,2147487543,0,0,
0,0,0,0,0,0,0,0,0,0,0,0,0,3895,0,0,1610617229,1610616699,2147487543,1610616699,0,3758100347,3895,3758100347,3758100877,0,0,2147487543,0,0,
0,0,0,0,0,0,0,0,0,0,0,0,0,3895,0,0,3895,1610616699,1610617229,1610616699,0,3758100347,3758100877,3758100347,2147487543,0,0,2147487543,0,0,
0,0,0,0,0,0,0,0,0,0,0,0,0,3895,0,0,3895,1610616699,3895,1610616699,0,3758100347,2147487543,3758100347,2147487543,0,0,2147487543,0,0,
0,0,0,0,0,0,0,0,0,0,0,0,0,3895,0,0,3895,1610616699,3895,1610616699,0,3758100347,2147487543,3758100347,2147487543,0,0,2147487543,0,0,
0,0,0,0,0,0,0,0,0,0,0,0,0,3895,0,0,0,1610616699,3895,1610616699,0,3758100347,2147487543,3758100347,0,0,0,2147487543,0,0,
0,0,0,0,0,0,0,0,0,0,0,0,0,3895,0,0,2147487543,1610616699,0,1610616699,0,3758100347,0,3758100347,3895,0,0,2147487543,0,0,
0,0,0,0,0,0,3963,0,3963,3963,3963,3963,0,3895,0,0,2147487543,1610616699,2147487543,1610616699,0,3758100347,3895,3758100347,3895,0,0,2147487543,3963,0,
0,0,0,0,0,0,0,0,0,0,0,0,0,3895,0,0,0,1610616699,2147487543,1610616699,0,3758100347,3895,3758100347,3895,0,0,2147487543,0,0,
0,0,0,0,0,0,0,0,0,0,0,0,0,3895,0,0,2147487543,1610616699,2147487543,1610616699,0,3758100347,3895,3758100347,3895,0,0,2147487543,0,0,
0,0,0,0,0,0,0,0,0,0,0,0,0,3895,0,0,2147488140,1610616699,2147487543,1610616699,0,3758100347,3895,3758100347,4492,0,0,2147487543,0,0,
0,0,0,0,0,0,0,0,0,0,0,0,0,3895,0,0,3895,1610616699,2147487543,1610616699,0,3758100347,3895,3758100347,2147487543,0,0,2147487543,0,0,
0,0,0,0,0,0,0,0,0,0,0,0,0,0,0,0,0,0,0,0,4921,0,0,0,0,0,0,0,0,0
</data>
 </layer>
 <layer id="5" name="Buildings" width="30" height="22">
  <data encoding="csv">
0,0,0,0,0,0,0,0,0,0,0,0,2050,2048,2048,2048,2048,2048,2048,2048,2048,2048,2048,2048,2048,2048,2048,2048,2051,0,
0,0,0,0,0,0,0,0,0,0,0,0,2079,3848,3848,153,154,3848,3848,3848,0,3848,3848,3848,153,154,3848,3848,2081,0,
0,0,0,2050,2048,2048,2048,2048,2048,2048,2048,2051,2079,3871,3871,165,166,3871,3871,3871,0,3871,3871,3871,165,166,3871,3871,2081,0,
0,0,0,2079,3848,3848,3848,3848,3848,3848,3848,2081,2079,3895,3848,177,178,3848,2147487543,3848,0,3848,3895,3848,177,178,3848,2147487543,2081,0,
0,0,0,2079,3871,3871,3871,3871,3871,3871,3871,2081,2079,3552,3553,3552,3553,3552,3553,3552,3553,3552,3552,3552,3552,3552,3552,3553,2081,0,
0,0,0,2079,3848,3848,3848,3848,3848,3848,3848,2081,2079,3634,4662,1003,1004,1005,3634,741,742,743,3634,999,1000,1001,1006,3634,2081,0,
0,0,0,2079,3552,3552,3552,3552,3552,3552,3553,2081,2079,0,0,0,0,0,0,0,0,0,0,0,0,0,0,4262,2081,0,
0,0,0,2079,3634,5429,5430,3634,4670,4671,3634,2081,2079,0,0,0,722,0,0,0,0,0,0,0,2147484370,0,0,0,2081,0,
0,0,0,2079,0,0,0,0,0,0,0,2081,2079,0,0,0,744,0,722,0,0,0,2147484370,0,2147484392,0,0,0,2081,0,
0,0,0,2079,0,0,3091,3092,3093,0,0,2081,2079,0,723,0,722,0,744,0,0,0,2147484392,0,2147484370,0,0,0,2081,0,
0,0,0,2079,0,0,3112,3113,3114,0,0,2081,2079,0,723,0,744,0,722,0,0,0,2147484370,0,2147484392,0,0,0,2081,0,
0,0,0,2147485730,0,0,0,0,0,0,0,2082,2079,0,723,0,0,0,744,0,0,0,2147484392,0,0,0,0,0,2081,0,
0,0,0,1055,1055,2050,2084,0,2083,2048,2048,2048,2084,0,723,0,0,0,0,0,0,0,0,0,0,0,0,0,2081,0,
0,0,0,0,0,2079,3848,0,3848,3848,3848,3848,3848,0,723,0,0,0,0,0,0,0,0,0,0,0,0,0,2081,0,
0,0,0,0,0,2079,3848,0,3848,3848,3848,3848,3848,0,723,0,536875405,0,0,0,0,0,0,0,2684359053,0,0,0,2081,0,
0,0,0,0,0,2079,3552,5630,3552,3552,3552,3552,3552,0,723,0,700,0,536875405,0,0,0,2684359053,0,2147484348,0,0,0,2081,0,
0,0,0,0,0,2079,0,0,0,4238,2992,2993,2994,0,722,0,722,0,700,0,0,0,2147484348,0,2147484370,0,0,0,2081,0,
0,0,0,0,0,2147485730,0,0,0,0,0,0,0,0,744,0,744,0,722,0,0,0,2147484370,0,2147484392,0,0,0,2081,0,
0,0,0,0,0,1055,1055,1055,1055,1055,1055,1055,2079,0,4213,0,722,0,744,0,0,0,2147484392,0,2147484370,0,0,0,2081,0,
0,0,0,0,0,0,0,0,0,0,0,0,2079,0,0,0,744,0,722,0,0,0,2147484370,0,2147484392,0,0,0,2081,0,
0,0,0,0,0,0,0,0,0,0,0,0,2147485730,0,0,0,0,0,744,0,0,0,2147484392,0,0,0,4251,4252,2082,0,
0,0,0,0,0,0,0,0,0,0,0,0,1055,1055,1055,1055,1055,1055,1055,2079,0,2081,1055,1055,1055,1055,1055,1055,1055,0
</data>
 </layer>
 <layer id="13" name="Buildings1" width="30" height="22">
  <data encoding="csv">
0,0,0,0,0,0,0,0,0,0,0,0,0,0,0,0,0,0,3593,3594,3595,3596,3597,0,0,0,0,0,0,0,
0,0,0,0,0,0,0,0,0,0,0,0,0,3894,0,3894,2147487542,0,2147487542,964,965,966,3894,0,3894,2147487542,0,2147487542,0,0,
0,0,0,0,0,0,0,0,0,0,0,0,0,3895,0,3895,2147487543,0,2147487543,986,987,988,3895,0,3895,2147487543,0,2147487543,0,0,
0,0,0,0,0,153,154,0,153,154,0,0,0,3578,3578,3895,2147487543,3578,3578,1008,1009,1010,3578,3578,3895,2147487543,3578,3578,0,0,
0,0,0,0,0,165,166,0,165,166,0,0,0,3613,0,0,0,0,3613,719,720,721,3613,977,978,979,0,3613,0,0,
0,0,0,0,3578,177,178,3578,177,178,3578,0,0,0,0,0,0,1610616699,0,0,0,0,0,0,4260,0,1002,1007,0,0,
0,0,0,0,0,0,0,0,0,0,0,0,0,0,0,0,0,0,0,0,0,0,0,3758100347,2893,0,0,0,0,0,
0,0,0,0,0,0,0,0,0,0,0,0,0,0,0,0,0,0,0,0,0,0,0,0,2147484945,0,0,0,0,0,
0,0,0,0,0,0,0,0,0,0,0,0,0,0,0,0,700,0,0,0,0,0,5434,0,2147484348,0,0,0,0,0,
0,0,0,0,0,0,0,0,0,0,0,0,0,0,0,0,0,0,700,0,0,0,2147484348,0,0,0,0,0,0,0,
0,0,0,0,0,0,0,0,0,0,0,0,0,0,0,0,0,0,0,0,0,0,0,0,0,0,0,0,0,0,
0,0,0,0,0,0,0,0,0,0,0,0,0,0,0,0,0,0,0,0,0,0,0,0,0,0,0,0,0,0,
0,0,0,0,0,0,0,0,0,0,0,0,0,0,0,0,0,0,0,0,0,0,0,0,0,0,0,0,0,0,
0,0,0,0,0,0,2147487542,0,3894,0,0,0,2147487542,0,0,0,0,0,0,0,0,0,0,0,0,0,0,0,0,0,
0,0,0,0,0,0,2147487543,0,3895,3578,3578,3578,2147487543,0,0,0,0,0,0,0,0,0,0,0,0,0,0,0,0,0,
0,0,0,0,0,0,3559,0,0,0,2971,0,3559,0,1540,0,0,0,0,0,0,0,0,0,0,0,0,0,0,0,
0,0,0,0,0,0,0,0,0,0,0,0,0,0,0,0,2147484878,0,0,0,0,0,0,0,0,0,0,0,0,0,
0,0,0,0,0,0,0,0,0,0,0,0,0,0,4261,0,700,0,0,0,0,0,5434,0,2147484348,0,0,0,0,0,
0,0,0,0,0,0,0,0,0,0,0,0,0,0,0,0,0,0,700,0,0,0,2147484348,0,0,0,0,0,0,0,
0,0,0,0,0,0,0,0,0,0,0,0,0,0,0,0,0,0,0,0,0,0,0,0,0,0,0,0,0,0,
0,0,0,0,0,0,0,0,0,0,0,0,0,0,0,0,0,0,0,0,0,0,0,0,0,0,0,0,0,0,
0,0,0,0,0,0,0,0,0,0,0,0,0,0,0,0,0,0,0,0,0,0,0,0,0,0,0,0,0,0
</data>
 </layer>
 <layer id="15" name="Buildings2" width="30" height="22">
  <data encoding="csv">
0,0,0,0,0,0,0,0,0,0,0,0,0,3550,0,0,0,0,0,0,0,0,0,0,0,0,0,3550,0,0,
0,0,0,0,0,0,0,0,0,0,0,0,0,3963,3963,3963,3963,3963,3963,3963,3963,3963,3963,3963,3963,3963,3963,3963,0,0,
0,0,0,0,3593,3594,3596,3597,3594,3596,3597,0,0,3592,0,0,0,0,3592,0,0,0,3592,0,0,0,0,3592,0,0,
0,0,0,0,3963,3615,3617,3963,3615,3617,3963,0,0,3592,0,3578,3578,0,3592,3578,3578,3578,3592,0,3578,3578,0,3592,0,0,
0,0,0,0,3592,0,0,3592,0,0,3592,0,0,0,0,0,0,0,0,4366,4255,0,0,0,4237,0,0,0,0,0,
0,0,0,0,3592,5391,5392,3592,3578,3578,3592,0,0,0,0,0,0,4262,0,0,0,0,0,0,0,0,0,4239,0,0,
0,0,0,0,3613,5410,5411,3613,0,0,3613,0,0,0,0,0,0,0,0,0,0,0,0,0,0,0,0,0,0,0,
0,0,0,0,0,0,0,0,0,0,0,0,0,0,0,0,2147487885,0,0,0,0,0,0,0,0,0,0,0,0,0,
0,0,0,0,0,0,0,0,0,0,0,0,0,0,0,0,2147487908,0,0,0,0,0,0,0,4211,0,0,0,0,0,
0,0,0,0,0,0,0,0,0,0,0,0,0,0,0,0,0,0,2147487862,0,0,0,0,0,0,0,0,0,0,0,
0,0,0,0,0,0,0,0,0,0,0,0,0,0,0,0,0,0,0,0,0,0,0,0,0,0,0,0,0,0,
0,0,0,0,0,0,0,0,0,0,0,0,0,0,0,0,0,0,0,0,0,0,0,0,0,0,0,0,0,0,
0,0,0,0,0,0,0,0,0,0,0,0,0,0,0,0,0,0,0,0,0,0,0,0,0,0,0,0,0,0,
0,0,0,0,0,0,3559,0,3558,3963,3963,3963,3963,0,0,0,0,0,0,0,0,0,0,0,0,0,0,0,0,0,
0,0,0,0,0,0,3580,0,3579,0,0,0,3580,0,0,0,0,0,0,0,0,0,0,0,0,0,0,0,0,0,
0,0,0,0,0,0,0,0,0,4215,2971,2972,2973,0,0,0,0,0,0,0,0,0,0,0,0,0,0,0,0,0,
0,0,0,0,0,0,0,0,0,0,0,0,0,0,0,0,0,0,0,0,0,0,0,0,4261,0,0,0,0,0,
0,0,0,0,0,0,0,0,0,0,0,0,0,0,0,0,0,0,0,0,0,0,4820,0,0,0,0,0,0,0,
0,0,0,0,0,0,0,0,0,0,0,0,0,0,0,0,0,0,2147487894,0,0,0,0,0,0,0,0,0,0,0,
0,0,0,0,0,0,0,0,0,0,0,0,0,0,0,0,0,0,0,0,0,0,0,0,0,0,0,0,0,0,
0,0,0,0,0,0,0,0,0,0,0,0,0,0,0,0,0,0,0,0,0,0,0,0,0,0,0,0,0,0,
0,0,0,0,0,0,0,0,0,0,0,0,0,0,0,0,0,0,0,0,0,0,0,0,0,0,0,0,0,0
</data>
 </layer>
 <layer id="17" name="Paths" width="30" height="22" visible="0">
  <data encoding="csv">
0,0,0,0,0,0,0,0,0,0,0,0,0,0,0,0,0,0,0,0,0,0,0,0,0,0,0,0,0,0,
0,0,0,0,0,0,0,0,0,0,0,0,0,0,0,0,0,0,0,0,0,0,0,0,0,0,0,0,0,0,
0,0,0,0,0,0,0,0,0,0,0,0,0,0,0,0,0,0,0,0,0,0,0,0,0,0,0,0,0,0,
0,0,0,0,0,0,0,0,0,0,0,0,0,0,0,0,0,0,0,0,0,0,0,0,0,0,0,0,0,0,
0,0,0,0,0,0,0,0,0,0,0,0,0,0,0,0,0,0,0,2247,0,0,0,0,0,0,0,0,0,0,
0,0,0,0,0,0,0,0,0,0,0,0,0,0,0,0,0,0,0,0,0,0,0,0,0,0,0,0,0,0,
0,0,0,0,0,0,0,0,0,0,0,0,0,2247,0,0,0,0,0,0,0,0,0,0,0,0,0,2247,0,0,
0,0,0,0,0,0,0,0,0,0,0,0,0,0,0,0,0,0,0,0,0,0,0,0,0,0,0,0,0,0,
0,0,0,0,0,0,0,0,0,0,0,0,0,2247,0,0,0,0,0,0,0,0,0,0,0,0,0,2247,0,0,
0,0,0,0,0,0,0,0,0,0,0,0,0,0,0,0,0,0,0,0,0,0,0,0,0,0,0,0,0,0,
0,0,0,0,0,0,0,0,0,0,0,0,0,0,0,0,0,0,0,0,0,0,0,0,0,0,0,0,0,0,
0,0,0,0,0,0,0,0,0,0,0,0,0,0,0,0,0,0,0,0,0,0,0,0,0,0,0,0,0,0,
0,0,0,0,0,0,0,0,0,0,0,0,0,2247,0,0,0,0,0,0,0,0,0,0,0,0,0,2247,0,0,
0,0,0,0,0,0,0,0,0,0,0,0,0,0,0,0,0,0,0,0,0,0,0,0,0,0,0,0,0,0,
0,0,0,0,0,0,0,0,0,0,0,0,0,2247,0,0,0,0,0,0,0,0,0,0,0,0,0,2247,0,0,
0,0,0,0,0,0,2247,0,0,0,0,0,0,0,0,0,0,0,0,0,0,0,0,0,0,0,0,0,0,0,
0,0,0,0,0,0,0,0,0,0,0,0,0,0,0,0,0,0,0,0,0,0,0,0,0,0,0,0,0,0,
0,0,0,0,0,0,2247,0,0,0,0,0,0,0,0,0,0,0,0,0,0,0,0,0,0,0,0,0,0,0,
0,0,0,0,0,0,0,0,0,0,0,0,0,2247,0,0,0,0,0,0,0,0,0,0,0,0,0,2247,0,0,
0,0,0,0,0,0,0,0,0,0,0,0,0,0,0,0,0,0,0,0,0,0,0,0,0,0,0,0,0,0,
0,0,0,0,0,0,0,0,0,0,0,0,0,2247,0,0,0,0,0,0,0,0,0,0,0,0,0,2247,0,0,
0,0,0,0,0,0,0,0,0,0,0,0,0,0,0,0,0,0,0,0,0,0,0,0,0,0,0,0,0,0
</data>
 </layer>
 <layer id="9" name="Front" width="30" height="22">
  <data encoding="csv">
0,0,0,0,0,0,0,0,0,0,0,0,0,0,0,0,0,0,0,0,0,0,0,0,0,0,0,0,0,0,
0,0,0,0,0,0,0,0,0,0,0,0,0,3571,0,0,0,0,3614,3615,3616,3617,3618,0,0,0,0,3571,0,0,
0,0,0,0,0,0,0,0,0,0,0,0,0,0,0,0,0,0,0,0,0,0,0,0,0,0,0,0,0,0,
0,0,0,0,3614,0,0,3619,0,0,3618,0,0,0,0,959,960,961,0,4163,0,0,0,0,0,0,962,963,0,0,
0,0,0,0,0,0,0,0,0,0,0,0,0,0,4650,981,982,983,0,0,0,0,0,0,0,0,984,985,0,0,
0,0,0,0,0,0,0,0,4646,4647,0,0,0,0,0,0,0,0,0,0,0,0,0,0,0,0,0,0,0,0,
0,0,0,0,0,0,0,0,4658,4659,0,0,0,0,0,0,700,0,0,0,0,0,0,0,2147484348,0,0,0,0,0,
0,0,0,0,0,0,0,0,0,0,0,0,0,0,0,0,0,0,700,0,0,0,2147484348,0,0,0,0,0,0,0,
0,0,0,0,0,0,3070,3071,3072,0,0,0,0,0,700,0,0,0,0,0,0,0,0,0,0,0,0,0,0,0,
0,0,0,0,0,0,0,0,0,0,0,0,0,0,0,0,0,0,0,0,0,0,0,0,0,0,0,0,0,0,
0,0,0,0,0,0,0,0,0,0,0,0,0,0,0,0,0,0,0,0,0,0,0,0,0,0,0,0,0,0,
0,0,0,0,2113,2113,2052,0,2053,2113,2113,0,0,0,0,0,0,0,0,0,0,0,0,0,0,0,0,0,0,0,
0,0,0,0,0,0,0,0,0,0,0,0,0,0,0,0,0,0,0,0,0,0,0,0,0,0,0,0,0,0,
0,0,0,0,0,0,3963,5566,3963,0,0,0,3559,0,0,0,0,0,0,0,0,0,0,0,0,0,0,0,0,0,
0,0,0,0,0,0,0,5598,0,0,0,0,0,0,0,0,0,0,0,0,0,0,0,0,0,0,0,0,0,0,
0,0,0,0,0,0,0,0,0,0,0,0,0,0,0,0,0,0,0,0,0,0,0,0,0,0,0,0,0,0,
0,0,0,0,0,0,0,0,0,0,0,0,0,0,0,0,0,0,0,0,0,0,0,0,0,0,0,0,0,0,
0,0,0,0,0,0,2113,2113,2113,2113,2113,2113,2052,0,0,0,0,0,0,0,0,0,0,0,0,0,0,0,0,0,
0,0,0,0,0,0,0,0,0,0,0,0,0,0,0,0,0,0,0,0,0,0,0,0,0,0,0,0,0,0,
0,0,0,0,0,0,0,0,0,0,0,0,0,0,0,0,0,0,0,0,0,0,0,0,0,0,4228,4229,0,0,
0,0,0,0,0,0,0,0,0,0,0,0,0,2113,2113,2113,2113,2113,2113,2052,0,2053,2113,2113,2113,2113,2113,2113,0,0,
0,0,0,0,0,0,0,0,0,0,0,0,0,0,0,0,0,0,0,0,0,0,0,0,0,0,0,0,0,0
</data>
 </layer>
 <layer id="19" name="Front1" width="30" height="22">
  <data encoding="csv">
0,0,0,0,0,0,0,0,0,0,0,0,0,0,0,0,0,0,0,0,0,0,0,0,0,0,0,0,0,0,
0,0,0,0,0,0,0,0,0,0,0,0,0,0,0,0,0,0,0,0,0,0,0,0,0,0,0,0,0,0,
0,0,0,0,0,0,0,0,0,0,0,0,0,0,0,0,0,0,0,0,0,0,0,0,0,0,0,0,0,0,
0,0,0,0,0,0,0,0,0,0,0,0,0,0,0,0,0,0,0,0,0,0,0,0,0,0,0,0,0,0,
0,0,0,0,0,0,0,0,0,0,0,0,0,0,0,0,0,4239,0,0,0,0,0,0,0,0,0,0,0,0,
0,0,0,0,0,0,0,0,0,0,0,0,0,0,0,0,0,0,0,0,0,0,0,0,0,0,0,0,0,0,
0,0,0,0,0,0,0,0,0,0,0,0,0,0,0,0,0,0,0,0,0,0,0,0,0,0,0,0,0,0,
0,0,0,0,0,0,0,0,0,0,0,0,0,0,0,0,0,0,0,0,0,0,0,0,0,0,0,0,0,0,
0,0,0,0,0,0,0,0,0,0,0,0,0,0,0,0,0,0,0,0,0,0,0,0,0,0,0,0,0,0,
0,0,0,0,0,0,0,0,0,0,0,0,0,0,0,0,0,0,0,0,0,0,0,0,0,0,0,0,0,0,
0,0,0,0,0,0,0,0,0,0,0,0,0,0,0,0,0,0,0,0,0,0,0,0,0,0,0,0,0,0,
0,0,0,0,0,0,0,0,0,0,0,0,0,0,0,0,0,0,0,0,0,0,0,0,0,0,0,0,0,0,
0,0,0,0,0,0,0,0,0,0,0,0,0,0,0,0,0,0,0,0,0,0,0,0,0,0,0,0,0,0,
0,0,0,0,0,0,0,0,0,0,4734,4271,4272,0,0,0,0,0,0,0,0,0,0,0,0,0,0,0,0,0,
0,0,0,0,0,0,0,0,0,0,4746,4294,4295,0,0,0,0,0,0,0,0,0,0,0,0,0,0,0,0,0,
0,0,0,0,0,0,0,0,0,0,0,0,0,0,0,0,0,0,0,0,0,0,0,0,0,0,0,0,0,0,
0,0,0,0,0,0,0,0,0,0,0,0,0,0,0,0,0,0,0,0,0,0,0,0,0,0,0,0,0,0,
0,0,0,0,0,0,0,0,0,0,0,0,0,0,0,0,0,0,0,0,0,0,0,0,0,0,0,0,0,0,
0,0,0,0,0,0,0,0,0,0,0,0,0,0,0,0,0,0,0,0,0,0,0,0,0,0,0,0,0,0,
0,0,0,0,0,0,0,0,0,0,0,0,0,0,0,0,0,0,0,0,0,0,0,0,0,0,0,0,0,0,
0,0,0,0,0,0,0,0,0,0,0,0,0,0,0,0,0,0,0,0,0,0,0,0,0,0,0,0,0,0,
0,0,0,0,0,0,0,0,0,0,0,0,0,0,0,0,0,0,0,0,0,0,0,0,0,0,0,0,0,0
</data>
 </layer>
 <layer id="20" name="AlwaysFront" width="30" height="22">
  <data encoding="csv">
0,0,0,0,0,0,0,0,0,0,0,0,0,0,0,0,0,0,0,0,0,0,0,0,0,0,0,0,0,0,
0,0,0,0,0,0,0,0,0,0,0,0,0,0,0,0,0,0,0,0,0,0,0,0,0,0,0,0,0,0,
0,0,0,0,0,0,0,0,0,0,0,0,0,0,0,0,0,0,0,0,0,0,0,0,0,0,0,0,0,0,
0,0,0,0,0,0,0,0,0,0,0,0,0,0,0,0,0,0,0,0,0,0,0,0,0,0,0,0,0,0,
0,0,0,0,0,0,0,0,0,0,0,0,0,0,0,0,0,0,0,0,0,0,0,0,0,0,0,0,0,0,
0,0,0,0,0,0,0,0,0,0,0,0,0,0,0,0,0,0,0,0,0,0,0,0,0,0,0,0,0,0,
0,0,0,0,0,0,0,0,0,0,0,0,0,4206,0,0,0,0,0,0,0,0,0,0,0,0,0,2147487854,0,0,
0,0,0,0,0,0,0,0,0,0,0,0,0,0,0,0,0,0,0,0,0,0,0,0,0,0,0,0,0,0,
0,0,0,0,0,0,0,0,0,0,0,0,0,0,0,0,0,0,0,0,0,0,0,0,0,0,0,0,0,0,
0,0,0,0,0,0,0,0,0,0,0,0,0,0,0,0,0,0,0,0,0,0,0,0,0,0,0,0,0,0,
0,0,0,0,0,0,0,0,0,0,0,0,0,0,0,0,0,0,0,0,0,0,0,0,0,0,0,0,0,0,
0,0,0,0,0,0,0,0,0,0,0,0,0,0,0,0,0,0,0,0,0,0,0,0,0,0,0,0,0,0,
0,0,0,0,0,0,0,0,0,0,0,0,0,4206,0,0,0,0,0,0,0,0,0,0,0,0,0,2147487854,0,0,
0,0,0,0,0,0,0,0,0,0,0,0,0,0,0,0,0,0,0,0,0,0,0,0,0,0,0,0,0,0,
0,0,0,0,0,0,0,0,0,0,0,0,0,0,0,0,0,0,0,0,0,0,0,0,0,0,0,0,0,0,
0,0,0,0,0,0,0,0,0,0,0,0,0,0,0,0,0,0,0,0,0,0,0,0,0,0,0,0,0,0,
0,0,0,0,0,0,0,0,0,0,0,0,0,0,0,0,0,0,0,0,0,0,0,0,0,0,0,0,0,0,
0,0,0,0,0,0,0,0,0,0,0,0,0,0,0,0,0,0,0,0,0,0,0,0,0,0,0,0,0,0,
0,0,0,0,0,0,0,0,0,0,0,0,0,4206,0,0,0,0,0,0,0,0,0,0,0,0,0,2147487854,0,0,
0,0,0,0,0,0,0,0,0,0,0,0,0,0,0,0,0,0,0,0,0,0,0,0,0,0,0,0,0,0,
0,0,0,0,0,0,0,0,0,0,0,0,0,0,0,0,0,0,0,0,0,0,0,0,0,0,0,0,0,0,
0,0,0,0,0,0,0,0,0,0,0,0,0,0,0,0,0,0,0,0,0,0,0,0,0,0,0,0,0,0
</data>
 </layer>
 <objectgroup id="2" name="Back"/>
 <objectgroup id="12" name="Back1"/>
 <objectgroup id="6" name="Buildings" visible="0">
  <object id="11" name="TileData" x="112" y="240" width="16" height="16">
   <properties>
    <property name="Action" value="Door"/>
   </properties>
  </object>
 </objectgroup>
 <objectgroup id="14" name="Buildings1"/>
 <objectgroup id="16" name="Buildings2"/>
 <objectgroup id="18" name="Paths"/>
 <objectgroup id="10" name="Front"/>
</map>
