<?xml version="1.0" encoding="UTF-8"?>
<map version="1.10" tiledversion="1.11.2" orientation="orthogonal" renderorder="right-down" compressionlevel="0" width="25" height="28" tilewidth="16" tileheight="16" infinite="0" nextlayerid="22" nextobjectid="11">
 <tileset firstgid="1" name="Paths" tilewidth="16" tileheight="16" tilecount="64" columns="4">
  <image source="paths" width="64" height="256"/>
 </tileset>
 <tileset firstgid="65" name="untitled tile sheet" tilewidth="16" tileheight="16" tilecount="1975" columns="25">
  <image source="spring_outdoorsTileSheet.png" width="400" height="1264"/>
  <tile id="16">
   <properties>
    <property name="NPCBarrier" value="T"/>
    <property name="Passable" value="T"/>
   </properties>
  </tile>
  <tile id="150">
   <properties>
    <property name="Buildable" type="bool" value="true"/>
    <property name="Diggable" type="bool" value="true"/>
    <property name="Type" value="Grass"/>
   </properties>
   <animation>
    <frame tileid="150" duration="200"/>
    <frame tileid="420" duration="200"/>
    <frame tileid="421" duration="200"/>
    <frame tileid="422" duration="200"/>
    <frame tileid="423" duration="200"/>
    <frame tileid="150" duration="200"/>
    <frame tileid="150" duration="200"/>
    <frame tileid="150" duration="200"/>
    <frame tileid="150" duration="200"/>
    <frame tileid="150" duration="200"/>
    <frame tileid="150" duration="200"/>
    <frame tileid="150" duration="200"/>
    <frame tileid="150" duration="200"/>
    <frame tileid="150" duration="200"/>
    <frame tileid="150" duration="200"/>
   </animation>
  </tile>
  <tile id="151">
   <properties>
    <property name="Buildable" type="bool" value="true"/>
    <property name="Diggable" type="bool" value="true"/>
    <property name="Type" value="Grass"/>
   </properties>
   <animation>
    <frame tileid="151" duration="750"/>
    <frame tileid="151" duration="750"/>
    <frame tileid="152" duration="750"/>
    <frame tileid="152" duration="750"/>
   </animation>
  </tile>
  <tile id="152">
   <properties>
    <property name="Buildable" type="bool" value="true"/>
    <property name="Diggable" type="bool" value="true"/>
    <property name="Type" value="Grass"/>
   </properties>
  </tile>
  <tile id="153">
   <properties>
    <property name="Diggable" value="T"/>
   </properties>
  </tile>
  <tile id="156">
   <properties>
    <property name="Buildable" type="bool" value="true"/>
   </properties>
  </tile>
  <tile id="175">
   <properties>
    <property name="Buildable" value="T"/>
    <property name="Diggable" type="bool" value="true"/>
    <property name="Type" value="Grass"/>
   </properties>
  </tile>
  <tile id="176">
   <properties>
    <property name="Diggable" value="T"/>
   </properties>
  </tile>
  <tile id="177">
   <properties>
    <property name="Buildable" type="bool" value="true"/>
    <property name="Diggable" type="bool" value="true"/>
    <property name="NoSpawn" value="T"/>
    <property name="Type" value="Dirt"/>
   </properties>
  </tile>
  <tile id="178">
   <properties>
    <property name="Buildable" type="bool" value="true"/>
    <property name="Diggable" type="bool" value="true"/>
    <property name="Type" value="Dirt"/>
   </properties>
  </tile>
  <tile id="179">
   <properties>
    <property name="Buildable" type="bool" value="true"/>
    <property name="Diggable" type="bool" value="true"/>
    <property name="NoSpawn" value="T"/>
    <property name="Type" value="Grass"/>
   </properties>
  </tile>
  <tile id="180">
   <properties>
    <property name="Buildable" type="bool" value="true"/>
    <property name="Diggable" type="bool" value="true"/>
    <property name="NoSpawn" value="T"/>
    <property name="Type" value="Grass"/>
   </properties>
  </tile>
  <tile id="181">
   <properties>
    <property name="Buildable" type="bool" value="true"/>
    <property name="Diggable" value="T"/>
    <property name="NoSpawn" value="All"/>
    <property name="Type" value="Dirt"/>
   </properties>
  </tile>
  <tile id="182">
   <properties>
    <property name="Buildable" type="bool" value="true"/>
    <property name="Diggable" value="T"/>
    <property name="Type" value="Dirt"/>
   </properties>
  </tile>
  <tile id="195">
   <properties>
    <property name="Passable" value="T"/>
   </properties>
  </tile>
  <tile id="196">
   <properties>
    <property name="NPCBarrier" value="T"/>
   </properties>
  </tile>
  <tile id="200">
   <properties>
    <property name="Buildable" type="bool" value="true"/>
    <property name="Diggable" type="bool" value="true"/>
    <property name="NoSpawn" type="bool" value="true"/>
    <property name="Type" value="Grass"/>
   </properties>
  </tile>
  <tile id="201">
   <properties>
    <property name="Buildable" type="bool" value="true"/>
    <property name="Diggable" type="bool" value="true"/>
    <property name="NoSpawn" value="T"/>
    <property name="Type" value="Dirt"/>
   </properties>
  </tile>
  <tile id="202">
   <properties>
    <property name="Buildable" type="bool" value="true"/>
    <property name="Diggable" type="bool" value="true"/>
    <property name="NoSpawn" type="bool" value="true"/>
    <property name="Type" value="Dirt"/>
   </properties>
  </tile>
  <tile id="203">
   <properties>
    <property name="Buildable" type="bool" value="true"/>
    <property name="Diggable" type="bool" value="true"/>
    <property name="NoSpawn" value="t"/>
    <property name="Type" value="Grass"/>
   </properties>
  </tile>
  <tile id="204">
   <properties>
    <property name="Buildable" type="bool" value="true"/>
    <property name="Diggable" type="bool" value="true"/>
    <property name="Type" value="Grass"/>
   </properties>
  </tile>
  <tile id="205">
   <properties>
    <property name="Buildable" type="bool" value="true"/>
    <property name="Diggable" type="bool" value="true"/>
    <property name="NoSpawn" value="T"/>
    <property name="Type" value="Grass"/>
   </properties>
  </tile>
  <tile id="206">
   <properties>
    <property name="Diggable" value="T"/>
    <property name="Type" value="Dirt"/>
   </properties>
  </tile>
  <tile id="207">
   <properties>
    <property name="Diggable" value="T"/>
    <property name="Type" value="Dirt"/>
   </properties>
  </tile>
  <tile id="209">
   <properties>
    <property name="Water" value="T"/>
   </properties>
   <animation>
    <frame tileid="209" duration="1000"/>
    <frame tileid="1208" duration="1000"/>
   </animation>
  </tile>
  <tile id="211">
   <animation>
    <frame tileid="211" duration="1000"/>
    <frame tileid="1210" duration="1000"/>
   </animation>
  </tile>
  <tile id="217">
   <properties>
    <property name="NPCBarrier" value="T"/>
    <property name="NoFurniture" value="Total"/>
    <property name="NoSpawn" value="All"/>
    <property name="Type" value="Dirt"/>
   </properties>
  </tile>
  <tile id="225">
   <properties>
    <property name="Buildable" type="bool" value="true"/>
    <property name="Diggable" type="bool" value="true"/>
    <property name="NoSpawn" value="T"/>
    <property name="Type" value="Dirt"/>
   </properties>
  </tile>
  <tile id="226">
   <properties>
    <property name="Diggable" value="T"/>
    <property name="Type" value="Dirt"/>
   </properties>
  </tile>
  <tile id="227">
   <properties>
    <property name="Buildable" value="T"/>
    <property name="Diggable" value="T"/>
    <property name="NoSpawn" value="All"/>
    <property name="Type" value="Dirt"/>
   </properties>
  </tile>
  <tile id="228">
   <properties>
    <property name="Buildable" type="bool" value="true"/>
    <property name="Diggable" type="bool" value="true"/>
    <property name="NoSpawn" value="T"/>
    <property name="Type" value="Dirt"/>
   </properties>
  </tile>
  <tile id="229">
   <properties>
    <property name="Buildable" type="bool" value="true"/>
    <property name="Diggable" type="bool" value="true"/>
    <property name="Type" value="Grass"/>
   </properties>
  </tile>
  <tile id="230">
   <properties>
    <property name="Buildable" type="bool" value="true"/>
    <property name="Diggable" type="bool" value="true"/>
    <property name="Type" value="Grass"/>
   </properties>
  </tile>
  <tile id="231">
   <properties>
    <property name="Buildable" value="T"/>
    <property name="Diggable" value="T"/>
    <property name="Type" value="Dirt"/>
   </properties>
  </tile>
  <tile id="234">
   <properties>
    <property name="Water" value="T"/>
   </properties>
  </tile>
  <tile id="250">
   <properties>
    <property name="Buildable" type="bool" value="true"/>
    <property name="Diggable" type="bool" value="true"/>
    <property name="Type" value="Grass"/>
   </properties>
  </tile>
  <tile id="251">
   <properties>
    <property name="Buildable" type="bool" value="true"/>
    <property name="Diggable" type="bool" value="true"/>
    <property name="Type" value="Dirt"/>
   </properties>
  </tile>
  <tile id="252">
   <properties>
    <property name="Buildable" type="bool" value="true"/>
    <property name="Diggable" type="bool" value="true"/>
    <property name="Type" value="Dirt"/>
   </properties>
  </tile>
  <tile id="253">
   <properties>
    <property name="Buildable" type="bool" value="true"/>
    <property name="Diggable" type="bool" value="true"/>
    <property name="Type" value="Grass"/>
   </properties>
  </tile>
  <tile id="254">
   <properties>
    <property name="Buildable" type="bool" value="true"/>
    <property name="Diggable" type="bool" value="true"/>
    <property name="Type" value="Grass"/>
   </properties>
  </tile>
  <tile id="255">
   <properties>
    <property name="Buildable" type="bool" value="true"/>
    <property name="Diggable" type="bool" value="true"/>
   </properties>
  </tile>
  <tile id="256">
   <properties>
    <property name="Buildable" type="bool" value="true"/>
    <property name="Diggable" type="bool" value="true"/>
   </properties>
  </tile>
  <tile id="261">
   <properties>
    <property name="Buildable" type="bool" value="true"/>
    <property name="Diggable" type="bool" value="true"/>
   </properties>
  </tile>
  <tile id="275">
   <properties>
    <property name="Buildable" type="bool" value="true"/>
    <property name="Type" value="Grass"/>
   </properties>
  </tile>
  <tile id="276">
   <properties>
    <property name="Buildable" type="bool" value="true"/>
    <property name="Diggable" type="bool" value="true"/>
    <property name="Type" value="Grass"/>
   </properties>
  </tile>
  <tile id="277">
   <properties>
    <property name="Buildable" type="bool" value="true"/>
    <property name="Diggable" type="bool" value="true"/>
    <property name="Type" value="Grass"/>
   </properties>
  </tile>
  <tile id="278">
   <properties>
    <property name="Buildable" type="bool" value="true"/>
    <property name="Diggable" type="bool" value="true"/>
    <property name="Type" value="Grass"/>
   </properties>
  </tile>
  <tile id="279">
   <properties>
    <property name="Buildable" type="bool" value="true"/>
    <property name="Diggable" type="bool" value="true"/>
   </properties>
  </tile>
  <tile id="281">
   <properties>
    <property name="Buildable" type="bool" value="true"/>
    <property name="Diggable" type="bool" value="true"/>
    <property name="Type" value="Grass"/>
   </properties>
  </tile>
  <tile id="283">
   <animation>
    <frame tileid="283" duration="1000"/>
    <frame tileid="1312" duration="1000"/>
   </animation>
  </tile>
  <tile id="286">
   <properties>
    <property name="Buildable" type="bool" value="true"/>
    <property name="Diggable" type="bool" value="true"/>
   </properties>
  </tile>
  <tile id="288">
   <properties>
    <property name="Passable" value="T"/>
   </properties>
  </tile>
  <tile id="289">
   <properties>
    <property name="Passable" value="T"/>
   </properties>
  </tile>
  <tile id="300">
   <properties>
    <property name="Buildable" type="bool" value="true"/>
    <property name="Diggable" type="bool" value="true"/>
    <property name="Type" value="Grass"/>
   </properties>
  </tile>
  <tile id="301">
   <properties>
    <property name="Buildable" type="bool" value="true"/>
    <property name="Diggable" type="bool" value="true"/>
    <property name="Type" value="Grass"/>
   </properties>
  </tile>
  <tile id="302">
   <properties>
    <property name="Buildable" type="bool" value="true"/>
    <property name="Diggable" type="bool" value="true"/>
    <property name="Type" value="Grass"/>
   </properties>
  </tile>
  <tile id="303">
   <properties>
    <property name="Buildable" type="bool" value="true"/>
    <property name="Diggable" type="bool" value="true"/>
    <property name="Type" value="Grass"/>
   </properties>
  </tile>
  <tile id="304">
   <properties>
    <property name="Buildable" type="bool" value="true"/>
    <property name="Diggable" type="bool" value="true"/>
    <property name="Type" value="Grass"/>
   </properties>
  </tile>
  <tile id="305">
   <properties>
    <property name="Buildable" type="bool" value="true"/>
    <property name="Diggable" type="bool" value="true"/>
    <property name="Type" value="Grass"/>
   </properties>
  </tile>
  <tile id="306">
   <properties>
    <property name="Buildable" type="bool" value="true"/>
    <property name="Diggable" type="bool" value="true"/>
    <property name="Type" value="Grass"/>
   </properties>
  </tile>
  <tile id="311">
   <properties>
    <property name="Buildable" type="bool" value="true"/>
    <property name="Diggable" type="bool" value="true"/>
   </properties>
  </tile>
  <tile id="312">
   <properties>
    <property name="Passable" value="T"/>
   </properties>
  </tile>
  <tile id="313">
   <properties>
    <property name="Passable" value="T"/>
   </properties>
  </tile>
  <tile id="314">
   <properties>
    <property name="Passable" value="T"/>
   </properties>
  </tile>
  <tile id="325">
   <properties>
    <property name="Buildable" type="bool" value="true"/>
    <property name="Diggable" type="bool" value="true"/>
    <property name="NoSpawn" value="All"/>
    <property name="Type" value="Grass"/>
   </properties>
  </tile>
  <tile id="326">
   <properties>
    <property name="Buildable" type="bool" value="true"/>
    <property name="Diggable" type="bool" value="true"/>
    <property name="NoSpawn" value="All"/>
    <property name="Type" value="Grass"/>
   </properties>
  </tile>
  <tile id="327">
   <properties>
    <property name="Buildable" type="bool" value="true"/>
    <property name="Diggable" type="bool" value="true"/>
    <property name="NoSpawn" value="All"/>
    <property name="Type" value="Grass"/>
   </properties>
  </tile>
  <tile id="328">
   <properties>
    <property name="Buildable" type="bool" value="true"/>
    <property name="Diggable" type="bool" value="true"/>
    <property name="Type" value="Grass"/>
   </properties>
  </tile>
  <tile id="329">
   <properties>
    <property name="Buildable" type="bool" value="true"/>
    <property name="Diggable" type="bool" value="true"/>
    <property name="Type" value="Grass"/>
   </properties>
  </tile>
  <tile id="331">
   <properties>
    <property name="Buildable" type="bool" value="true"/>
    <property name="Diggable" type="bool" value="true"/>
    <property name="Type" value="Grass"/>
   </properties>
  </tile>
  <tile id="332">
   <properties>
    <property name="Buildable" type="bool" value="true"/>
    <property name="Diggable" type="bool" value="true"/>
   </properties>
  </tile>
  <tile id="333">
   <properties>
    <property name="Water" value="T"/>
   </properties>
   <animation>
    <frame tileid="333" duration="1000"/>
    <frame tileid="334" duration="1000"/>
    <frame tileid="335" duration="1000"/>
    <frame tileid="336" duration="1000"/>
   </animation>
  </tile>
  <tile id="334">
   <properties>
    <property name="Water" value="T"/>
   </properties>
  </tile>
  <tile id="335">
   <properties>
    <property name="Water" value="T"/>
   </properties>
  </tile>
  <tile id="336">
   <properties>
    <property name="Water" value="T"/>
   </properties>
  </tile>
  <tile id="337">
   <properties>
    <property name="Passable" value="T"/>
   </properties>
  </tile>
  <tile id="338">
   <properties>
    <property name="Passable" value="T"/>
   </properties>
  </tile>
  <tile id="339">
   <properties>
    <property name="Passable" value="T"/>
   </properties>
  </tile>
  <tile id="350">
   <properties>
    <property name="Buildable" type="bool" value="true"/>
    <property name="Diggable" type="bool" value="true"/>
    <property name="NoSpawn" value="All"/>
    <property name="Type" value="Grass"/>
   </properties>
  </tile>
  <tile id="351">
   <properties>
    <property name="Buildable" type="bool" value="true"/>
    <property name="Diggable" type="bool" value="true"/>
    <property name="Type" value="Grass"/>
   </properties>
  </tile>
  <tile id="352">
   <properties>
    <property name="Buildable" type="bool" value="true"/>
    <property name="Diggable" type="bool" value="true"/>
    <property name="Type" value="Grass"/>
   </properties>
  </tile>
  <tile id="353">
   <properties>
    <property name="Buildable" type="bool" value="true"/>
    <property name="Diggable" type="bool" value="true"/>
    <property name="Type" value="Grass"/>
   </properties>
  </tile>
  <tile id="354">
   <properties>
    <property name="Buildable" type="bool" value="true"/>
    <property name="Diggable" type="bool" value="true"/>
    <property name="Type" value="Grass"/>
   </properties>
  </tile>
  <tile id="355">
   <properties>
    <property name="Buildable" type="bool" value="true"/>
    <property name="Diggable" type="bool" value="true"/>
    <property name="Type" value="Grass"/>
   </properties>
  </tile>
  <tile id="356">
   <properties>
    <property name="Buildable" type="bool" value="true"/>
    <property name="Diggable" type="bool" value="true"/>
    <property name="Type" value="Grass"/>
   </properties>
  </tile>
  <tile id="357">
   <properties>
    <property name="Buildable" type="bool" value="true"/>
    <property name="Diggable" type="bool" value="true"/>
   </properties>
  </tile>
  <tile id="375">
   <properties>
    <property name="Buildable" type="bool" value="true"/>
    <property name="Diggable" type="bool" value="true"/>
    <property name="NoSpawn" value="All"/>
    <property name="Type" value="Grass"/>
   </properties>
  </tile>
  <tile id="376">
   <properties>
    <property name="Buildable" type="bool" value="true"/>
    <property name="Diggable" type="bool" value="true"/>
    <property name="NoSpawn" value="All"/>
    <property name="Type" value="Grass"/>
   </properties>
  </tile>
  <tile id="377">
   <properties>
    <property name="Buildable" type="bool" value="true"/>
    <property name="Diggable" type="bool" value="true"/>
    <property name="NoSpawn" value="All"/>
    <property name="Type" value="Grass"/>
   </properties>
  </tile>
  <tile id="378">
   <properties>
    <property name="Buildable" type="bool" value="true"/>
    <property name="Diggable" type="bool" value="true"/>
    <property name="Type" value="Grass"/>
   </properties>
  </tile>
  <tile id="379">
   <properties>
    <property name="Buildable" type="bool" value="true"/>
    <property name="Diggable" type="bool" value="true"/>
    <property name="Type" value="Grass"/>
   </properties>
  </tile>
  <tile id="380">
   <properties>
    <property name="Buildable" type="bool" value="true"/>
    <property name="Diggable" type="bool" value="true"/>
    <property name="Type" value="Grass"/>
   </properties>
  </tile>
  <tile id="381">
   <properties>
    <property name="Buildable" type="bool" value="true"/>
    <property name="Diggable" type="bool" value="true"/>
    <property name="Type" value="Grass"/>
   </properties>
  </tile>
  <tile id="382">
   <properties>
    <property name="Buildable" type="bool" value="true"/>
    <property name="Diggable" type="bool" value="true"/>
   </properties>
  </tile>
  <tile id="400">
   <properties>
    <property name="Buildable" type="bool" value="true"/>
    <property name="Diggable" type="bool" value="true"/>
   </properties>
  </tile>
  <tile id="401">
   <properties>
    <property name="Buildable" type="bool" value="true"/>
    <property name="Diggable" type="bool" value="true"/>
    <property name="Type" value="Grass"/>
   </properties>
  </tile>
  <tile id="402">
   <properties>
    <property name="Buildable" type="bool" value="true"/>
   </properties>
  </tile>
  <tile id="403">
   <properties>
    <property name="Buildable" type="bool" value="true"/>
    <property name="Diggable" type="bool" value="true"/>
    <property name="Type" value="Grass"/>
   </properties>
  </tile>
  <tile id="404">
   <properties>
    <property name="Buildable" type="bool" value="true"/>
    <property name="Diggable" type="bool" value="true"/>
    <property name="Type" value="Grass"/>
   </properties>
  </tile>
  <tile id="405">
   <properties>
    <property name="Buildable" type="bool" value="true"/>
    <property name="Diggable" type="bool" value="true"/>
    <property name="Type" value="Grass"/>
   </properties>
  </tile>
  <tile id="406">
   <properties>
    <property name="Buildable" type="bool" value="true"/>
    <property name="Diggable" type="bool" value="true"/>
    <property name="Type" value="Grass"/>
   </properties>
  </tile>
  <tile id="407">
   <properties>
    <property name="Buildable" type="bool" value="true"/>
    <property name="Diggable" type="bool" value="true"/>
   </properties>
  </tile>
  <tile id="412">
   <properties>
    <property name="NoSpawn" value="T"/>
   </properties>
  </tile>
  <tile id="415">
   <properties>
    <property name="NoSpawn" value="All"/>
   </properties>
  </tile>
  <tile id="420">
   <properties>
    <property name="Buildable" type="bool" value="true"/>
    <property name="Diggable" type="bool" value="true"/>
   </properties>
  </tile>
  <tile id="421">
   <properties>
    <property name="Buildable" type="bool" value="true"/>
    <property name="Diggable" type="bool" value="true"/>
   </properties>
  </tile>
  <tile id="422">
   <properties>
    <property name="Buildable" type="bool" value="true"/>
    <property name="Diggable" type="bool" value="true"/>
   </properties>
  </tile>
  <tile id="423">
   <properties>
    <property name="Buildable" type="bool" value="true"/>
    <property name="Diggable" type="bool" value="true"/>
   </properties>
  </tile>
  <tile id="436">
   <properties>
    <property name="Type" value="Wood"/>
   </properties>
  </tile>
  <tile id="456">
   <properties>
    <property name="Diggable" value="T"/>
    <property name="Type" value="Dirt"/>
   </properties>
  </tile>
  <tile id="460">
   <properties>
    <property name="NoSpawn" type="bool" value="true"/>
   </properties>
  </tile>
  <tile id="463">
   <properties>
    <property name="Diggable" value="T"/>
    <property name="Type" value="Dirt"/>
   </properties>
  </tile>
  <tile id="471">
   <properties>
    <property name="Diggable" value="T"/>
    <property name="Type" value="Dirt"/>
   </properties>
  </tile>
  <tile id="472">
   <properties>
    <property name="Diggable" value="T"/>
    <property name="Type" value="Dirt"/>
   </properties>
  </tile>
  <tile id="473">
   <properties>
    <property name="Diggable" value="T"/>
    <property name="Type" value="Dirt"/>
   </properties>
  </tile>
  <tile id="480">
   <properties>
    <property name="Diggable" value="T"/>
    <property name="Type" value="Dirt"/>
   </properties>
  </tile>
  <tile id="482">
   <properties>
    <property name="Diggable" value="T"/>
    <property name="Type" value="Dirt"/>
   </properties>
  </tile>
  <tile id="488">
   <properties>
    <property name="Diggable" value="T"/>
    <property name="Type" value="Dirt"/>
   </properties>
  </tile>
  <tile id="505">
   <properties>
    <property name="Diggable" value="T"/>
    <property name="Type" value="Dirt"/>
   </properties>
  </tile>
  <tile id="506">
   <properties>
    <property name="Diggable" value="T"/>
    <property name="Type" value="Dirt"/>
   </properties>
  </tile>
  <tile id="509">
   <properties>
    <property name="NPCBarrier" value="T"/>
    <property name="NoFurniture" value="Total"/>
    <property name="NoSpawn" value="T"/>
    <property name="Type" value="Dirt"/>
   </properties>
  </tile>
  <tile id="512">
   <properties>
    <property name="Buildable" type="bool" value="true"/>
   </properties>
  </tile>
  <tile id="513">
   <properties>
    <property name="Diggable" value="T"/>
    <property name="Type" value="Dirt"/>
   </properties>
  </tile>
  <tile id="530">
   <properties>
    <property name="Diggable" value="T"/>
    <property name="Type" value="Dirt"/>
   </properties>
  </tile>
  <tile id="531">
   <properties>
    <property name="Diggable" value="T"/>
    <property name="Type" value="Dirt"/>
   </properties>
  </tile>
  <tile id="532">
   <properties>
    <property name="Diggable" value="T"/>
    <property name="Type" value="Dirt"/>
   </properties>
  </tile>
  <tile id="534">
   <properties>
    <property name="NPCBarrier" value="T"/>
    <property name="NoFurniture" value="Total"/>
    <property name="NoSpawn" value="T"/>
    <property name="Type" value="Dirt"/>
   </properties>
  </tile>
  <tile id="536">
   <properties>
    <property name="Buildable" value="t"/>
   </properties>
  </tile>
  <tile id="537">
   <properties>
    <property name="Buildable" type="bool" value="true"/>
   </properties>
  </tile>
  <tile id="538">
   <properties>
    <property name="Buildable" value="T"/>
   </properties>
  </tile>
  <tile id="555">
   <properties>
    <property name="Diggable" value="T"/>
    <property name="Type" value="Dirt"/>
   </properties>
  </tile>
  <tile id="556">
   <properties>
    <property name="Diggable" value="T"/>
    <property name="NoFurniture" value="Total"/>
    <property name="NoSpawn" value="All"/>
    <property name="Type" value="Dirt"/>
   </properties>
  </tile>
  <tile id="557">
   <properties>
    <property name="Diggable" value="T"/>
    <property name="Type" value="Dirt"/>
   </properties>
  </tile>
  <tile id="558">
   <properties>
    <property name="Diggable" value="T"/>
    <property name="NoFurniture" value="Total"/>
    <property name="Type" value="Dirt"/>
   </properties>
  </tile>
  <tile id="560">
   <properties>
    <property name="Diggable" value="T"/>
    <property name="Type" value="Dirt"/>
   </properties>
  </tile>
  <tile id="562">
   <properties>
    <property name="Buildable" type="bool" value="true"/>
    <property name="NoSpawn" value="Tree"/>
   </properties>
  </tile>
  <tile id="563">
   <properties>
    <property name="Buildable" type="bool" value="true"/>
   </properties>
  </tile>
  <tile id="564">
   <properties>
    <property name="Diggable" value="T"/>
    <property name="Type" value="Dirt"/>
   </properties>
  </tile>
  <tile id="565">
   <properties>
    <property name="Buildable" type="bool" value="true"/>
   </properties>
  </tile>
  <tile id="580">
   <properties>
    <property name="Diggable" value="T"/>
    <property name="Type" value="Dirt"/>
   </properties>
  </tile>
  <tile id="581">
   <properties>
    <property name="Diggable" value="T"/>
    <property name="Type" value="Dirt"/>
   </properties>
  </tile>
  <tile id="582">
   <properties>
    <property name="Diggable" value="T"/>
    <property name="Type" value="Dirt"/>
   </properties>
  </tile>
  <tile id="583">
   <properties>
    <property name="Diggable" value="T"/>
    <property name="NoFurniture" value="Total"/>
    <property name="Type" value="Dirt"/>
   </properties>
  </tile>
  <tile id="585">
   <properties>
    <property name="Diggable" value="T"/>
    <property name="Type" value="Dirt"/>
   </properties>
  </tile>
  <tile id="586">
   <properties>
    <property name="Buildable" value="T"/>
   </properties>
  </tile>
  <tile id="587">
   <properties>
    <property name="Diggable" value="T"/>
    <property name="Type" value="Dirt"/>
   </properties>
  </tile>
  <tile id="588">
   <properties>
    <property name="Buildable" value="T"/>
    <property name="Type" value="Dirt"/>
   </properties>
  </tile>
  <tile id="589">
   <properties>
    <property name="Diggable" value="T"/>
    <property name="Type" value="Dirt"/>
   </properties>
  </tile>
  <tile id="598">
   <properties>
    <property name="Buildable" value="T"/>
    <property name="Diggable" value="T"/>
    <property name="NoSpawn" value="All"/>
    <property name="Type" value="Dirt"/>
   </properties>
  </tile>
  <tile id="599">
   <properties>
    <property name="Buildable" value="T"/>
    <property name="Diggable" value="T"/>
    <property name="NoSpawn" value="All"/>
    <property name="Type" value="Dirt"/>
   </properties>
  </tile>
  <tile id="606">
   <properties>
    <property name="Diggable" value="T"/>
    <property name="NoFurniture" value="Total"/>
    <property name="Type" value="Dirt"/>
   </properties>
  </tile>
  <tile id="607">
   <properties>
    <property name="Diggable" value="T"/>
    <property name="NoFurniture" value="Total"/>
    <property name="Type" value="Dirt"/>
   </properties>
  </tile>
  <tile id="608">
   <properties>
    <property name="Diggable" value="T"/>
    <property name="NoFurniture" value="Total"/>
    <property name="Type" value="Dirt"/>
   </properties>
  </tile>
  <tile id="610">
   <properties>
    <property name="Diggable" value="T"/>
    <property name="Type" value="Dirt"/>
   </properties>
  </tile>
  <tile id="611">
   <properties>
    <property name="Buildable" value="t"/>
   </properties>
  </tile>
  <tile id="612">
   <properties>
    <property name="Buildable" value="T"/>
    <property name="Type" value="Dirt"/>
   </properties>
  </tile>
  <tile id="613">
   <properties>
    <property name="Buildable" type="bool" value="true"/>
   </properties>
  </tile>
  <tile id="614">
   <properties>
    <property name="Diggable" value="T"/>
    <property name="Type" value="Dirt"/>
   </properties>
  </tile>
  <tile id="615">
   <properties>
    <property name="Buildable" value="T"/>
   </properties>
  </tile>
  <tile id="616">
   <properties>
    <property name="Buildable" type="bool" value="true"/>
    <property name="Type" value="Dirt"/>
   </properties>
  </tile>
  <tile id="618">
   <properties>
    <property name="Buildable" value="T"/>
    <property name="Type" value="Dirt"/>
   </properties>
  </tile>
  <tile id="623">
   <properties>
    <property name="Buildable" value="T"/>
    <property name="Diggable" value="T"/>
    <property name="NoSpawn" value="All"/>
    <property name="Type" value="Dirt"/>
   </properties>
  </tile>
  <tile id="630">
   <properties>
    <property name="Diggable" value="t"/>
    <property name="NoSpawn" value="All"/>
    <property name="Type" value="dirt"/>
   </properties>
  </tile>
  <tile id="631">
   <properties>
    <property name="Diggable" value="T"/>
    <property name="NoSpawn" value="All"/>
    <property name="Type" value="Dirt"/>
   </properties>
  </tile>
  <tile id="632">
   <properties>
    <property name="diggable" value="t"/>
    <property name="type" value="dirt"/>
   </properties>
  </tile>
  <tile id="635">
   <properties>
    <property name="Diggable" value="T"/>
    <property name="NoSpawn" value="All"/>
    <property name="Type" value="Dirt"/>
   </properties>
  </tile>
  <tile id="636">
   <properties>
    <property name="Diggable" value="T"/>
    <property name="NoSpawn" value="All"/>
    <property name="Type" value="Dirt"/>
   </properties>
  </tile>
  <tile id="637">
   <animation>
    <frame tileid="637" duration="250"/>
    <frame tileid="638" duration="250"/>
    <frame tileid="639" duration="250"/>
    <frame tileid="640" duration="250"/>
    <frame tileid="641" duration="250"/>
    <frame tileid="642" duration="250"/>
    <frame tileid="643" duration="250"/>
    <frame tileid="644" duration="250"/>
   </animation>
  </tile>
  <tile id="645">
   <properties>
    <property name="Buildable" type="bool" value="true"/>
   </properties>
  </tile>
  <tile id="654">
   <properties>
    <property name="Diggable" value="T"/>
    <property name="NoSpawn" value="T"/>
    <property name="Type" value="Dirt"/>
   </properties>
  </tile>
  <tile id="655">
   <properties>
    <property name="Diggable" value="T"/>
    <property name="NoSpawn" value="All"/>
    <property name="Type" value="Dirt"/>
   </properties>
  </tile>
  <tile id="657">
   <properties>
    <property name="Diggable" value="T"/>
    <property name="NoSpawn" value="All"/>
    <property name="Type" value="Dirt"/>
   </properties>
  </tile>
  <tile id="679">
   <properties>
    <property name="Diggable" value="T"/>
    <property name="NoSpawn" value="All"/>
    <property name="Type" value="Dirt"/>
   </properties>
  </tile>
  <tile id="680">
   <properties>
    <property name="Diggable" value="t"/>
    <property name="NoSpawn" value="All"/>
    <property name="Type" value="dirt"/>
   </properties>
  </tile>
  <tile id="681">
   <properties>
    <property name="Diggable" value="T"/>
    <property name="NoSpawn" value="All"/>
    <property name="Type" value="Dirt"/>
   </properties>
  </tile>
  <tile id="682">
   <properties>
    <property name="Diggable" value="T"/>
    <property name="NoSpawn" value="All"/>
    <property name="Type" value="Dirt"/>
   </properties>
  </tile>
  <tile id="685">
   <properties>
    <property name="Diggable" value="t"/>
    <property name="Type" value="dirt"/>
   </properties>
  </tile>
  <tile id="704">
   <properties>
    <property name="Diggable" value="T"/>
    <property name="NoSpawn" value="All"/>
    <property name="Type" value="Dirt"/>
   </properties>
  </tile>
  <tile id="705">
   <properties>
    <property name="Diggable" value="T"/>
    <property name="NoSpawn" value="All"/>
    <property name="Type" value="Dirt"/>
   </properties>
  </tile>
  <tile id="706">
   <properties>
    <property name="Diggable" value="T"/>
    <property name="NoSpawn" value="All"/>
    <property name="Type" value="Dirt"/>
   </properties>
  </tile>
  <tile id="707">
   <properties>
    <property name="Diggable" value="T"/>
    <property name="NoSpawn" value="All"/>
    <property name="Type" value="Dirt"/>
   </properties>
  </tile>
  <tile id="779">
   <properties>
    <property name="NoSpawn" value="All"/>
    <property name="Passable" value="T"/>
    <property name="Type" value="Wood"/>
   </properties>
  </tile>
  <tile id="780">
   <properties>
    <property name="NoSpawn" value="All"/>
    <property name="Passable" value="T"/>
    <property name="Type" value="Wood"/>
   </properties>
  </tile>
  <tile id="781">
   <properties>
    <property name="NoSpawn" value="All"/>
    <property name="Passable" value="T"/>
    <property name="Type" value="Wood"/>
   </properties>
  </tile>
  <tile id="782">
   <properties>
    <property name="NoSpawn" value="All"/>
    <property name="Passable" value="T"/>
    <property name="Type" value="Wood"/>
   </properties>
  </tile>
  <tile id="809">
   <properties>
    <property name="NoSpawn" value="All"/>
    <property name="Passable" value="T"/>
    <property name="Type" value="Wood"/>
   </properties>
  </tile>
  <tile id="834">
   <properties>
    <property name="No Spawn" value="All"/>
    <property name="Passable" value="T"/>
    <property name="Type" value="Wood"/>
   </properties>
  </tile>
  <tile id="859">
   <properties>
    <property name="NoSpawn" value="All"/>
    <property name="Passable" value="T"/>
    <property name="Type" value="Wood"/>
   </properties>
  </tile>
  <tile id="860">
   <properties>
    <property name="NoSpawn" value="All"/>
    <property name="Passable" value="T"/>
    <property name="Type" value="Wood"/>
   </properties>
  </tile>
  <tile id="884">
   <properties>
    <property name="NoSpawn" value="All"/>
    <property name="Passable" value="T"/>
    <property name="Type" value="Wood"/>
   </properties>
  </tile>
  <tile id="885">
   <properties>
    <property name="NoSpawn" value="All"/>
    <property name="Passable" value="T"/>
    <property name="Type" value="Wood"/>
   </properties>
  </tile>
  <tile id="910">
   <properties>
    <property name="NoSpawn" value="All"/>
    <property name="Passable" value="T"/>
    <property name="Type" value="Wood"/>
   </properties>
  </tile>
  <tile id="947">
   <properties>
    <property name="NoSpawn" value="All"/>
    <property name="Type" value="Stone"/>
   </properties>
  </tile>
  <tile id="948">
   <properties>
    <property name="NoSpawn" value="All"/>
    <property name="Type" value="Stone"/>
   </properties>
  </tile>
  <tile id="949">
   <properties>
    <property name="NoSpawn" value="All"/>
    <property name="Type" value="Stone"/>
   </properties>
  </tile>
  <tile id="972">
   <properties>
    <property name="NoSpawn" value="All"/>
    <property name="Type" value="Stone"/>
   </properties>
  </tile>
  <tile id="973">
   <properties>
    <property name="NoSpawn" value="All"/>
    <property name="Type" value="Stone"/>
   </properties>
  </tile>
  <tile id="974">
   <properties>
    <property name="NoSpawn" value="All"/>
    <property name="Type" value="Stone"/>
   </properties>
  </tile>
  <tile id="998">
   <properties>
    <property name="NoSpawn" value="All"/>
    <property name="Type" value="Stone"/>
   </properties>
  </tile>
  <tile id="999">
   <properties>
    <property name="NoSpawn" value="All"/>
    <property name="Type" value="Stone"/>
   </properties>
  </tile>
  <tile id="1094">
   <properties>
    <property name="Type" value="Grass"/>
   </properties>
  </tile>
  <tile id="1186">
   <properties>
    <property name="NoSpawn" value="All"/>
    <property name="Water" value="T"/>
   </properties>
  </tile>
  <tile id="1187">
   <properties>
    <property name="NoSpawn" value="All"/>
    <property name="Water" value="T"/>
   </properties>
  </tile>
  <tile id="1188">
   <properties>
    <property name="NoSpawn" value="All"/>
    <property name="Water" value="T"/>
   </properties>
  </tile>
  <tile id="1211">
   <properties>
    <property name="NoSpawn" value="All"/>
    <property name="Water" value="T"/>
   </properties>
  </tile>
  <tile id="1212">
   <properties>
    <property name="NoSpawn" value="All"/>
    <property name="Water" value="T"/>
   </properties>
  </tile>
  <tile id="1213">
   <properties>
    <property name="NoSpawn" value="All"/>
    <property name="Water" value="T"/>
   </properties>
  </tile>
  <tile id="1225">
   <animation>
    <frame tileid="1225" duration="250"/>
    <frame tileid="1226" duration="250"/>
    <frame tileid="1250" duration="250"/>
    <frame tileid="1251" duration="250"/>
    <frame tileid="1275" duration="250"/>
    <frame tileid="1276" duration="250"/>
   </animation>
  </tile>
  <tile id="1227">
   <properties>
    <property name="NoSpawn" value="All"/>
    <property name="Water" value="T"/>
   </properties>
  </tile>
  <tile id="1228">
   <properties>
    <property name="NoSpawn" value="All"/>
    <property name="Water" value="T"/>
   </properties>
  </tile>
  <tile id="1229">
   <properties>
    <property name="NoSpawn" value="All"/>
    <property name="Water" value="T"/>
   </properties>
  </tile>
  <tile id="1230">
   <properties>
    <property name="NoSpawn" value="All"/>
    <property name="Water" value="T"/>
   </properties>
  </tile>
  <tile id="1231">
   <properties>
    <property name="NoSpawn" value="All"/>
    <property name="Water" value="T"/>
   </properties>
  </tile>
  <tile id="1237">
   <properties>
    <property name="NoSpawn" value="All"/>
    <property name="Water" value="T"/>
   </properties>
  </tile>
  <tile id="1238">
   <properties>
    <property name="NoSpawn" value="All"/>
    <property name="Water" value="T"/>
   </properties>
  </tile>
  <tile id="1239">
   <properties>
    <property name="NoSpawn" value="All"/>
    <property name="Water" value="T"/>
   </properties>
  </tile>
  <tile id="1240">
   <properties>
    <property name="NoSpawn" value="All"/>
    <property name="Water" value="T"/>
   </properties>
  </tile>
  <tile id="1241">
   <properties>
    <property name="NoSpawn" value="All"/>
    <property name="Water" value="T"/>
   </properties>
  </tile>
  <tile id="1242">
   <properties>
    <property name="NoSpawn" value="All"/>
    <property name="Water" value="T"/>
   </properties>
  </tile>
  <tile id="1243">
   <properties>
    <property name="NoSpawn" value="All"/>
    <property name="Water" value="T"/>
   </properties>
  </tile>
  <tile id="1244">
   <properties>
    <property name="NoSpawn" value="All"/>
    <property name="Water" value="T"/>
   </properties>
  </tile>
  <tile id="1245">
   <properties>
    <property name="NoSpawn" value="All"/>
    <property name="Water" value="T"/>
   </properties>
  </tile>
  <tile id="1246">
   <properties>
    <property name="NoSpawn" value="All"/>
    <property name="Water" value="T"/>
    <property name="f" value="f"/>
   </properties>
  </tile>
  <tile id="1247">
   <properties>
    <property name="NoSpawn" value="All"/>
    <property name="Water" value="T"/>
    <property name="f" value="f"/>
   </properties>
  </tile>
  <tile id="1248">
   <properties>
    <property name="NoSpawn" value="All"/>
    <property name="Water" value="T"/>
    <property name="f" value="f"/>
   </properties>
  </tile>
  <tile id="1249">
   <properties>
    <property name="NoSpawn" value="All"/>
    <property name="Water" value="T"/>
    <property name="f" value="f"/>
   </properties>
  </tile>
  <tile id="1252">
   <properties>
    <property name="NoSpawn" value="All"/>
    <property name="Water" value="T"/>
   </properties>
  </tile>
  <tile id="1253">
   <properties>
    <property name="NoSpawn" value="All"/>
    <property name="Water" value="T"/>
   </properties>
  </tile>
  <tile id="1254">
   <properties>
    <property name="NoSpawn" value="All"/>
    <property name="Water" value="T"/>
   </properties>
  </tile>
  <tile id="1255">
   <properties>
    <property name="NoSpawn" value="All"/>
    <property name="Water" value="T"/>
   </properties>
  </tile>
  <tile id="1256">
   <properties>
    <property name="NoSpawn" value="All"/>
    <property name="Water" value="T"/>
   </properties>
  </tile>
  <tile id="1263">
   <properties>
    <property name="NoSpawn" value="All"/>
    <property name="Water" value="T"/>
   </properties>
  </tile>
  <tile id="1264">
   <properties>
    <property name="NoSpawn" value="All"/>
    <property name="Water" value="T"/>
   </properties>
  </tile>
  <tile id="1265">
   <properties>
    <property name="NoSpawn" value="All"/>
    <property name="Water" value="T"/>
   </properties>
  </tile>
  <tile id="1266">
   <properties>
    <property name="NoSpawn" value="All"/>
    <property name="Water" value="T"/>
    <property name="f" value="f"/>
   </properties>
  </tile>
  <tile id="1267">
   <properties>
    <property name="NoSpawn" value="All"/>
    <property name="Water" value="T"/>
    <property name="f" value="f"/>
   </properties>
  </tile>
  <tile id="1268">
   <properties>
    <property name="NoSpawn" value="All"/>
    <property name="Water" value="T"/>
   </properties>
  </tile>
  <tile id="1269">
   <properties>
    <property name="NoSpawn" value="All"/>
    <property name="Water" value="T"/>
    <property name="f" value="f"/>
   </properties>
  </tile>
  <tile id="1270">
   <properties>
    <property name="NoSpawn" value="All"/>
    <property name="Water" value="T"/>
   </properties>
  </tile>
  <tile id="1271">
   <properties>
    <property name="NoSpawn" value="All"/>
    <property name="Water" value="T"/>
    <property name="f" value="f"/>
   </properties>
  </tile>
  <tile id="1272">
   <properties>
    <property name="NoSpawn" value="All"/>
    <property name="Water" value="T"/>
    <property name="f" value="f"/>
   </properties>
  </tile>
  <tile id="1273">
   <properties>
    <property name="NoSpawn" value="All"/>
    <property name="Water" value="T"/>
    <property name="f" value="f"/>
   </properties>
  </tile>
  <tile id="1274">
   <properties>
    <property name="NoSpawn" value="All"/>
    <property name="Water" value="T"/>
    <property name="f" value="f"/>
   </properties>
  </tile>
  <tile id="1277">
   <properties>
    <property name="NoSpawn" value="All"/>
    <property name="Water" value="T"/>
   </properties>
  </tile>
  <tile id="1278">
   <properties>
    <property name="NoSpawn" value="All"/>
    <property name="Water" value="T"/>
   </properties>
  </tile>
  <tile id="1279">
   <properties>
    <property name="NoSpawn" value="All"/>
    <property name="Water" value="T"/>
   </properties>
  </tile>
  <tile id="1280">
   <properties>
    <property name="NoSpawn" value="All"/>
    <property name="Water" value="T"/>
   </properties>
  </tile>
  <tile id="1281">
   <properties>
    <property name="NoSpawn" value="All"/>
    <property name="Water" value="T"/>
   </properties>
  </tile>
  <tile id="1284">
   <properties>
    <property name="Passable" value="T"/>
   </properties>
  </tile>
  <tile id="1293">
   <animation>
    <frame tileid="1293" duration="450"/>
    <frame tileid="1294" duration="450"/>
    <frame tileid="1295" duration="450"/>
    <frame tileid="1296" duration="450"/>
   </animation>
  </tile>
  <tile id="1297">
   <properties>
    <property name="NoSpawn" value="All"/>
    <property name="Water" value="T"/>
    <property name="f" value="f"/>
   </properties>
  </tile>
  <tile id="1298">
   <properties>
    <property name="NoSpawn" value="All"/>
    <property name="Water" value="T"/>
    <property name="f" value="f"/>
   </properties>
  </tile>
  <tile id="1299">
   <properties>
    <property name="NoFurniture" value="Total"/>
    <property name="NoSpawn" value="All"/>
    <property name="Water" value="T"/>
   </properties>
  </tile>
  <tile id="1302">
   <properties>
    <property name="NoSpawn" value="All"/>
    <property name="Water" value="T"/>
   </properties>
  </tile>
  <tile id="1303">
   <properties>
    <property name="NoSpawn" value="All"/>
    <property name="Water" value="T"/>
   </properties>
  </tile>
  <tile id="1304">
   <properties>
    <property name="NoSpawn" value="All"/>
    <property name="Water" value="T"/>
   </properties>
  </tile>
  <tile id="1305">
   <properties>
    <property name="NoSpawn" value="All"/>
    <property name="Water" value="T"/>
   </properties>
  </tile>
  <tile id="1306">
   <properties>
    <property name="NoSpawn" value="All"/>
    <property name="Water" value="T"/>
   </properties>
  </tile>
  <tile id="1318">
   <animation>
    <frame tileid="1318" duration="450"/>
    <frame tileid="1319" duration="450"/>
    <frame tileid="1320" duration="450"/>
    <frame tileid="1321" duration="450"/>
   </animation>
  </tile>
  <tile id="1322">
   <properties>
    <property name="NoSpawn" value="All"/>
    <property name="Water" value="T"/>
    <property name="f" value="f"/>
   </properties>
  </tile>
  <tile id="1323">
   <properties>
    <property name="NoSpawn" value="All"/>
    <property name="Water" value="T"/>
    <property name="f" value="f"/>
   </properties>
  </tile>
  <tile id="1324">
   <properties>
    <property name="NoSpawn" value="All"/>
    <property name="Water" value="T"/>
    <property name="f" value="f"/>
   </properties>
  </tile>
  <tile id="1637">
   <properties>
    <property name="NoSpawn" value="All"/>
    <property name="Passable" value="T"/>
    <property name="Type" value="Wood"/>
   </properties>
  </tile>
  <tile id="1638">
   <properties>
    <property name="NoSpawn" value="All"/>
    <property name="Passable" value="T"/>
    <property name="Type" value="Wood"/>
   </properties>
  </tile>
  <tile id="1639">
   <properties>
    <property name="NoSpawn" value="All"/>
    <property name="Passable" value="T"/>
    <property name="Type" value="Wood"/>
   </properties>
  </tile>
  <tile id="1662">
   <properties>
    <property name="NoSpawn" value="All"/>
    <property name="Type" value="Wood"/>
   </properties>
  </tile>
  <tile id="1663">
   <properties>
    <property name="NoSpawn" value="All"/>
    <property name="Type" value="Wood"/>
   </properties>
  </tile>
  <tile id="1664">
   <properties>
    <property name="NoSpawn" value="All"/>
    <property name="Type" value="Wood"/>
   </properties>
  </tile>
  <tile id="1687">
   <properties>
    <property name="NoSpawn" value="All"/>
    <property name="Type" value="Wood"/>
   </properties>
  </tile>
  <tile id="1688">
   <properties>
    <property name="NoSpawn" value="All"/>
    <property name="Type" value="Wood"/>
   </properties>
  </tile>
  <tile id="1689">
   <properties>
    <property name="NoSpawn" value="All"/>
    <property name="Type" value="Wood"/>
   </properties>
  </tile>
  <tile id="1697">
   <properties>
    <property name="Passable" value="T"/>
   </properties>
  </tile>
  <tile id="1698">
   <properties>
    <property name="Passable" value="T"/>
   </properties>
  </tile>
  <tile id="1716">
   <properties>
    <property name="NoSpawn" value="All"/>
    <property name="Water" value="T"/>
   </properties>
  </tile>
  <tile id="1717">
   <properties>
    <property name="NoSpawn" value="All"/>
    <property name="Water" value="T"/>
   </properties>
  </tile>
  <tile id="1718">
   <properties>
    <property name="NoSpawn" value="All"/>
    <property name="Water" value="T"/>
   </properties>
  </tile>
  <tile id="1720">
   <animation>
    <frame tileid="1720" duration="1000"/>
    <frame tileid="1719" duration="1000"/>
   </animation>
  </tile>
  <tile id="1937">
   <properties>
    <property name="NoFurniture" value="T"/>
    <property name="NoSpawn" value="All"/>
    <property name="Type" value="Wood"/>
   </properties>
  </tile>
  <tile id="1957">
   <properties>
    <property name="Type" value="Wood"/>
   </properties>
  </tile>
  <tile id="1958">
   <properties>
    <property name="Type" value="Wood"/>
   </properties>
  </tile>
  <tile id="1962">
   <properties>
    <property name="NoFurniture" value="T"/>
    <property name="NoSpawn" value="All"/>
    <property name="Type" value="Wood"/>
   </properties>
  </tile>
  <tile id="1963">
   <properties>
    <property name="NoFurniture" value="T"/>
    <property name="NoSpawn" value="All"/>
    <property name="Type" value="Wood"/>
   </properties>
  </tile>
  <tile id="1964">
   <properties>
    <property name="NoFurniture" value="T"/>
    <property name="Type" value="Stone"/>
    <property name="placeable" value="F"/>
   </properties>
  </tile>
  <tile id="1965">
   <properties>
    <property name="NoFurniture" value="T"/>
    <property name="Type" value="Stone"/>
    <property name="placeable" value="f"/>
   </properties>
  </tile>
  <tile id="1966">
   <properties>
    <property name="NoFurniture" value="T"/>
    <property name="Type" value="Stone"/>
    <property name="placeable" value="f"/>
   </properties>
  </tile>
 </tileset>
 <tileset firstgid="2040" name="untitled tile sheet2" tilewidth="16" tileheight="16" tilecount="2304" columns="32">
  <image source="spring_town.png" width="512" height="1152"/>
 </tileset>
 <tileset firstgid="4344" name="z_Fence2_Hogwarts" tilewidth="16" tileheight="16" tilecount="66" columns="3">
  <image source="z_Fence2_Hogwarts.png" width="48" height="352"/>
 </tileset>
 <tileset firstgid="4410" name="z_Fence3_Hogwarts" tilewidth="16" tileheight="16" tilecount="66" columns="3">
  <image source="z_Fence3_Hogwarts.png" width="48" height="352"/>
 </tileset>
 <tileset firstgid="4476" name="townInterior" tilewidth="16" tileheight="16" tilecount="2176" columns="32">
  <image source="townInterior.png" width="512" height="1088"/>
 </tileset>
 <tileset firstgid="6652" name="z_FlooFlames_DomTSVG_Hogwarts" tilewidth="16" tileheight="16" tilecount="50" columns="10">
  <image source="z_FlooFlames_DomTSVG_Hogwarts.png" width="160" height="80"/>
  <tile id="1">
   <animation>
    <frame tileid="1" duration="175"/>
    <frame tileid="2" duration="175"/>
    <frame tileid="3" duration="175"/>
    <frame tileid="4" duration="175"/>
   </animation>
  </tile>
  <tile id="11">
   <animation>
    <frame tileid="11" duration="175"/>
    <frame tileid="12" duration="175"/>
    <frame tileid="13" duration="175"/>
    <frame tileid="14" duration="175"/>
   </animation>
  </tile>
  <tile id="30">
   <animation>
    <frame tileid="30" duration="175"/>
    <frame tileid="32" duration="175"/>
    <frame tileid="34" duration="175"/>
    <frame tileid="36" duration="175"/>
   </animation>
  </tile>
  <tile id="31">
   <animation>
    <frame tileid="31" duration="175"/>
    <frame tileid="33" duration="175"/>
    <frame tileid="35" duration="175"/>
    <frame tileid="37" duration="175"/>
   </animation>
  </tile>
  <tile id="40">
   <animation>
    <frame tileid="40" duration="175"/>
    <frame tileid="42" duration="175"/>
    <frame tileid="44" duration="175"/>
    <frame tileid="46" duration="175"/>
   </animation>
  </tile>
  <tile id="41">
   <animation>
    <frame tileid="41" duration="175"/>
    <frame tileid="43" duration="175"/>
    <frame tileid="45" duration="175"/>
    <frame tileid="47" duration="175"/>
   </animation>
  </tile>
 </tileset>
 <tileset firstgid="6702" name="z_QuidditchPitch_DD15_Hogwarts" tilewidth="16" tileheight="16" tilecount="400" columns="20">
  <image source="z_QuidditchPitch_DD15_Hogwarts.png" width="320" height="320"/>
 </tileset>
 <layer id="1" name="Back" width="25" height="28">
  <data encoding="csv">
445,446,417,445,445,445,445,445,445,445,445,445,445,445,446,418,441,441,441,441,441,441,441,468,444,
445,446,417,445,445,445,445,445,445,445,445,445,445,445,446,417,2648,2651,2651,2651,2651,2651,2650,415,444,
445,446,417,445,445,445,445,445,445,445,445,445,445,445,446,417,2715,2808,2809,2809,2809,2809,2683,415,444,
445,446,417,445,445,445,445,445,445,445,445,445,445,445,446,417,2715,2808,2809,2809,2809,2809,2683,415,444,
445,446,417,445,445,445,445,422,470,470,470,470,470,470,471,417,2715,2808,2809,2809,2809,2809,2683,415,444,
445,446,417,445,445,445,445,446,418,441,441,441,441,441,441,442,2715,2808,2809,2809,2809,2809,2683,415,444,
445,446,417,445,445,445,445,446,417,2648,2651,2651,2651,2651,2651,2651,2745,2808,2809,2809,2809,2809,2683,415,444,
445,446,417,445,445,445,445,446,417,2715,2808,2808,2809,2808,2809,2808,2809,2808,2809,2809,2809,2809,2683,415,444,
445,446,417,445,445,445,445,446,417,2715,2808,2808,2809,2808,2778,2747,2747,2747,2747,2746,2777,2777,2683,415,444,
445,446,417,445,445,445,445,446,417,240,240,240,240,240,390,391,391,391,392,2715,2809,2809,2683,415,444,
445,446,417,445,445,445,445,445,6828,6829,6830,6831,6832,6833,6834,6835,416,416,417,2715,2777,2777,2683,415,444,
445,446,417,445,445,445,445,445,6848,6849,6850,6851,6852,6853,6854,6855,416,416,417,2715,2809,2809,2683,415,444,
445,446,417,445,445,445,445,445,6868,6869,6870,6871,6872,6873,6874,6875,416,416,417,2715,2777,2777,2683,415,444,
445,446,417,445,445,445,445,445,6888,6889,6890,6891,6892,6893,6894,6895,441,441,442,2715,2809,2809,2683,415,444,
445,446,417,445,445,445,445,445,6908,6909,6910,6911,6912,6913,6914,6915,240,240,2651,2745,2777,2777,2683,415,444,
445,446,417,445,445,445,445,445,6928,6929,6930,6931,6932,6933,6934,6935,240,240,2776,2777,2809,2809,2683,415,444,
445,446,417,445,445,445,445,445,6948,6949,6950,6951,6952,6953,6954,6955,240,240,2808,2809,2777,2777,2683,415,444,
445,446,417,445,445,445,445,445,6968,6969,6970,6971,6972,6973,6974,6975,240,240,2747,2746,2809,2809,2683,415,444,
445,446,417,445,445,445,445,445,6988,6989,6990,6991,6992,6993,6994,6995,391,391,392,2715,2808,2808,2683,415,444,
445,446,417,445,445,445,445,445,7008,7009,7010,7011,7012,7013,7014,7015,416,416,417,2715,2777,2777,2683,415,444,
445,446,417,445,445,445,445,446,417,240,240,240,240,240,415,416,416,416,417,2715,2809,2809,2683,415,444,
445,446,417,445,445,445,445,446,417,240,240,240,240,240,415,416,416,416,417,2715,2777,2777,2683,415,444,
445,446,417,445,445,445,445,446,417,240,240,240,240,240,440,441,441,441,442,2715,2809,2809,2683,415,444,
445,446,417,445,445,445,445,446,417,2715,2808,2776,2777,2776,2744,2651,2651,2651,2651,2745,2777,2777,2683,415,444,
445,446,417,445,445,445,445,446,417,2715,2808,2808,2809,2776,2777,2776,2777,2776,2776,2777,2777,2777,2683,415,444,
445,446,417,445,445,445,445,446,417,2712,2746,2776,2777,2776,2778,2747,2747,2747,2747,2747,2747,2747,2714,415,444,
445,446,417,445,445,445,445,446,443,392,2680,2808,2809,2808,2683,391,391,391,391,391,391,391,391,393,444,
445,446,417,445,445,445,445,447,421,417,2680,2808,2809,2808,2683,419,420,420,420,420,420,420,420,420,397
</data>
 </layer>
 <objectgroup id="6" name="Back"/>
 <layer id="20" name="Back1" width="25" height="28">
  <data encoding="csv">
0,0,0,0,0,0,0,0,0,0,0,0,0,0,0,0,0,0,0,0,0,0,0,0,0,
0,0,0,0,0,0,0,0,0,0,0,0,0,0,0,0,0,0,0,0,0,0,0,0,0,
0,0,0,0,0,0,0,0,0,0,0,0,0,0,0,0,0,0,0,0,0,0,0,0,0,
0,0,0,0,0,0,0,0,0,0,0,0,0,0,0,0,0,0,0,0,0,0,0,0,0,
0,0,0,0,0,0,0,0,0,0,0,0,0,0,0,0,0,0,0,0,0,0,0,0,0,
0,0,0,0,0,0,0,0,0,0,0,0,0,0,0,0,0,0,0,0,0,0,0,0,0,
0,0,0,0,0,0,0,0,0,0,0,0,0,0,0,0,0,0,0,0,0,0,0,0,0,
0,0,0,0,0,0,0,0,0,0,0,0,0,0,0,0,0,0,0,0,0,0,0,0,0,
0,0,0,0,0,0,0,0,0,0,0,0,0,0,0,0,0,0,0,0,0,0,0,0,0,
0,0,0,0,0,0,0,0,0,0,0,0,0,0,0,0,0,0,0,0,0,0,0,0,0,
0,0,0,0,0,0,0,0,0,0,0,0,0,0,0,0,0,0,0,0,0,0,0,0,0,
0,0,0,0,0,0,0,0,0,0,0,0,0,0,0,0,0,0,0,0,0,0,0,0,0,
0,0,0,0,0,0,0,0,0,0,0,0,0,0,0,0,0,0,0,0,0,0,0,0,0,
0,0,0,0,0,0,0,0,0,0,0,0,0,0,0,0,0,0,0,0,0,0,0,0,0,
0,0,0,0,0,0,0,0,0,0,0,0,0,0,0,0,0,0,0,0,0,0,0,0,0,
0,0,0,0,0,0,0,0,0,0,0,0,0,0,0,0,0,0,0,0,0,0,0,0,0,
0,0,0,0,0,0,0,0,0,0,0,0,0,0,0,0,0,0,0,0,0,0,0,0,0,
0,0,0,0,0,0,0,0,0,0,0,0,0,0,0,0,0,0,0,0,0,0,0,0,0,
0,0,0,0,0,0,0,0,0,0,0,0,0,0,0,0,0,0,0,0,0,0,0,0,0,
0,0,0,0,0,0,0,0,0,0,0,0,0,0,0,0,0,0,0,0,0,0,0,0,0,
0,0,0,0,0,0,0,0,0,0,0,0,0,0,0,0,0,0,0,0,0,0,0,0,0,
0,0,0,0,0,0,0,0,0,0,0,0,0,0,0,0,0,0,0,0,0,0,0,0,0,
0,0,0,0,0,0,7066,0,0,0,0,0,0,0,0,0,0,7077,0,0,0,0,0,0,0,
0,0,0,0,0,0,0,7087,7088,7089,7090,7091,7092,7093,7094,7095,7096,0,0,0,0,0,0,0,0,
0,0,0,0,0,0,0,0,0,0,0,0,0,0,0,0,0,0,0,0,0,0,0,0,0,
0,0,0,0,0,0,0,0,0,0,0,0,0,0,0,0,0,0,0,0,0,0,0,0,0,
0,0,0,0,0,0,0,0,0,0,0,0,0,0,0,0,0,0,0,0,0,0,0,0,0,
0,0,0,0,0,0,0,0,0,0,0,0,0,0,0,0,0,0,0,0,0,0,0,0,0
</data>
 </layer>
 <objectgroup id="21" name="Back1"/>
 <layer id="2" name="Buildings" width="25" height="28">
  <data encoding="csv">
359,360,534,409,103,104,105,0,0,103,104,105,0,0,2858,2859,2860,103,104,105,2858,2859,2860,0,0,
384,385,559,434,128,129,130,178,179,128,129,130,178,179,2890,2891,2892,128,129,130,2890,2891,2892,178,179,
409,410,584,459,0,0,0,0,0,0,0,0,0,0,0,0,0,0,0,0,0,0,0,0,103,
434,435,609,484,0,0,0,0,0,0,0,0,0,0,0,0,0,0,3251,3252,0,3254,0,0,128,
484,0,0,459,0,0,0,0,0,0,0,0,0,0,0,0,0,0,3283,3284,0,3286,0,0,2858,
459,0,0,459,0,0,0,0,0,0,0,0,0,0,0,0,0,0,3315,3316,3317,3318,0,0,2890,
484,0,0,459,0,0,0,0,0,3043,0,0,0,0,0,0,0,0,0,0,0,0,0,0,103,
459,0,0,459,0,0,0,0,0,0,0,0,0,0,0,0,0,0,0,0,0,0,0,0,128,
484,0,0,484,0,0,0,0,0,0,0,0,0,0,0,0,0,0,0,0,0,0,3043,0,2858,
459,0,0,459,0,0,6806,6807,6808,6809,6810,6811,6812,6813,6814,6815,6816,6817,0,0,0,0,0,0,2890,
484,0,0,459,0,6825,6826,6827,0,0,0,0,0,0,0,0,6836,6837,6838,0,0,0,0,0,103,
459,0,0,484,0,6845,6846,6847,0,0,0,0,0,0,0,0,6856,6857,6858,0,0,0,0,0,128,
484,0,0,434,0,6865,6866,6867,0,0,0,0,0,0,0,0,6876,6877,6878,0,0,0,0,0,2858,
459,0,0,459,0,6885,6886,6887,0,0,0,0,0,0,0,0,6896,6897,6898,0,0,0,0,0,2890,
484,0,0,484,0,6905,6906,6907,0,0,0,0,0,0,0,0,6916,6917,6918,0,0,0,0,0,103,
459,0,0,459,0,6925,6926,6927,0,0,0,0,0,0,0,0,6936,6937,6938,0,0,0,0,0,128,
484,0,0,459,0,6945,6946,6947,0,0,0,0,0,0,0,0,6956,6957,6958,0,0,0,0,0,2858,
459,0,0,484,0,6965,6966,6967,0,0,0,0,0,0,0,0,6976,6977,6978,0,0,0,0,0,2890,
459,0,0,459,0,6985,6986,6987,0,0,0,0,0,0,0,0,6996,6997,6998,0,0,0,3043,0,103,
484,0,0,484,0,0,7006,7007,0,0,0,0,0,0,0,0,7016,7017,0,0,0,0,0,0,128,
459,0,0,459,0,0,7026,7027,7028,7029,7030,7031,7032,7033,7034,7035,7036,7037,0,0,0,0,0,0,2858,
484,0,0,484,0,0,7046,7047,7048,7049,7050,7051,7052,7053,7054,7055,7056,7057,0,0,0,0,0,0,2890,
459,0,0,484,0,0,0,7067,7068,7069,7070,7071,7072,7073,7074,7075,7076,0,0,0,0,0,0,0,103,
484,0,0,459,0,0,0,0,0,0,0,0,0,0,0,0,0,0,0,0,0,0,0,0,128,
459,0,0,484,0,0,0,0,0,0,0,0,0,0,0,0,0,0,0,0,0,0,0,0,2954,
484,0,0,459,0,0,0,0,0,0,0,0,0,0,0,0,0,0,0,0,0,0,0,0,2858,
484,0,0,484,0,0,0,0,0,0,0,0,0,0,0,0,0,0,0,0,0,0,3043,0,2890,
459,0,0,459,2977,2977,2977,2977,2977,2977,2977,2977,2977,2977,2977,103,104,105,178,179,2858,2859,2860,2954,2955
</data>
 </layer>
 <objectgroup id="7" name="Buildings"/>
 <layer id="11" name="Buildings1" width="25" height="28">
  <data encoding="csv">
0,0,0,0,0,0,0,0,0,0,0,0,0,0,0,0,0,0,0,0,0,0,0,0,0,
0,0,0,0,0,0,0,0,0,0,0,0,0,0,0,0,0,0,0,0,0,0,0,0,0,
0,0,0,0,0,0,0,0,0,0,0,0,0,0,0,0,0,0,0,0,0,0,0,0,0,
0,0,0,0,0,0,0,0,0,0,0,0,0,0,0,0,0,0,0,0,0,0,0,0,0,
0,0,0,0,0,0,0,0,0,0,0,0,0,0,0,0,0,0,0,0,0,0,0,0,0,
0,0,0,0,0,0,0,0,0,0,0,0,0,0,0,0,0,0,0,0,0,0,0,0,0,
0,0,0,0,0,0,0,0,0,0,0,0,0,0,0,0,0,0,0,0,0,0,0,0,0,
0,0,0,0,0,0,0,0,0,0,0,0,0,0,0,0,0,0,0,0,0,0,0,0,0,
0,0,0,0,0,0,0,0,0,0,0,0,0,0,0,0,0,0,0,0,0,0,0,0,0,
0,0,0,0,0,0,0,0,0,0,0,0,0,0,0,0,0,0,0,0,0,0,0,0,0,
0,0,0,0,0,0,0,0,0,0,0,0,0,0,0,0,0,0,0,0,0,0,0,0,0,
0,0,0,0,0,0,0,0,0,0,0,0,0,0,0,0,0,0,0,0,0,0,0,0,0,
0,0,0,0,0,0,0,0,0,0,0,0,0,0,0,0,0,0,0,0,0,0,0,0,0,
0,0,0,0,0,0,0,0,0,0,0,0,0,0,0,0,0,0,0,0,0,0,0,0,0,
0,0,0,0,0,0,0,0,0,0,0,0,0,0,0,0,0,0,0,0,0,0,0,0,0,
0,0,0,0,0,0,0,0,0,0,0,0,0,0,0,0,0,0,0,0,0,0,0,0,0,
0,0,0,0,0,0,0,0,0,0,0,0,0,0,0,0,0,0,0,0,0,0,0,0,0,
0,0,0,0,0,0,0,0,0,0,0,0,0,0,0,0,0,0,0,0,0,0,0,0,0,
0,0,0,0,0,0,0,0,0,0,0,0,0,0,0,0,0,0,0,0,0,0,0,0,0,
0,0,0,0,0,0,0,0,0,0,0,0,0,0,0,0,0,0,0,0,0,0,0,0,0,
0,0,0,0,0,0,0,0,0,0,0,0,0,0,0,0,0,0,0,0,0,0,0,0,0,
0,0,0,0,0,0,0,0,0,0,0,0,0,0,0,0,0,0,0,0,0,0,0,0,0,
0,0,0,0,0,0,0,0,0,0,0,0,0,0,0,0,0,0,0,0,0,0,0,0,0,
0,0,0,0,0,0,0,0,0,0,0,0,0,0,0,0,0,0,0,0,0,0,0,0,0,
0,0,0,0,0,0,0,0,0,0,0,0,0,0,0,0,0,0,0,0,0,0,0,0,0,
0,0,0,0,0,0,0,0,0,0,0,0,0,0,0,0,0,0,0,0,0,0,0,0,0,
0,0,0,0,0,0,0,0,0,0,0,0,0,0,0,0,0,0,0,0,0,0,0,0,0,
0,0,0,0,0,0,0,0,0,0,0,0,0,0,0,0,0,0,0,0,0,0,0,0,0
</data>
 </layer>
 <objectgroup id="12" name="Buildings1"/>
 <layer id="13" name="Paths" width="25" height="28">
  <data encoding="csv">
0,0,0,0,0,0,0,0,0,0,0,0,0,0,0,0,0,0,0,0,0,0,0,0,0,
0,0,0,0,0,0,0,0,0,0,0,0,0,0,0,0,0,0,0,0,0,0,0,0,0,
0,0,0,0,0,0,0,0,0,0,0,0,0,0,0,0,0,0,0,0,0,0,0,0,0,
0,0,0,0,0,0,0,0,0,0,0,0,0,0,0,0,0,0,0,0,0,0,0,0,0,
0,0,0,0,0,0,0,0,0,0,0,0,0,0,0,0,0,0,0,0,0,0,0,0,0,
0,0,0,0,0,0,0,0,0,0,0,0,0,0,0,0,0,0,0,0,0,0,0,0,0,
0,0,0,0,0,0,0,0,0,0,0,0,0,0,0,0,0,0,0,0,0,0,0,0,0,
0,0,0,0,0,0,0,0,0,0,0,0,0,0,0,0,0,0,0,0,0,0,0,0,0,
0,0,0,0,0,0,0,0,0,0,0,0,0,0,0,0,0,0,0,0,0,0,0,0,0,
0,0,0,0,0,0,0,0,0,0,0,0,0,0,0,0,0,0,0,0,0,0,0,0,0,
0,0,0,0,0,0,0,0,0,0,0,0,0,0,0,0,0,0,0,0,0,0,0,0,0,
0,0,0,0,0,0,0,0,0,0,0,0,0,0,0,0,0,0,0,0,0,0,0,0,0,
0,0,0,0,0,0,0,0,0,0,0,0,0,0,0,0,0,0,0,0,0,0,0,0,0,
0,0,0,0,0,0,0,0,0,0,0,0,0,0,0,0,0,0,0,0,0,0,0,0,0,
0,0,0,0,0,0,0,0,0,0,0,0,0,0,0,0,0,0,0,0,0,0,0,0,0,
0,0,0,0,0,0,0,0,0,0,0,0,0,0,0,0,0,0,0,0,0,0,0,0,0,
0,0,0,0,0,0,0,0,0,0,0,0,0,0,0,0,0,0,0,0,0,0,0,0,0,
0,0,0,0,0,0,0,0,0,0,0,0,0,0,0,0,0,0,0,0,0,0,0,0,0,
0,0,0,0,0,0,0,0,0,0,0,0,0,0,0,0,0,0,0,0,0,0,0,0,0,
0,0,0,0,0,0,0,0,0,0,0,0,0,0,0,0,0,0,0,0,0,0,0,0,0,
0,0,0,0,0,0,0,0,0,0,0,0,0,0,0,0,0,0,0,0,0,0,0,0,0,
0,0,0,0,0,0,0,0,0,0,0,0,0,0,0,0,0,0,0,0,0,0,0,0,0,
0,0,0,0,0,0,0,0,0,0,0,0,0,0,0,0,0,0,0,0,0,0,0,0,0,
0,0,0,0,0,0,0,0,0,0,0,0,0,0,0,0,0,0,0,0,0,0,0,0,0,
0,0,0,0,0,0,0,0,0,0,0,0,0,0,0,0,0,0,0,0,0,0,0,0,0,
0,0,0,0,0,0,0,0,0,0,0,0,0,0,0,0,0,0,0,0,0,0,0,0,0,
0,0,0,0,0,0,0,0,0,0,0,0,0,0,0,0,0,0,0,0,0,0,0,0,0,
0,0,0,0,0,0,0,0,0,0,0,0,0,0,0,0,0,0,0,0,0,0,0,0,0
</data>
 </layer>
 <objectgroup id="10" name="Paths"/>
 <layer id="16" name="Front" width="25" height="28">
  <data encoding="csv">
0,0,0,0,0,0,0,153,154,0,0,0,153,154,0,0,0,0,0,0,0,0,0,2922,2923,
0,0,0,0,0,0,0,0,0,0,0,0,0,0,0,0,0,0,0,0,0,0,0,0,78,
0,0,0,0,0,0,0,0,0,0,0,0,0,0,0,0,0,0,0,0,0,0,0,0,0,
0,0,0,0,0,0,0,0,0,0,0,0,0,0,0,0,0,0,0,0,0,0,0,0,2826,
0,0,0,0,0,0,0,0,0,0,0,0,0,0,0,0,0,0,0,0,3285,0,0,0,0,
0,0,0,0,0,0,0,0,0,3011,0,0,0,0,0,0,0,0,0,0,0,0,0,0,78,
0,0,0,0,0,0,0,0,0,0,0,0,0,0,0,0,0,0,0,0,0,0,0,0,0,
0,0,0,0,0,0,0,0,0,0,0,0,0,0,0,0,0,0,0,0,0,0,3011,0,2826,
0,0,0,0,0,0,0,0,6788,6789,6790,6791,6792,6793,6794,6795,0,0,0,0,0,0,0,0,0,
0,0,0,0,0,0,0,0,0,0,0,0,0,0,0,0,0,0,0,0,0,0,0,0,78,
0,0,0,0,0,0,0,0,0,0,0,0,0,0,0,0,0,0,0,0,0,0,0,0,0,
0,0,0,0,0,0,0,0,0,0,0,0,0,0,0,0,0,0,0,0,0,0,0,0,2826,
0,0,0,0,0,0,0,0,0,0,0,0,0,0,0,0,0,0,0,0,0,0,0,0,0,
0,0,0,0,0,0,0,0,0,0,0,0,0,0,0,0,0,0,0,0,0,0,0,0,78,
0,0,0,0,0,0,0,0,0,0,0,0,0,0,0,0,0,0,0,0,0,0,0,0,0,
0,0,0,0,0,0,0,0,0,0,0,0,0,0,0,0,0,0,0,0,0,0,0,0,2826,
0,0,0,0,0,0,0,0,0,0,0,0,0,0,0,0,0,0,0,0,0,0,0,0,0,
0,0,0,0,0,0,0,0,0,0,0,0,0,0,0,0,0,0,0,0,0,0,3011,0,78,
0,0,0,0,0,0,0,0,0,0,0,0,0,0,0,0,0,0,0,0,0,0,0,0,0,
0,0,0,0,0,0,0,0,0,0,0,0,0,0,0,0,0,0,0,0,0,0,0,0,2826,
0,0,0,0,0,0,0,0,0,0,0,0,0,0,0,0,0,0,0,0,0,0,0,0,0,
0,0,0,0,0,0,0,0,0,0,0,0,0,0,0,0,0,0,0,0,0,0,0,0,78,
0,0,0,0,0,0,0,0,0,0,0,0,0,0,0,0,0,0,0,0,0,0,0,0,0,
0,0,0,0,0,0,0,0,0,0,0,0,0,0,0,0,0,0,0,0,0,0,0,0,2922,
0,0,0,0,0,0,0,0,0,0,0,0,0,0,0,0,0,0,0,0,0,0,0,0,2826,
0,0,0,0,0,0,0,0,0,0,0,0,0,0,0,0,0,0,0,0,0,0,3011,0,0,
0,0,0,0,2978,2978,2978,2978,2978,2978,2947,2978,2978,2978,2947,78,79,80,153,154,2826,2827,2828,2922,2923,
0,0,0,0,0,0,0,0,0,0,0,0,0,0,0,0,0,0,0,0,0,0,0,0,0
</data>
 </layer>
 <objectgroup id="17" name="Front"/>
 <layer id="3" name="Front1" width="25" height="28">
  <data encoding="csv">
0,0,0,0,0,0,0,0,0,0,0,0,0,0,0,0,0,0,0,0,0,0,0,0,0,
0,0,0,0,0,0,0,0,0,0,0,0,0,0,0,0,0,0,0,0,0,0,0,0,0,
0,0,0,0,0,0,0,0,0,0,0,0,0,0,0,0,0,0,0,0,0,0,0,0,0,
0,0,0,0,0,0,0,0,0,0,0,0,0,0,0,0,0,0,0,0,0,0,0,0,0,
0,0,0,0,0,0,0,0,0,0,0,0,0,0,0,0,0,0,0,0,0,0,0,0,0,
0,0,0,0,0,0,0,0,0,0,0,0,0,0,0,0,0,0,0,0,0,0,0,0,0,
0,0,0,0,0,0,0,0,0,0,0,0,0,0,0,0,0,0,0,0,0,0,0,0,0,
0,0,0,0,0,0,0,0,0,0,0,0,0,0,0,0,0,0,0,0,0,0,0,0,0,
0,0,0,0,0,0,0,0,0,0,0,0,0,0,0,0,0,0,0,0,0,0,0,0,0,
0,0,0,0,0,0,0,0,0,0,0,0,0,0,0,0,0,0,0,0,0,0,0,0,0,
0,0,0,0,0,0,0,0,0,0,0,0,0,0,0,0,0,0,0,0,0,0,0,0,0,
0,0,0,0,0,0,0,0,0,0,0,0,0,0,0,0,0,0,0,0,0,0,0,0,0,
0,0,0,0,0,0,0,0,0,0,0,0,0,0,0,0,0,0,0,0,0,0,0,0,0,
0,0,0,0,0,0,0,0,0,0,0,0,0,0,0,0,0,0,0,0,0,0,0,0,0,
0,0,0,0,0,0,0,0,0,0,0,0,0,0,0,0,0,0,0,0,0,0,0,0,0,
0,0,0,0,0,0,0,0,0,0,0,0,0,0,0,0,0,0,0,0,0,0,0,0,0,
0,0,0,0,0,0,0,0,0,0,0,0,0,0,0,0,0,0,0,0,0,0,0,0,0,
0,0,0,0,0,0,0,0,0,0,0,0,0,0,0,0,0,0,0,0,0,0,0,0,0,
0,0,0,0,0,0,0,0,0,0,0,0,0,0,0,0,0,0,0,0,0,0,0,0,0,
0,0,0,0,0,0,0,0,0,0,0,0,0,0,0,0,0,0,0,0,0,0,0,0,0,
0,0,0,0,0,0,0,0,0,0,0,0,0,0,0,0,0,0,0,0,0,0,0,0,0,
0,0,0,0,0,0,0,0,0,0,0,0,0,0,0,0,0,0,0,0,0,0,0,0,0,
0,0,0,0,0,0,0,0,0,0,0,0,0,0,0,0,0,0,0,0,0,0,0,0,0,
0,0,0,0,0,0,0,0,0,0,0,0,0,0,0,0,0,0,0,0,0,0,0,0,0,
0,0,0,0,0,0,0,0,0,0,0,0,0,0,0,0,0,0,0,0,0,0,0,0,0,
0,0,0,0,0,0,0,0,0,0,0,0,0,0,0,0,0,0,0,0,0,0,0,0,0,
0,0,0,0,0,0,0,0,0,0,2978,0,0,0,2978,0,0,0,0,0,0,0,0,0,0,
0,0,0,0,0,0,0,0,0,0,0,0,0,0,0,0,0,0,0,0,0,0,0,0,0
</data>
 </layer>
 <objectgroup id="8" name="Front1"/>
 <layer id="4" name="AlwaysFront" width="25" height="28">
  <data encoding="csv">
0,0,0,0,0,0,0,0,0,0,0,0,0,0,0,0,0,0,0,0,0,0,0,0,0,
0,0,0,0,0,0,0,0,0,0,0,0,0,0,0,0,0,0,3187,3188,3189,0,0,0,0,
0,0,0,0,0,0,0,0,0,0,0,0,0,0,0,0,0,0,3219,3220,3221,0,0,0,0,
0,0,0,0,0,0,0,0,0,2947,0,0,0,0,0,0,0,0,0,0,3253,0,0,0,0,
0,0,0,0,0,0,0,6707,0,2979,0,0,0,0,0,0,6716,0,0,0,0,0,0,0,0,
0,0,0,0,0,6725,6726,6727,6728,0,0,0,0,0,0,6735,6736,6737,6738,0,0,0,2947,0,0,
0,0,0,0,0,6745,6746,6747,6748,0,0,0,0,0,0,6755,6756,6757,6758,0,0,0,2979,0,0,
0,0,0,0,6764,6765,6766,6767,6768,0,0,0,0,0,0,6775,6776,6777,6778,6779,0,0,0,0,0,
0,0,0,0,0,6785,6786,6787,0,0,0,0,0,0,0,0,6796,6797,6798,6799,0,0,0,0,0,
0,0,0,0,0,6805,0,0,0,0,0,0,0,0,0,0,0,0,6818,0,0,0,0,0,0,
0,0,0,0,0,0,0,0,0,0,0,0,0,0,0,0,0,0,0,0,0,0,0,0,0,
0,0,0,0,0,0,0,0,0,0,0,0,0,0,0,0,0,0,0,0,0,0,0,0,0,
0,0,0,0,0,0,0,0,0,0,0,0,0,0,0,0,0,0,0,0,0,0,0,0,0,
0,0,0,0,0,0,0,0,0,0,0,0,0,0,0,0,0,0,0,0,0,0,0,0,0,
0,0,0,0,0,0,0,0,0,0,0,0,0,0,0,0,0,0,0,0,0,0,0,0,0,
0,0,0,0,0,0,0,0,0,0,0,0,0,0,0,0,0,0,0,0,0,0,2947,0,0,
0,0,0,0,0,0,0,0,0,0,0,0,0,0,0,0,0,0,0,0,0,0,2979,0,0,
0,0,0,0,0,0,0,0,0,0,0,0,0,0,0,0,0,0,0,0,0,0,0,0,0,
0,0,0,0,0,0,0,0,0,0,0,0,0,0,0,0,0,0,0,0,0,0,0,0,0,
0,0,0,0,0,0,0,0,0,0,0,0,0,0,0,0,0,0,0,0,0,0,0,0,0,
0,0,0,0,0,0,0,0,0,0,0,0,0,0,0,0,0,0,0,0,0,0,0,0,0,
0,0,0,0,0,0,0,0,0,0,0,0,0,0,0,0,0,0,0,0,0,0,0,0,0,
0,0,0,0,0,0,0,0,0,0,0,0,0,0,0,0,0,0,0,0,0,0,0,0,0,
0,0,0,0,0,0,0,0,0,0,0,0,0,0,0,0,0,0,0,0,0,0,2947,0,0,
0,0,0,0,0,0,0,0,0,0,0,0,0,0,0,0,0,0,0,0,0,0,2979,0,0,
0,0,0,0,0,0,0,0,0,0,0,0,0,0,0,0,0,0,0,0,0,0,0,0,0,
0,0,0,0,0,0,0,0,0,0,0,0,0,0,0,0,0,0,0,0,0,0,0,0,0,
0,0,0,0,0,0,0,0,0,0,0,0,0,0,0,0,0,0,0,0,0,0,0,0,0
</data>
 </layer>
 <objectgroup id="9" name="AlwaysFront"/>
</map>
