<?xml version="1.0" encoding="UTF-8"?>
<map version="1.10" tiledversion="1.11.2" orientation="orthogonal" renderorder="right-down" compressionlevel="0" width="9" height="12" tilewidth="16" tileheight="16" infinite="0" nextlayerid="13" nextobjectid="5">
 <tileset firstgid="1" name="indoor" tilewidth="16" tileheight="16" tilecount="2176" columns="32">
  <image source="townInterior.png" width="512" height="1088"/>
 </tileset>
 <tileset firstgid="2177" name="walls_and_floors" tilewidth="16" tileheight="16" tilecount="688" columns="16">
  <image source="walls_and_floors.png" width="256" height="688"/>
 </tileset>
 <tileset firstgid="2865" name="z_HogsmeadeInteriorTilesheet_Letteas_Hogwarts" tilewidth="16" tileheight="16" tilecount="644" columns="23">
  <image source="z_HogsmeadeInterior_Letteas_Hogwarts.png" width="368" height="448"/>
 </tileset>
 <tileset firstgid="3509" name="paths" tilewidth="16" tileheight="16" tilecount="64" columns="4">
  <image source="paths.png" width="64" height="256"/>
 </tileset>
 <tileset firstgid="3573" name="z_Windows_CT_Hogwarts" tilewidth="16" tileheight="16" tilecount="338" columns="13">
  <image source="z_Windows_CT_Hogwarts.png" width="208" height="416"/>
 </tileset>
 <tileset firstgid="3911" name="z_furniture_Hogwarts" tilewidth="16" tileheight="16" tilecount="2976" columns="32">
  <image source="z_furniture_Hogwarts.png" width="512" height="1488"/>
 </tileset>
 <layer id="1" name="Back" width="9" height="12">
  <data encoding="csv">
0,0,0,0,0,0,0,0,0,
0,0,0,0,0,0,0,0,0,
0,0,0,0,0,0,0,0,0,
0,0,0,0,0,0,0,0,0,
0,0,0,0,0,0,0,0,0,
0,0,0,3009,3009,3009,0,0,0,
3009,3009,3009,3009,3009,3009,3009,3009,0,
3009,3009,3009,3009,3009,3009,3009,3009,0,
3009,3009,3009,3009,3009,3009,3009,3009,0,
3009,3009,3009,3009,3009,3009,3009,3009,0,
3009,3009,3009,3009,3009,3009,3009,3009,0,
0,0,0,0,0,0,0,0,0
</data>
 </layer>
 <layer id="9" name="Back1" width="9" height="12">
  <data encoding="csv">
0,0,0,0,0,0,0,0,0,
0,0,0,0,0,0,0,0,0,
0,0,0,0,0,0,0,0,0,
0,0,0,0,0,0,0,0,0,
0,0,0,0,0,0,0,0,0,
0,0,0,0,0,0,0,0,0,
0,0,6786,6787,6788,6789,6790,0,0,
0,0,6818,6819,6820,6821,6822,0,0,
0,0,6850,6851,6852,6853,6854,0,0,
0,0,6882,6883,6884,6885,6886,0,0,
0,0,0,0,0,0,0,0,0,
0,0,0,0,0,0,0,0,0
</data>
 </layer>
 <layer id="2" name="Buildings" width="9" height="12">
  <data encoding="csv">
3053,3104,3104,3104,3104,3104,3104,3104,3055,
3076,2871,2872,3860,3861,3862,2873,2874,3078,
3076,2894,2895,3873,3874,3875,2896,2897,3078,
3076,2917,2918,3886,3887,3888,2919,2920,3078,
3076,2940,2941,3899,3900,3901,2942,2943,3078,
3076,2963,2964,421,422,5336,2965,2966,3078,
3076,0,0,0,0,0,0,0,3078,
3076,0,0,323,324,0,0,0,3078,
3076,0,0,0,0,0,0,0,3078,
3099,0,0,0,0,0,0,0,3101,
1,1,1,3099,0,3101,1,1,1,
0,0,0,1,1,1,0,0,0
</data>
 </layer>
 <layer id="7" name="Buildings1" width="9" height="12">
  <data encoding="csv">
0,0,0,0,0,0,0,0,0,
0,0,0,0,0,0,0,0,0,
0,0,0,0,0,0,0,0,0,
0,0,0,0,0,0,0,0,0,
0,0,0,389,390,5304,0,0,0,
0,0,0,0,0,0,0,0,0,
0,0,0,0,0,0,0,0,0,
0,0,0,0,0,0,0,0,0,
0,0,0,0,0,0,0,0,0,
0,0,0,0,0,0,0,0,0,
0,0,0,0,0,0,0,0,0,
0,0,0,0,0,0,0,0,0
</data>
 </layer>
 <layer id="11" name="Paths" width="9" height="12">
  <data encoding="csv">
0,0,0,0,0,0,0,0,0,
0,0,0,0,0,0,0,0,0,
0,0,0,0,0,0,0,0,0,
0,0,0,0,0,0,0,0,0,
0,0,0,0,0,0,0,0,0,
0,0,0,0,0,0,0,0,0,
0,0,0,0,0,0,0,0,0,
0,0,0,0,0,0,0,0,0,
0,0,0,0,0,0,0,0,0,
0,0,0,0,0,0,0,0,0,
0,0,0,0,0,0,0,0,0,
0,0,0,0,0,0,0,0,0
</data>
 </layer>
 <layer id="3" name="Front" width="9" height="12">
  <data encoding="csv">
0,0,0,0,0,0,0,0,0,
0,0,0,0,0,0,0,0,0,
0,0,0,0,0,0,0,0,0,
0,0,0,0,0,0,0,0,0,
0,0,0,0,0,0,0,0,0,
0,0,0,417,418,0,0,0,0,
0,0,0,449,450,0,0,0,0,
0,0,0,0,0,0,0,0,0,
0,0,0,0,0,0,0,0,0,
0,3100,3100,3082,0,3080,3100,3100,0,
0,0,0,0,3100,0,0,0,0,
0,0,0,0,0,0,0,0,0
</data>
 </layer>
 <objectgroup id="4" name="Back"/>
 <objectgroup id="10" name="Back1"/>
 <objectgroup id="5" name="Buildings"/>
 <objectgroup id="8" name="Buildings1"/>
 <objectgroup id="12" name="Paths"/>
 <objectgroup id="6" name="Front"/>
</map>
