<?xml version="1.0" encoding="UTF-8"?>
<map version="1.10" tiledversion="1.11.2" orientation="orthogonal" renderorder="right-down" width="1" height="3" tilewidth="16" tileheight="16" infinite="0" nextlayerid="14" nextobjectid="1">
 <tileset firstgid="1" name="GryffindorFountainStatue" tilewidth="16" tileheight="16" tilecount="3" columns="1">
  <image source="GryffindorFountainStatue.png" width="16" height="48"/>
 </tileset>
 <layer id="1" name="Back" width="1" height="3">
  <data encoding="csv">
0,
0,
0
</data>
 </layer>
 <layer id="2" name="Paths" width="1" height="3">
  <data encoding="csv">
0,
0,
0
</data>
 </layer>
 <layer id="3" name="Buildings" width="1" height="3">
  <data encoding="csv">
0,
0,
0
</data>
 </layer>
 <layer id="11" name="Buildings1" width="1" height="3">
  <data encoding="csv">
0,
0,
3
</data>
 </layer>
 <layer id="4" name="Front" width="1" height="3">
  <data encoding="csv">
0,
0,
0
</data>
 </layer>
 <layer id="12" name="Front1" width="1" height="3">
  <data encoding="csv">
0,
2,
0
</data>
 </layer>
 <layer id="5" name="AlwaysFront" width="1" height="3">
  <data encoding="csv">
1,
0,
0
</data>
 </layer>
 <objectgroup id="6" name="Back"/>
 <objectgroup id="7" name="Paths"/>
 <objectgroup id="8" name="Buildings"/>
 <objectgroup id="9" name="Front"/>
 <objectgroup id="13" name="Front1"/>
 <objectgroup id="10" name="AlwaysFront"/>
</map>
